(.../Personal Projects/pcb-gcode/pcb-gcode.ulp)
(Copyright 2005 - 2012 by John Johnson)
(See readme.txt for licensing terms.)
(This file generated from the board:)
(.../esp01-4xSensors/Sensorsboard.brd)
(Current profile is .../pcb-gcode/profiles/generic.pp  )
(This file generated 1/6/19 8:43 PM)
(Settings from pcb-machine.h)
(spindle on time = 0.5000)
(  Tool Size)
(0.1800 )
(spindle speed = 30000.0000)
(tool change at 0.0000 0.0000 10.0000 )
(feed rate xy = F230.00 )
(feed rate z  = F100.00 )
(Z Axis Settings)
(  High     Up        Down     Drill)
(10.0000 	2.5400 	-0.1200 	-3.0000 )
(Settings from pcb-defaults.h)
(isolate min = 0.0254)
(isolate max = 0.4000)
(isolate step = 0.1400)
(Generated top outlines, top drill, bottom outlines, bottom drill, )
(Unit of measure: mm)
(Metric Mode)
G21
(Absolute Coordinates)
G90
S30000
G00 Z10.0000 
G00 X0.0000 Y0.0000 
M03
G04 P0.500000
G00 Z2.5400 
G00 X4.4435 Y3.8537 
G01 Z-0.1200 F100.00 
G01 X4.3539 Y3.9879 F230.00 
G01 X4.2921 Y4.1370 
G01 X4.2606 Y4.2953 
G01 X4.2606 Y5.8647 
G01 X4.2921 Y6.0230 
G01 X4.3539 Y6.1721 
G01 X4.4435 Y6.3063 
G01 X4.5577 Y6.4205 
G01 X4.6919 Y6.5101 
G01 X4.8410 Y6.5719 
G01 X4.9993 Y6.6034 
G01 X5.1607 Y6.6034 
G01 X5.3190 Y6.5719 
G01 X5.4681 Y6.5101 
G01 X5.6023 Y6.4205 
G01 X5.7165 Y6.3063 
G01 X5.8061 Y6.1721 
G01 X5.8679 Y6.0230 
G01 X5.8994 Y5.8647 
G01 X5.8994 Y4.2953 
G01 X5.8679 Y4.1370 
G01 X5.8061 Y3.9879 
G01 X5.7165 Y3.8537 
G01 X5.6023 Y3.7395 
G01 X5.4681 Y3.6499 
G01 X5.3190 Y3.5881 
G01 X5.1607 Y3.5566 
G01 X4.9993 Y3.5566 
G01 X4.8410 Y3.5881 
G01 X4.6919 Y3.6499 
G01 X4.5577 Y3.7395 
G01 X4.4435 Y3.8537 
G00 Z2.5400 
G00 X6.9835 Y3.8537 
G01 Z-0.1200 F100.00 
G01 X6.8939 Y3.9879 F230.00 
G01 X6.8321 Y4.1370 
G01 X6.8006 Y4.2953 
G01 X6.8006 Y5.8647 
G01 X6.8321 Y6.0230 
G01 X6.8939 Y6.1721 
G01 X6.9835 Y6.3063 
G01 X7.0977 Y6.4205 
G01 X7.2319 Y6.5101 
G01 X7.3810 Y6.5719 
G01 X7.5393 Y6.6034 
G01 X7.7007 Y6.6034 
G01 X7.8590 Y6.5719 
G01 X8.0081 Y6.5101 
G01 X8.1423 Y6.4205 
G01 X8.2565 Y6.3063 
G01 X8.3461 Y6.1721 
G01 X8.4079 Y6.0230 
G01 X8.4394 Y5.8647 
G01 X8.4394 Y4.2953 
G01 X8.4079 Y4.1370 
G01 X8.3461 Y3.9879 
G01 X8.2565 Y3.8537 
G01 X8.1423 Y3.7395 
G01 X8.0081 Y3.6499 
G01 X7.8590 Y3.5881 
G01 X7.7007 Y3.5566 
G01 X7.5393 Y3.5566 
G01 X7.3810 Y3.5881 
G01 X7.2319 Y3.6499 
G01 X7.0977 Y3.7395 
G01 X6.9835 Y3.8537 
G00 Z2.5400 
G00 X9.5235 Y3.8537 
G01 Z-0.1200 F100.00 
G01 X9.4339 Y3.9879 F230.00 
G01 X9.3721 Y4.1370 
G01 X9.3406 Y4.2953 
G01 X9.3406 Y5.8647 
G01 X9.3721 Y6.0230 
G01 X9.4339 Y6.1721 
G01 X9.5235 Y6.3063 
G01 X9.6377 Y6.4205 
G01 X9.7719 Y6.5101 
G01 X9.9210 Y6.5719 
G01 X10.0793 Y6.6034 
G01 X10.2407 Y6.6034 
G01 X10.3990 Y6.5719 
G01 X10.5481 Y6.5101 
G01 X10.6823 Y6.4205 
G01 X10.7965 Y6.3063 
G01 X10.8861 Y6.1721 
G01 X10.9479 Y6.0230 
G01 X10.9794 Y5.8647 
G01 X10.9794 Y5.1954 
G01 X11.9358 Y5.1954 
G01 X12.0298 Y5.1702 
G01 X12.1140 Y5.1216 
G01 X13.0054 Y4.2302 
G01 X23.7992 Y4.2302 
G01 X25.6656 Y6.0966 
G01 X25.6656 Y7.2620 
G01 X25.6832 Y7.3044 
G01 X25.7156 Y7.3368 
G01 X25.7580 Y7.3544 
G01 X26.9234 Y7.3544 
G01 X29.2210 Y9.6520 
G01 X26.0696 Y12.8034 
G01 X26.0210 Y12.8876 
G01 X25.9958 Y12.9816 
G01 X25.9958 Y13.4736 
G01 X24.8182 Y13.4736 
G01 X24.7758 Y13.4912 
G01 X24.7434 Y13.5236 
G01 X24.7258 Y13.5660 
G01 X24.7258 Y14.8312 
G01 X24.7434 Y14.8736 
G01 X24.7758 Y14.9060 
G01 X24.8182 Y14.9236 
G01 X26.7710 Y14.9236 
G01 X27.4436 Y15.5962 
G01 X27.4436 Y16.4570 
G01 X27.4688 Y16.5510 
G01 X27.5174 Y16.6352 
G01 X27.5862 Y16.7040 
G01 X31.3044 Y20.4222 
G01 X31.3044 Y20.7706 
G01 X30.9653 Y20.7706 
G01 X30.8070 Y20.8021 
G01 X30.6579 Y20.8639 
G01 X30.5237 Y20.9535 
G01 X30.4095 Y21.0677 
G01 X30.3199 Y21.2019 
G01 X30.2581 Y21.3510 
G01 X30.2266 Y21.5093 
G01 X30.2266 Y21.6707 
G01 X30.2581 Y21.8290 
G01 X30.3199 Y21.9781 
G01 X30.4095 Y22.1123 
G01 X30.5237 Y22.2265 
G01 X30.6579 Y22.3161 
G01 X30.8070 Y22.3779 
G01 X30.9653 Y22.4094 
G01 X32.5347 Y22.4094 
G01 X32.6930 Y22.3779 
G01 X32.8421 Y22.3161 
G01 X32.9763 Y22.2265 
G01 X33.0905 Y22.1123 
G01 X33.1801 Y21.9781 
G01 X33.2419 Y21.8290 
G01 X33.2734 Y21.6707 
G01 X33.2734 Y21.5093 
G01 X33.2419 Y21.3510 
G01 X33.1801 Y21.2019 
G01 X33.0905 Y21.0677 
G01 X32.9763 Y20.9535 
G01 X32.8421 Y20.8639 
G01 X32.6930 Y20.8021 
G01 X32.5347 Y20.7706 
G01 X32.0432 Y20.7706 
G01 X32.0432 Y20.2206 
G01 X32.0180 Y20.1266 
G01 X31.9694 Y20.0424 
G01 X28.1824 Y16.2554 
G01 X28.1824 Y15.3946 
G01 X28.1572 Y15.3006 
G01 X28.1086 Y15.2164 
G01 X27.1918 Y14.2996 
G01 X27.1918 Y13.5660 
G01 X27.1742 Y13.5236 
G01 X27.1418 Y13.4912 
G01 X27.0994 Y13.4736 
G01 X26.7346 Y13.4736 
G01 X26.7346 Y13.1832 
G01 X29.8964 Y10.0214 
G01 X30.6346 Y10.0214 
G01 X30.6346 Y10.7030 
G01 X30.6522 Y10.7454 
G01 X30.6846 Y10.7778 
G01 X30.7270 Y10.7954 
G01 X32.7730 Y10.7954 
G01 X32.8154 Y10.7778 
G01 X32.8478 Y10.7454 
G01 X32.8654 Y10.7030 
G01 X32.8654 Y9.1570 
G01 X32.8478 Y9.1146 
G01 X32.8154 Y9.0822 
G01 X32.7730 Y9.0646 
G01 X30.7270 Y9.0646 
G01 X30.6846 Y9.0822 
G01 X30.6522 Y9.1146 
G01 X30.6346 Y9.1570 
G01 X30.6346 Y9.2826 
G01 X29.8964 Y9.2826 
G01 X27.6744 Y7.0606 
G01 X27.6744 Y5.4380 
G01 X27.6568 Y5.3956 
G01 X27.6244 Y5.3632 
G01 X27.5820 Y5.3456 
G01 X25.9594 Y5.3456 
G01 X24.1790 Y3.5652 
G01 X24.0948 Y3.5166 
G01 X24.0008 Y3.4914 
G01 X12.8038 Y3.4914 
G01 X12.7098 Y3.5166 
G01 X12.6256 Y3.5652 
G01 X12.5568 Y3.6340 
G01 X11.7342 Y4.4566 
G01 X10.9794 Y4.4566 
G01 X10.9794 Y4.2953 
G01 X10.9479 Y4.1370 
G01 X10.8861 Y3.9879 
G01 X10.7965 Y3.8537 
G01 X10.6823 Y3.7395 
G01 X10.5481 Y3.6499 
G01 X10.3990 Y3.5881 
G01 X10.2407 Y3.5566 
G01 X10.0793 Y3.5566 
G01 X9.9210 Y3.5881 
G01 X9.7719 Y3.6499 
G01 X9.6377 Y3.7395 
G01 X9.5235 Y3.8537 
G00 Z2.5400 
G00 X10.2864 Y7.3522 
G01 Z-0.1200 F100.00 
G01 X7.0126 Y7.3522 F230.00 
G01 X6.9186 Y7.3774 
G01 X6.8344 Y7.4260 
G01 X5.5055 Y8.7549 
G01 X5.4681 Y8.7299 
G01 X5.3190 Y8.6681 
G01 X5.1607 Y8.6366 
G01 X4.9993 Y8.6366 
G01 X4.8410 Y8.6681 
G01 X4.6919 Y8.7299 
G01 X4.5577 Y8.8195 
G01 X4.4435 Y8.9337 
G01 X4.3539 Y9.0679 
G01 X4.2921 Y9.2170 
G01 X4.2606 Y9.3753 
G01 X4.2606 Y10.9447 
G01 X4.2921 Y11.1030 
G01 X4.3539 Y11.2521 
G01 X4.4435 Y11.3863 
G01 X4.5577 Y11.5005 
G01 X4.6919 Y11.5901 
G01 X4.8410 Y11.6519 
G01 X4.9993 Y11.6834 
G01 X5.1607 Y11.6834 
G01 X5.3190 Y11.6519 
G01 X5.4681 Y11.5901 
G01 X5.6023 Y11.5005 
G01 X5.7165 Y11.3863 
G01 X5.8061 Y11.2521 
G01 X5.8679 Y11.1030 
G01 X5.8994 Y10.9447 
G01 X5.8994 Y9.4058 
G01 X7.2142 Y8.0910 
G01 X10.4880 Y8.0910 
G01 X10.5820 Y8.0658 
G01 X10.6662 Y8.0172 
G01 X10.7350 Y7.9484 
G01 X13.4880 Y5.1954 
G01 X22.3514 Y5.1954 
G01 X23.1256 Y5.9696 
G01 X23.1256 Y6.7660 
G01 X23.7140 Y7.3544 
G01 X24.5460 Y7.3544 
G01 X25.1344 Y6.7660 
G01 X25.1344 Y5.9340 
G01 X24.5460 Y5.3456 
G01 X23.7140 Y5.3456 
G01 X23.6302 Y5.4294 
G01 X22.8000 Y4.5992 
G01 X22.7312 Y4.5304 
G01 X22.6470 Y4.4818 
G01 X22.5530 Y4.4566 
G01 X13.2864 Y4.4566 
G01 X13.1924 Y4.4818 
G01 X13.1082 Y4.5304 
G01 X10.2864 Y7.3522 
G00 Z2.5400 
G00 X10.2407 Y8.6366 
G01 Z-0.1200 F100.00 
G01 X10.0793 Y8.6366 F230.00 
G01 X9.9210 Y8.6681 
G01 X9.7719 Y8.7299 
G01 X9.6377 Y8.8195 
G01 X9.5235 Y8.9337 
G01 X9.4339 Y9.0679 
G01 X9.3721 Y9.2170 
G01 X9.3406 Y9.3753 
G01 X9.3406 Y10.9447 
G01 X9.3721 Y11.1030 
G01 X9.4339 Y11.2521 
G01 X9.5235 Y11.3863 
G01 X9.5874 Y11.4502 
G01 X9.5874 Y12.6608 
G01 X4.5996 Y12.6608 
G01 X4.5056 Y12.6860 
G01 X4.4214 Y12.7346 
G01 X2.9048 Y14.2512 
G01 X2.8562 Y14.3354 
G01 X2.8310 Y14.4294 
G01 X2.8310 Y21.2830 
G01 X2.8562 Y21.3770 
G01 X2.9048 Y21.4612 
G01 X4.3526 Y22.9090 
G01 X4.4214 Y22.9778 
G01 X4.5056 Y23.0264 
G01 X4.5996 Y23.0516 
G01 X8.0750 Y23.0516 
G01 X8.1690 Y23.0264 
G01 X8.2532 Y22.9778 
G01 X9.6041 Y21.6269 
G01 X9.6377 Y21.6605 
G01 X9.7719 Y21.7501 
G01 X9.9210 Y21.8119 
G01 X10.0793 Y21.8434 
G01 X10.2407 Y21.8434 
G01 X10.3990 Y21.8119 
G01 X10.5481 Y21.7501 
G01 X10.6823 Y21.6605 
G01 X10.7965 Y21.5463 
G01 X10.8861 Y21.4121 
G01 X10.9479 Y21.2630 
G01 X10.9794 Y21.1047 
G01 X10.9794 Y19.5353 
G01 X10.9479 Y19.3770 
G01 X10.8861 Y19.2279 
G01 X10.7965 Y19.0937 
G01 X10.6823 Y18.9795 
G01 X10.5481 Y18.8899 
G01 X10.3990 Y18.8281 
G01 X10.2407 Y18.7966 
G01 X10.0793 Y18.7966 
G01 X9.9210 Y18.8281 
G01 X9.7719 Y18.8899 
G01 X9.6377 Y18.9795 
G01 X9.5235 Y19.0937 
G01 X9.4339 Y19.2279 
G01 X9.3721 Y19.3770 
G01 X9.3406 Y19.5353 
G01 X9.3406 Y20.8456 
G01 X7.8734 Y22.3128 
G01 X4.8012 Y22.3128 
G01 X3.5698 Y21.0814 
G01 X3.5698 Y14.6310 
G01 X4.8012 Y13.3996 
G01 X9.5874 Y13.3996 
G01 X9.5874 Y13.9498 
G01 X9.5235 Y14.0137 
G01 X9.4339 Y14.1479 
G01 X9.3721 Y14.2970 
G01 X9.3406 Y14.4553 
G01 X9.3406 Y16.0247 
G01 X9.3721 Y16.1830 
G01 X9.4339 Y16.3321 
G01 X9.5235 Y16.4663 
G01 X9.6377 Y16.5805 
G01 X9.7719 Y16.6701 
G01 X9.9210 Y16.7319 
G01 X10.0793 Y16.7634 
G01 X10.2407 Y16.7634 
G01 X10.3990 Y16.7319 
G01 X10.5481 Y16.6701 
G01 X10.6823 Y16.5805 
G01 X10.7965 Y16.4663 
G01 X10.8861 Y16.3321 
G01 X10.9479 Y16.1830 
G01 X10.9794 Y16.0247 
G01 X10.9794 Y14.4553 
G01 X10.9479 Y14.2970 
G01 X10.8861 Y14.1479 
G01 X10.7965 Y14.0137 
G01 X10.6823 Y13.8995 
G01 X10.5481 Y13.8099 
G01 X10.3990 Y13.7481 
G01 X10.3262 Y13.7336 
G01 X10.3262 Y11.6664 
G01 X10.3990 Y11.6519 
G01 X10.5481 Y11.5901 
G01 X10.6823 Y11.5005 
G01 X10.7965 Y11.3863 
G01 X10.8861 Y11.2521 
G01 X10.9479 Y11.1030 
G01 X10.9794 Y10.9447 
G01 X10.9794 Y9.3753 
G01 X10.9479 Y9.2170 
G01 X10.8861 Y9.0679 
G01 X10.7965 Y8.9337 
G01 X10.6823 Y8.8195 
G01 X10.5481 Y8.7299 
G01 X10.3990 Y8.6681 
G01 X10.2407 Y8.6366 
G00 Z2.5400 
G00 X8.1423 Y8.8195 
G01 Z-0.1200 F100.00 
G01 X8.0081 Y8.7299 F230.00 
G01 X7.8590 Y8.6681 
G01 X7.7007 Y8.6366 
G01 X7.5393 Y8.6366 
G01 X7.3810 Y8.6681 
G01 X7.2319 Y8.7299 
G01 X7.0977 Y8.8195 
G01 X6.9835 Y8.9337 
G01 X6.8939 Y9.0679 
G01 X6.8321 Y9.2170 
G01 X6.8006 Y9.3753 
G01 X6.8006 Y10.9447 
G01 X6.8321 Y11.1030 
G01 X6.8939 Y11.2521 
G01 X6.9835 Y11.3863 
G01 X7.0977 Y11.5005 
G01 X7.2319 Y11.5901 
G01 X7.3810 Y11.6519 
G01 X7.5393 Y11.6834 
G01 X7.7007 Y11.6834 
G01 X7.8590 Y11.6519 
G01 X8.0081 Y11.5901 
G01 X8.1423 Y11.5005 
G01 X8.2565 Y11.3863 
G01 X8.3461 Y11.2521 
G01 X8.4079 Y11.1030 
G01 X8.4394 Y10.9447 
G01 X8.4394 Y9.3753 
G01 X8.4079 Y9.2170 
G01 X8.3461 Y9.0679 
G01 X8.2565 Y8.9337 
G01 X8.1423 Y8.8195 
G00 Z2.5400 
G00 X8.1423 Y13.8995 
G01 Z-0.1200 F100.00 
G01 X8.0081 Y13.8099 F230.00 
G01 X7.8590 Y13.7481 
G01 X7.7007 Y13.7166 
G01 X7.5393 Y13.7166 
G01 X7.3810 Y13.7481 
G01 X7.2319 Y13.8099 
G01 X7.0977 Y13.8995 
G01 X6.9835 Y14.0137 
G01 X6.8939 Y14.1479 
G01 X6.8321 Y14.2970 
G01 X6.8006 Y14.4553 
G01 X6.8006 Y16.0247 
G01 X6.8321 Y16.1830 
G01 X6.8939 Y16.3321 
G01 X6.9835 Y16.4663 
G01 X7.0977 Y16.5805 
G01 X7.2319 Y16.6701 
G01 X7.3810 Y16.7319 
G01 X7.5393 Y16.7634 
G01 X7.7007 Y16.7634 
G01 X7.8590 Y16.7319 
G01 X8.0081 Y16.6701 
G01 X8.1423 Y16.5805 
G01 X8.2565 Y16.4663 
G01 X8.3461 Y16.3321 
G01 X8.4079 Y16.1830 
G01 X8.4394 Y16.0247 
G01 X8.4394 Y14.4553 
G01 X8.4079 Y14.2970 
G01 X8.3461 Y14.1479 
G01 X8.2565 Y14.0137 
G01 X8.1423 Y13.8995 
G00 Z2.5400 
G00 X5.6023 Y13.8995 
G01 Z-0.1200 F100.00 
G01 X5.4681 Y13.8099 F230.00 
G01 X5.3190 Y13.7481 
G01 X5.1607 Y13.7166 
G01 X4.9993 Y13.7166 
G01 X4.8410 Y13.7481 
G01 X4.6919 Y13.8099 
G01 X4.5577 Y13.8995 
G01 X4.4435 Y14.0137 
G01 X4.3539 Y14.1479 
G01 X4.2921 Y14.2970 
G01 X4.2606 Y14.4553 
G01 X4.2606 Y16.0247 
G01 X4.2921 Y16.1830 
G01 X4.3539 Y16.3321 
G01 X4.4435 Y16.4663 
G01 X4.5577 Y16.5805 
G01 X4.6919 Y16.6701 
G01 X4.8410 Y16.7319 
G01 X4.9993 Y16.7634 
G01 X5.1607 Y16.7634 
G01 X5.3190 Y16.7319 
G01 X5.4681 Y16.6701 
G01 X5.6023 Y16.5805 
G01 X5.7165 Y16.4663 
G01 X5.8061 Y16.3321 
G01 X5.8679 Y16.1830 
G01 X5.8994 Y16.0247 
G01 X5.8994 Y14.4553 
G01 X5.8679 Y14.2970 
G01 X5.8061 Y14.1479 
G01 X5.7165 Y14.0137 
G01 X5.6023 Y13.8995 
G00 Z2.5400 
G00 X6.8344 Y17.5606 
G01 Z-0.1200 F100.00 
G01 X5.4903 Y18.9047 F230.00 
G01 X5.4681 Y18.8899 
G01 X5.3190 Y18.8281 
G01 X5.1607 Y18.7966 
G01 X4.9993 Y18.7966 
G01 X4.8410 Y18.8281 
G01 X4.6919 Y18.8899 
G01 X4.5577 Y18.9795 
G01 X4.4435 Y19.0937 
G01 X4.3539 Y19.2279 
G01 X4.2921 Y19.3770 
G01 X4.2606 Y19.5353 
G01 X4.2606 Y21.1047 
G01 X4.2921 Y21.2630 
G01 X4.3539 Y21.4121 
G01 X4.4435 Y21.5463 
G01 X4.5577 Y21.6605 
G01 X4.6919 Y21.7501 
G01 X4.8410 Y21.8119 
G01 X4.9993 Y21.8434 
G01 X5.1607 Y21.8434 
G01 X5.3190 Y21.8119 
G01 X5.4681 Y21.7501 
G01 X5.6023 Y21.6605 
G01 X5.7165 Y21.5463 
G01 X5.8061 Y21.4121 
G01 X5.8679 Y21.2630 
G01 X5.8994 Y21.1047 
G01 X5.8994 Y19.5404 
G01 X7.2142 Y18.2256 
G01 X10.4880 Y18.2256 
G01 X10.5820 Y18.2004 
G01 X10.6662 Y18.1518 
G01 X10.7350 Y18.0830 
G01 X12.1828 Y16.6352 
G01 X12.2314 Y16.5510 
G01 X12.2566 Y16.4570 
G01 X12.2566 Y13.6658 
G01 X18.6010 Y7.3214 
G01 X18.6340 Y7.3544 
G01 X19.4660 Y7.3544 
G01 X20.0544 Y6.7660 
G01 X20.0544 Y5.9340 
G01 X19.4660 Y5.3456 
G01 X18.6340 Y5.3456 
G01 X18.0456 Y5.9340 
G01 X18.0456 Y6.7660 
G01 X18.0786 Y6.7990 
G01 X11.6604 Y13.2172 
G01 X11.5916 Y13.2860 
G01 X11.5430 Y13.3702 
G01 X11.5178 Y13.4642 
G01 X11.5178 Y16.2554 
G01 X10.2864 Y17.4868 
G01 X7.0126 Y17.4868 
G01 X6.9186 Y17.5120 
G01 X6.8344 Y17.5606 
G00 Z2.5400 
G00 X6.9835 Y19.0937 
G01 Z-0.1200 F100.00 
G01 X6.8939 Y19.2279 F230.00 
G01 X6.8321 Y19.3770 
G01 X6.8006 Y19.5353 
G01 X6.8006 Y21.1047 
G01 X6.8321 Y21.2630 
G01 X6.8939 Y21.4121 
G01 X6.9835 Y21.5463 
G01 X7.0977 Y21.6605 
G01 X7.2319 Y21.7501 
G01 X7.3810 Y21.8119 
G01 X7.5393 Y21.8434 
G01 X7.7007 Y21.8434 
G01 X7.8590 Y21.8119 
G01 X8.0081 Y21.7501 
G01 X8.1423 Y21.6605 
G01 X8.2565 Y21.5463 
G01 X8.3461 Y21.4121 
G01 X8.4079 Y21.2630 
G01 X8.4394 Y21.1047 
G01 X8.4394 Y19.5353 
G01 X8.4079 Y19.3770 
G01 X8.3461 Y19.2279 
G01 X8.2565 Y19.0937 
G01 X8.1423 Y18.9795 
G01 X8.0081 Y18.8899 
G01 X7.8590 Y18.8281 
G01 X7.7007 Y18.7966 
G01 X7.5393 Y18.7966 
G01 X7.3810 Y18.8281 
G01 X7.2319 Y18.8899 
G01 X7.0977 Y18.9795 
G01 X6.9835 Y19.0937 
G00 Z2.5400 
G00 X18.5956 Y18.4078 
G01 Z-0.1200 F100.00 
G01 X18.6380 Y18.4254 F230.00 
G01 X20.8840 Y18.4254 
G01 X20.9264 Y18.4078 
G01 X20.9588 Y18.3754 
G01 X20.9764 Y18.3330 
G01 X20.9764 Y14.6870 
G01 X20.9588 Y14.6446 
G01 X20.9264 Y14.6122 
G01 X20.8840 Y14.5946 
G01 X18.6380 Y14.5946 
G01 X18.5956 Y14.6122 
G01 X18.5632 Y14.6446 
G01 X18.5456 Y14.6870 
G01 X18.5456 Y18.3330 
G01 X18.5632 Y18.3754 
G01 X18.5956 Y18.4078 
G00 Z2.5400 
G00 X23.5828 Y17.8076 
G01 Z-0.1200 F100.00 
G01 X23.5828 Y19.8352 F230.00 
G01 X23.6080 Y19.9292 
G01 X23.6566 Y20.0134 
G01 X23.7254 Y20.0822 
G01 X29.5166 Y25.8734 
G01 X29.6008 Y25.9220 
G01 X29.6948 Y25.9472 
G01 X33.1702 Y25.9472 
G01 X33.2642 Y25.9220 
G01 X33.3484 Y25.8734 
G01 X33.4172 Y25.8046 
G01 X34.3824 Y24.8394 
G01 X34.4310 Y24.7552 
G01 X34.4562 Y24.6612 
G01 X34.4562 Y21.1858 
G01 X34.4310 Y21.0918 
G01 X34.3824 Y21.0076 
G01 X34.3136 Y20.9388 
G01 X32.5258 Y19.1510 
G01 X32.5258 Y13.7954 
G01 X32.7730 Y13.7954 
G01 X32.8154 Y13.7778 
G01 X32.8478 Y13.7454 
G01 X32.8654 Y13.7030 
G01 X32.8654 Y12.1570 
G01 X32.8478 Y12.1146 
G01 X32.8154 Y12.0822 
G01 X32.7730 Y12.0646 
G01 X30.7270 Y12.0646 
G01 X30.6846 Y12.0822 
G01 X30.6522 Y12.1146 
G01 X30.6346 Y12.1570 
G01 X30.6346 Y13.7030 
G01 X30.6522 Y13.7454 
G01 X30.6846 Y13.7778 
G01 X30.7270 Y13.7954 
G01 X31.7870 Y13.7954 
G01 X31.7870 Y19.3526 
G01 X31.8122 Y19.4466 
G01 X31.8608 Y19.5308 
G01 X33.7174 Y21.3874 
G01 X33.7174 Y24.4596 
G01 X32.9686 Y25.2084 
G01 X29.8964 Y25.2084 
G01 X24.3216 Y19.6336 
G01 X24.3216 Y18.0092 
G01 X25.0704 Y17.2604 
G01 X25.8460 Y17.2604 
G01 X25.8578 Y17.2628 
G01 X25.8945 Y17.2604 
G01 X25.9312 Y17.2604 
G01 X25.9429 Y17.2573 
G01 X25.9549 Y17.2565 
G01 X25.9897 Y17.2447 
G01 X26.0252 Y17.2352 
G01 X27.0994 Y17.2350 
G01 X27.1418 Y17.2174 
G01 X27.1742 Y17.1850 
G01 X27.1918 Y17.1426 
G01 X27.1918 Y15.8774 
G01 X27.1742 Y15.8350 
G01 X27.1418 Y15.8026 
G01 X27.0994 Y15.7850 
G01 X25.7816 Y15.7850 
G01 X25.2130 Y15.2164 
G01 X25.1442 Y15.1476 
G01 X25.0600 Y15.0990 
G01 X24.9660 Y15.0738 
G01 X24.5878 Y15.0738 
G01 X22.8738 Y13.3598 
G01 X22.8738 Y10.7702 
G01 X23.7496 Y9.8944 
G01 X24.5460 Y9.8944 
G01 X25.1344 Y9.3060 
G01 X25.1344 Y8.4740 
G01 X24.5460 Y7.8856 
G01 X23.7140 Y7.8856 
G01 X23.1256 Y8.4740 
G01 X23.1256 Y9.3060 
G01 X23.2094 Y9.3898 
G01 X22.3514 Y10.2478 
G01 X20.7270 Y10.2478 
G01 X19.9198 Y9.4406 
G01 X20.0544 Y9.3060 
G01 X20.0544 Y8.4740 
G01 X19.4660 Y7.8856 
G01 X18.6340 Y7.8856 
G01 X18.0456 Y8.4740 
G01 X18.0456 Y9.3060 
G01 X18.6340 Y9.8944 
G01 X19.3288 Y9.8944 
G01 X20.3472 Y10.9128 
G01 X20.4314 Y10.9614 
G01 X20.5254 Y10.9866 
G01 X22.1350 Y10.9866 
G01 X22.1350 Y13.5614 
G01 X22.1602 Y13.6554 
G01 X22.2088 Y13.7396 
G01 X22.2776 Y13.8084 
G01 X24.2080 Y15.7388 
G01 X24.2922 Y15.7874 
G01 X24.3862 Y15.8126 
G01 X24.7644 Y15.8126 
G01 X24.7434 Y15.8350 
G01 X24.7258 Y15.8774 
G01 X24.7258 Y16.5751 
G01 X24.6906 Y16.5954 
G01 X24.6218 Y16.6642 
G01 X23.7254 Y17.5606 
G01 X23.6566 Y17.6294 
G01 X23.6080 Y17.7136 
G01 X23.5828 Y17.8076 
G00 Z2.5400 
G00 X24.7434 Y18.1464 
G01 Z-0.1200 F100.00 
G01 X24.7258 Y18.1888 F230.00 
G01 X24.7258 Y19.4540 
G01 X24.7434 Y19.4964 
G01 X24.7758 Y19.5288 
G01 X24.8182 Y19.5464 
G01 X26.5678 Y19.5464 
G01 X30.5193 Y23.4979 
G01 X30.4095 Y23.6077 
G01 X30.3199 Y23.7419 
G01 X30.2581 Y23.8910 
G01 X30.2266 Y24.0493 
G01 X30.2266 Y24.2107 
G01 X30.2581 Y24.3690 
G01 X30.3199 Y24.5181 
G01 X30.4095 Y24.6523 
G01 X30.5237 Y24.7665 
G01 X30.6579 Y24.8561 
G01 X30.8070 Y24.9179 
G01 X30.9653 Y24.9494 
G01 X32.5347 Y24.9494 
G01 X32.6930 Y24.9179 
G01 X32.8421 Y24.8561 
G01 X32.9763 Y24.7665 
G01 X33.0905 Y24.6523 
G01 X33.1801 Y24.5181 
G01 X33.2419 Y24.3690 
G01 X33.2734 Y24.2107 
G01 X33.2734 Y24.0493 
G01 X33.2419 Y23.8910 
G01 X33.1801 Y23.7419 
G01 X33.0905 Y23.6077 
G01 X32.9763 Y23.4935 
G01 X32.8421 Y23.4039 
G01 X32.6930 Y23.3421 
G01 X32.5347 Y23.3106 
G01 X31.3768 Y23.3106 
G01 X27.1918 Y19.1256 
G01 X27.1918 Y18.1888 
G01 X27.1742 Y18.1464 
G01 X27.1418 Y18.1140 
G01 X27.0994 Y18.0964 
G01 X24.8182 Y18.0964 
G01 X24.7758 Y18.1140 
G01 X24.7434 Y18.1464 
G00 Z2.5400 
G00 X26.2540 Y9.8944 
G01 Z-0.1200 F100.00 
G01 X27.0860 Y9.8944 F230.00 
G01 X27.6744 Y9.3060 
G01 X27.6744 Y8.4740 
G01 X27.0860 Y7.8856 
G01 X26.2540 Y7.8856 
G01 X25.6656 Y8.4740 
G01 X25.6656 Y9.3060 
G01 X26.2540 Y9.8944 
G00 Z2.5400 
G00 X22.5944 Y9.3060 
G01 Z-0.1200 F100.00 
G01 X22.5944 Y8.4740 F230.00 
G01 X22.0060 Y7.8856 
G01 X21.1740 Y7.8856 
G01 X20.5856 Y8.4740 
G01 X20.5856 Y9.3060 
G01 X21.1740 Y9.8944 
G01 X22.0060 Y9.8944 
G01 X22.5944 Y9.3060 
G00 Z2.5400 
G00 X22.5944 Y6.7660 
G01 Z-0.1200 F100.00 
G01 X22.5944 Y5.9340 F230.00 
G01 X22.0060 Y5.3456 
G01 X21.1740 Y5.3456 
G01 X20.5856 Y5.9340 
G01 X20.5856 Y6.7660 
G01 X21.1740 Y7.3544 
G01 X22.0060 Y7.3544 
G01 X22.5944 Y6.7660 
G00 Z2.5400 
G00 X4.3348 Y3.7644 
G01 Z-0.1200 F100.00 
G01 X4.2298 Y3.9216 F230.00 
G01 X4.1575 Y4.0961 
G01 X4.1206 Y4.2815 
G01 X4.1206 Y5.8785 
G01 X4.1575 Y6.0638 
G01 X4.2298 Y6.2384 
G01 X4.3348 Y6.3956 
G01 X4.4684 Y6.5292 
G01 X4.6256 Y6.6342 
G01 X4.8002 Y6.7065 
G01 X4.9855 Y6.7434 
G01 X5.1745 Y6.7434 
G01 X5.3598 Y6.7065 
G01 X5.5344 Y6.6342 
G01 X5.6916 Y6.5292 
G01 X5.8252 Y6.3956 
G01 X5.9302 Y6.2384 
G01 X6.0025 Y6.0638 
G01 X6.0394 Y5.8785 
G01 X6.0394 Y4.2815 
G01 X6.0025 Y4.0961 
G01 X5.9302 Y3.9216 
G01 X5.8252 Y3.7644 
G01 X5.6916 Y3.6308 
G01 X5.5344 Y3.5258 
G01 X5.3598 Y3.4535 
G01 X5.1745 Y3.4166 
G01 X4.9855 Y3.4166 
G01 X4.8002 Y3.4535 
G01 X4.6256 Y3.5258 
G01 X4.4684 Y3.6308 
G01 X4.3348 Y3.7644 
G00 Z2.5400 
G00 X6.8748 Y3.7644 
G01 Z-0.1200 F100.00 
G01 X6.7698 Y3.9216 F230.00 
G01 X6.6975 Y4.0961 
G01 X6.6606 Y4.2815 
G01 X6.6606 Y5.8785 
G01 X6.6975 Y6.0638 
G01 X6.7698 Y6.2384 
G01 X6.8748 Y6.3956 
G01 X7.0084 Y6.5292 
G01 X7.1656 Y6.6342 
G01 X7.3402 Y6.7065 
G01 X7.5255 Y6.7434 
G01 X7.7145 Y6.7434 
G01 X7.8998 Y6.7065 
G01 X8.0744 Y6.6342 
G01 X8.2316 Y6.5292 
G01 X8.3652 Y6.3956 
G01 X8.4702 Y6.2384 
G01 X8.5425 Y6.0638 
G01 X8.5794 Y5.8785 
G01 X8.5794 Y4.2815 
G01 X8.5425 Y4.0961 
G01 X8.4702 Y3.9216 
G01 X8.3652 Y3.7644 
G01 X8.2316 Y3.6308 
G01 X8.0744 Y3.5258 
G01 X7.8998 Y3.4535 
G01 X7.7145 Y3.4166 
G01 X7.5255 Y3.4166 
G01 X7.3402 Y3.4535 
G01 X7.1656 Y3.5258 
G01 X7.0084 Y3.6308 
G01 X6.8748 Y3.7644 
G00 Z2.5400 
G00 X9.4148 Y3.7644 
G01 Z-0.1200 F100.00 
G01 X9.3098 Y3.9216 F230.00 
G01 X9.2375 Y4.0961 
G01 X9.2006 Y4.2815 
G01 X9.2006 Y5.8785 
G01 X9.2375 Y6.0638 
G01 X9.3098 Y6.2384 
G01 X9.4148 Y6.3956 
G01 X9.5484 Y6.5292 
G01 X9.7056 Y6.6342 
G01 X9.8802 Y6.7065 
G01 X10.0655 Y6.7434 
G01 X10.2545 Y6.7434 
G01 X10.4398 Y6.7065 
G01 X10.6144 Y6.6342 
G01 X10.7716 Y6.5292 
G01 X10.9052 Y6.3956 
G01 X11.0102 Y6.2384 
G01 X11.0825 Y6.0638 
G01 X11.1194 Y5.8785 
G01 X11.1194 Y5.3354 
G01 X11.9543 Y5.3354 
G01 X12.0838 Y5.3007 
G01 X12.2000 Y5.2336 
G01 X13.0634 Y4.3702 
G01 X13.1057 Y4.3702 
G01 X13.0222 Y4.4184 
G01 X10.2284 Y7.2122 
G01 X6.9941 Y7.2122 
G01 X6.8646 Y7.2469 
G01 X6.7484 Y7.3140 
G01 X5.4794 Y8.5830 
G01 X5.3598 Y8.5335 
G01 X5.1745 Y8.4966 
G01 X4.9855 Y8.4966 
G01 X4.8002 Y8.5335 
G01 X4.6256 Y8.6058 
G01 X4.4684 Y8.7108 
G01 X4.3348 Y8.8444 
G01 X4.2298 Y9.0016 
G01 X4.1575 Y9.1761 
G01 X4.1206 Y9.3615 
G01 X4.1206 Y10.9585 
G01 X4.1575 Y11.1438 
G01 X4.2298 Y11.3184 
G01 X4.3348 Y11.4756 
G01 X4.4684 Y11.6092 
G01 X4.6256 Y11.7142 
G01 X4.8002 Y11.7865 
G01 X4.9855 Y11.8234 
G01 X5.1745 Y11.8234 
G01 X5.3598 Y11.7865 
G01 X5.5344 Y11.7142 
G01 X5.6916 Y11.6092 
G01 X5.8252 Y11.4756 
G01 X5.9302 Y11.3184 
G01 X6.0025 Y11.1438 
G01 X6.0394 Y10.9585 
G01 X6.0394 Y9.4638 
G01 X7.2722 Y8.2310 
G01 X10.5065 Y8.2310 
G01 X10.6360 Y8.1963 
G01 X10.7522 Y8.1292 
G01 X10.8470 Y8.0344 
G01 X13.5460 Y5.3354 
G01 X18.4462 Y5.3354 
G01 X17.9056 Y5.8760 
G01 X17.9056 Y6.7740 
G01 X11.5744 Y13.1052 
G01 X11.4796 Y13.2000 
G01 X11.4125 Y13.3162 
G01 X11.3778 Y13.4457 
G01 X11.3778 Y16.1974 
G01 X10.2284 Y17.3468 
G01 X6.9941 Y17.3468 
G01 X6.8646 Y17.3815 
G01 X6.7484 Y17.4486 
G01 X5.4614 Y18.7356 
G01 X5.3598 Y18.6935 
G01 X5.1745 Y18.6566 
G01 X4.9855 Y18.6566 
G01 X4.8002 Y18.6935 
G01 X4.6256 Y18.7658 
G01 X4.4684 Y18.8708 
G01 X4.3348 Y19.0044 
G01 X4.2298 Y19.1616 
G01 X4.1575 Y19.3361 
G01 X4.1206 Y19.5215 
G01 X4.1206 Y21.1185 
G01 X4.1575 Y21.3038 
G01 X4.2298 Y21.4784 
G01 X4.3348 Y21.6356 
G01 X4.4684 Y21.7692 
G01 X4.6256 Y21.8742 
G01 X4.8002 Y21.9465 
G01 X4.9855 Y21.9834 
G01 X5.1745 Y21.9834 
G01 X5.3598 Y21.9465 
G01 X5.5344 Y21.8742 
G01 X5.6916 Y21.7692 
G01 X5.8252 Y21.6356 
G01 X5.9302 Y21.4784 
G01 X6.0025 Y21.3038 
G01 X6.0394 Y21.1185 
G01 X6.0394 Y19.5984 
G01 X7.2722 Y18.3656 
G01 X10.5065 Y18.3656 
G01 X10.6360 Y18.3309 
G01 X10.7522 Y18.2638 
G01 X10.8470 Y18.1690 
G01 X12.2948 Y16.7212 
G01 X12.3619 Y16.6050 
G01 X12.3966 Y16.4755 
G01 X12.3966 Y13.7238 
G01 X18.6260 Y7.4944 
G01 X19.5240 Y7.4944 
G01 X20.1944 Y6.8240 
G01 X20.1944 Y5.8760 
G01 X19.6538 Y5.3354 
G01 X20.9862 Y5.3354 
G01 X20.4456 Y5.8760 
G01 X20.4456 Y6.8240 
G01 X21.1160 Y7.4944 
G01 X22.0640 Y7.4944 
G01 X22.7344 Y6.8240 
G01 X22.7344 Y5.8760 
G01 X22.1938 Y5.3354 
G01 X22.2934 Y5.3354 
G01 X22.9856 Y6.0276 
G01 X22.9856 Y6.8240 
G01 X23.6560 Y7.4944 
G01 X24.6040 Y7.4944 
G01 X25.2744 Y6.8240 
G01 X25.2744 Y5.9034 
G01 X25.5256 Y6.1546 
G01 X25.5256 Y7.2726 
G01 X25.5430 Y7.3376 
G01 X25.5766 Y7.3958 
G01 X25.6242 Y7.4434 
G01 X25.6824 Y7.4770 
G01 X25.7474 Y7.4944 
G01 X26.8654 Y7.4944 
G01 X27.1166 Y7.7456 
G01 X26.1960 Y7.7456 
G01 X25.5256 Y8.4160 
G01 X25.5256 Y9.3640 
G01 X26.1960 Y10.0344 
G01 X27.1440 Y10.0344 
G01 X27.8144 Y9.3640 
G01 X27.8144 Y8.4434 
G01 X29.0230 Y9.6520 
G01 X25.9576 Y12.7174 
G01 X25.8905 Y12.8336 
G01 X25.8558 Y12.9631 
G01 X25.8558 Y13.3336 
G01 X24.8076 Y13.3336 
G01 X24.7426 Y13.3510 
G01 X24.6844 Y13.3846 
G01 X24.6368 Y13.4322 
G01 X24.6032 Y13.4904 
G01 X24.5858 Y13.5554 
G01 X24.5858 Y14.8418 
G01 X24.5975 Y14.8855 
G01 X23.0138 Y13.3018 
G01 X23.0138 Y10.8282 
G01 X23.8076 Y10.0344 
G01 X24.6040 Y10.0344 
G01 X25.2744 Y9.3640 
G01 X25.2744 Y8.4160 
G01 X24.6040 Y7.7456 
G01 X23.6560 Y7.7456 
G01 X22.9856 Y8.4160 
G01 X22.9856 Y9.3640 
G01 X23.0114 Y9.3898 
G01 X22.2934 Y10.1078 
G01 X20.7850 Y10.1078 
G01 X20.1178 Y9.4406 
G01 X20.1944 Y9.3640 
G01 X20.1944 Y8.4160 
G01 X19.5240 Y7.7456 
G01 X18.5760 Y7.7456 
G01 X17.9056 Y8.4160 
G01 X17.9056 Y9.3640 
G01 X18.5760 Y10.0344 
G01 X19.2708 Y10.0344 
G01 X20.2612 Y11.0248 
G01 X20.3774 Y11.0919 
G01 X20.5069 Y11.1266 
G01 X21.9950 Y11.1266 
G01 X21.9950 Y13.5799 
G01 X22.0297 Y13.7094 
G01 X22.0968 Y13.8256 
G01 X22.1916 Y13.9204 
G01 X24.1220 Y15.8508 
G01 X24.2382 Y15.9179 
G01 X24.3677 Y15.9526 
G01 X24.5858 Y15.9526 
G01 X24.5858 Y16.5022 
G01 X24.5098 Y16.5782 
G01 X23.6394 Y17.4486 
G01 X23.5446 Y17.5434 
G01 X23.4775 Y17.6596 
G01 X23.4428 Y17.7891 
G01 X23.4428 Y19.8537 
G01 X23.4775 Y19.9832 
G01 X23.5446 Y20.0994 
G01 X23.6394 Y20.1942 
G01 X29.4306 Y25.9854 
G01 X29.5468 Y26.0525 
G01 X29.6763 Y26.0872 
G01 X33.1887 Y26.0872 
G01 X33.3182 Y26.0525 
G01 X33.4344 Y25.9854 
G01 X33.5292 Y25.8906 
G01 X34.4944 Y24.9254 
G01 X34.5615 Y24.8092 
G01 X34.5962 Y24.6797 
G01 X34.5962 Y21.1673 
G01 X34.5615 Y21.0378 
G01 X34.4944 Y20.9216 
G01 X34.3996 Y20.8268 
G01 X32.6658 Y19.0930 
G01 X32.6658 Y13.9354 
G01 X32.7836 Y13.9354 
G01 X32.8486 Y13.9180 
G01 X32.9068 Y13.8844 
G01 X32.9544 Y13.8368 
G01 X32.9880 Y13.7786 
G01 X33.0054 Y13.7136 
G01 X33.0054 Y12.1464 
G01 X32.9880 Y12.0814 
G01 X32.9544 Y12.0232 
G01 X32.9068 Y11.9756 
G01 X32.8486 Y11.9420 
G01 X32.7836 Y11.9246 
G01 X30.7164 Y11.9246 
G01 X30.6514 Y11.9420 
G01 X30.5932 Y11.9756 
G01 X30.5456 Y12.0232 
G01 X30.5120 Y12.0814 
G01 X30.4946 Y12.1464 
G01 X30.4946 Y13.7136 
G01 X30.5120 Y13.7786 
G01 X30.5456 Y13.8368 
G01 X30.5932 Y13.8844 
G01 X30.6514 Y13.9180 
G01 X30.7164 Y13.9354 
G01 X31.6470 Y13.9354 
G01 X31.6470 Y19.3711 
G01 X31.6817 Y19.5006 
G01 X31.7488 Y19.6168 
G01 X32.8459 Y20.7139 
G01 X32.7338 Y20.6675 
G01 X32.5485 Y20.6306 
G01 X32.1832 Y20.6306 
G01 X32.1832 Y20.2021 
G01 X32.1485 Y20.0726 
G01 X32.0814 Y19.9564 
G01 X28.3224 Y16.1974 
G01 X28.3224 Y15.3761 
G01 X28.2877 Y15.2466 
G01 X28.2206 Y15.1304 
G01 X27.3318 Y14.2416 
G01 X27.3318 Y13.5554 
G01 X27.3144 Y13.4904 
G01 X27.2808 Y13.4322 
G01 X27.2332 Y13.3846 
G01 X27.1750 Y13.3510 
G01 X27.1100 Y13.3336 
G01 X26.8746 Y13.3336 
G01 X26.8746 Y13.2412 
G01 X29.9544 Y10.1614 
G01 X30.4946 Y10.1614 
G01 X30.4946 Y10.7136 
G01 X30.5120 Y10.7786 
G01 X30.5456 Y10.8368 
G01 X30.5932 Y10.8844 
G01 X30.6514 Y10.9180 
G01 X30.7164 Y10.9354 
G01 X32.7836 Y10.9354 
G01 X32.8486 Y10.9180 
G01 X32.9068 Y10.8844 
G01 X32.9544 Y10.8368 
G01 X32.9880 Y10.7786 
G01 X33.0054 Y10.7136 
G01 X33.0054 Y9.1464 
G01 X32.9880 Y9.0814 
G01 X32.9544 Y9.0232 
G01 X32.9068 Y8.9756 
G01 X32.8486 Y8.9420 
G01 X32.7836 Y8.9246 
G01 X30.7164 Y8.9246 
G01 X30.6514 Y8.9420 
G01 X30.5932 Y8.9756 
G01 X30.5456 Y9.0232 
G01 X30.5120 Y9.0814 
G01 X30.4956 Y9.1426 
G01 X29.9544 Y9.1426 
G01 X27.8144 Y7.0026 
G01 X27.8144 Y5.4274 
G01 X27.7970 Y5.3624 
G01 X27.7634 Y5.3042 
G01 X27.7158 Y5.2566 
G01 X27.6576 Y5.2230 
G01 X27.5926 Y5.2056 
G01 X26.0174 Y5.2056 
G01 X24.2650 Y3.4532 
G01 X24.1488 Y3.3861 
G01 X24.0193 Y3.3514 
G01 X12.7853 Y3.3514 
G01 X12.6558 Y3.3861 
G01 X12.5396 Y3.4532 
G01 X12.4448 Y3.5480 
G01 X11.6762 Y4.3166 
G01 X11.1194 Y4.3166 
G01 X11.1194 Y4.2815 
G01 X11.0825 Y4.0961 
G01 X11.0102 Y3.9216 
G01 X10.9052 Y3.7644 
G01 X10.7716 Y3.6308 
G01 X10.6144 Y3.5258 
G01 X10.4398 Y3.4535 
G01 X10.2545 Y3.4166 
G01 X10.0655 Y3.4166 
G01 X9.8802 Y3.4535 
G01 X9.7056 Y3.5258 
G01 X9.5484 Y3.6308 
G01 X9.4148 Y3.7644 
G00 Z2.5400 
G00 X9.4148 Y8.8444 
G01 Z-0.1200 F100.00 
G01 X9.3098 Y9.0016 F230.00 
G01 X9.2375 Y9.1761 
G01 X9.2006 Y9.3615 
G01 X9.2006 Y10.9585 
G01 X9.2375 Y11.1438 
G01 X9.3098 Y11.3184 
G01 X9.4148 Y11.4756 
G01 X9.4474 Y11.5082 
G01 X9.4474 Y12.5208 
G01 X4.5811 Y12.5208 
G01 X4.4516 Y12.5555 
G01 X4.3354 Y12.6226 
G01 X2.7928 Y14.1652 
G01 X2.7257 Y14.2814 
G01 X2.6910 Y14.4109 
G01 X2.6910 Y21.3015 
G01 X2.7257 Y21.4310 
G01 X2.7928 Y21.5472 
G01 X4.2406 Y22.9950 
G01 X4.3354 Y23.0898 
G01 X4.4516 Y23.1569 
G01 X4.5811 Y23.1916 
G01 X8.0935 Y23.1916 
G01 X8.2230 Y23.1569 
G01 X8.3392 Y23.0898 
G01 X9.6152 Y21.8138 
G01 X9.7056 Y21.8742 
G01 X9.8802 Y21.9465 
G01 X10.0655 Y21.9834 
G01 X10.2545 Y21.9834 
G01 X10.4398 Y21.9465 
G01 X10.6144 Y21.8742 
G01 X10.7716 Y21.7692 
G01 X10.9052 Y21.6356 
G01 X11.0102 Y21.4784 
G01 X11.0825 Y21.3038 
G01 X11.1194 Y21.1185 
G01 X11.1194 Y19.5215 
G01 X11.0825 Y19.3361 
G01 X11.0102 Y19.1616 
G01 X10.9052 Y19.0044 
G01 X10.7716 Y18.8708 
G01 X10.6144 Y18.7658 
G01 X10.4398 Y18.6935 
G01 X10.2545 Y18.6566 
G01 X10.0655 Y18.6566 
G01 X9.8802 Y18.6935 
G01 X9.7056 Y18.7658 
G01 X9.5484 Y18.8708 
G01 X9.4148 Y19.0044 
G01 X9.3098 Y19.1616 
G01 X9.2375 Y19.3361 
G01 X9.2006 Y19.5215 
G01 X9.2006 Y20.7876 
G01 X8.3906 Y21.5976 
G01 X8.4702 Y21.4784 
G01 X8.5425 Y21.3038 
G01 X8.5794 Y21.1185 
G01 X8.5794 Y19.5215 
G01 X8.5425 Y19.3361 
G01 X8.4702 Y19.1616 
G01 X8.3652 Y19.0044 
G01 X8.2316 Y18.8708 
G01 X8.0744 Y18.7658 
G01 X7.8998 Y18.6935 
G01 X7.7145 Y18.6566 
G01 X7.5255 Y18.6566 
G01 X7.3402 Y18.6935 
G01 X7.1656 Y18.7658 
G01 X7.0084 Y18.8708 
G01 X6.8748 Y19.0044 
G01 X6.7698 Y19.1616 
G01 X6.6975 Y19.3361 
G01 X6.6606 Y19.5215 
G01 X6.6606 Y21.1185 
G01 X6.6975 Y21.3038 
G01 X6.7698 Y21.4784 
G01 X6.8748 Y21.6356 
G01 X7.0084 Y21.7692 
G01 X7.1656 Y21.8742 
G01 X7.3402 Y21.9465 
G01 X7.5255 Y21.9834 
G01 X7.7145 Y21.9834 
G01 X7.8998 Y21.9465 
G01 X8.0744 Y21.8742 
G01 X8.1936 Y21.7946 
G01 X7.8154 Y22.1728 
G01 X4.8592 Y22.1728 
G01 X3.7098 Y21.0234 
G01 X3.7098 Y14.6890 
G01 X4.1680 Y14.2308 
G01 X4.1575 Y14.2561 
G01 X4.1206 Y14.4415 
G01 X4.1206 Y16.0385 
G01 X4.1575 Y16.2238 
G01 X4.2298 Y16.3984 
G01 X4.3348 Y16.5556 
G01 X4.4684 Y16.6892 
G01 X4.6256 Y16.7942 
G01 X4.8002 Y16.8665 
G01 X4.9855 Y16.9034 
G01 X5.1745 Y16.9034 
G01 X5.3598 Y16.8665 
G01 X5.5344 Y16.7942 
G01 X5.6916 Y16.6892 
G01 X5.8252 Y16.5556 
G01 X5.9302 Y16.3984 
G01 X6.0025 Y16.2238 
G01 X6.0394 Y16.0385 
G01 X6.0394 Y14.4415 
G01 X6.0025 Y14.2561 
G01 X5.9302 Y14.0816 
G01 X5.8252 Y13.9244 
G01 X5.6916 Y13.7908 
G01 X5.5344 Y13.6858 
G01 X5.3598 Y13.6135 
G01 X5.1745 Y13.5766 
G01 X4.9855 Y13.5766 
G01 X4.8002 Y13.6135 
G01 X4.7748 Y13.6240 
G01 X4.8592 Y13.5396 
G01 X9.4474 Y13.5396 
G01 X9.4474 Y13.8918 
G01 X9.4148 Y13.9244 
G01 X9.3098 Y14.0816 
G01 X9.2375 Y14.2561 
G01 X9.2006 Y14.4415 
G01 X9.2006 Y16.0385 
G01 X9.2375 Y16.2238 
G01 X9.3098 Y16.3984 
G01 X9.4148 Y16.5556 
G01 X9.5484 Y16.6892 
G01 X9.7056 Y16.7942 
G01 X9.8802 Y16.8665 
G01 X10.0655 Y16.9034 
G01 X10.2545 Y16.9034 
G01 X10.4398 Y16.8665 
G01 X10.6144 Y16.7942 
G01 X10.7716 Y16.6892 
G01 X10.9052 Y16.5556 
G01 X11.0102 Y16.3984 
G01 X11.0825 Y16.2238 
G01 X11.1194 Y16.0385 
G01 X11.1194 Y14.4415 
G01 X11.0825 Y14.2561 
G01 X11.0102 Y14.0816 
G01 X10.9052 Y13.9244 
G01 X10.7716 Y13.7908 
G01 X10.6144 Y13.6858 
G01 X10.4662 Y13.6244 
G01 X10.4662 Y11.7756 
G01 X10.6144 Y11.7142 
G01 X10.7716 Y11.6092 
G01 X10.9052 Y11.4756 
G01 X11.0102 Y11.3184 
G01 X11.0825 Y11.1438 
G01 X11.1194 Y10.9585 
G01 X11.1194 Y9.3615 
G01 X11.0825 Y9.1761 
G01 X11.0102 Y9.0016 
G01 X10.9052 Y8.8444 
G01 X10.7716 Y8.7108 
G01 X10.6144 Y8.6058 
G01 X10.4398 Y8.5335 
G01 X10.2545 Y8.4966 
G01 X10.0655 Y8.4966 
G01 X9.8802 Y8.5335 
G01 X9.7056 Y8.6058 
G01 X9.5484 Y8.7108 
G01 X9.4148 Y8.8444 
G00 Z2.5400 
G00 X8.3652 Y8.8444 
G01 Z-0.1200 F100.00 
G01 X8.2316 Y8.7108 F230.00 
G01 X8.0744 Y8.6058 
G01 X7.8998 Y8.5335 
G01 X7.7145 Y8.4966 
G01 X7.5255 Y8.4966 
G01 X7.3402 Y8.5335 
G01 X7.1656 Y8.6058 
G01 X7.0084 Y8.7108 
G01 X6.8748 Y8.8444 
G01 X6.7698 Y9.0016 
G01 X6.6975 Y9.1761 
G01 X6.6606 Y9.3615 
G01 X6.6606 Y10.9585 
G01 X6.6975 Y11.1438 
G01 X6.7698 Y11.3184 
G01 X6.8748 Y11.4756 
G01 X7.0084 Y11.6092 
G01 X7.1656 Y11.7142 
G01 X7.3402 Y11.7865 
G01 X7.5255 Y11.8234 
G01 X7.7145 Y11.8234 
G01 X7.8998 Y11.7865 
G01 X8.0744 Y11.7142 
G01 X8.2316 Y11.6092 
G01 X8.3652 Y11.4756 
G01 X8.4702 Y11.3184 
G01 X8.5425 Y11.1438 
G01 X8.5794 Y10.9585 
G01 X8.5794 Y9.3615 
G01 X8.5425 Y9.1761 
G01 X8.4702 Y9.0016 
G01 X8.3652 Y8.8444 
G00 Z2.5400 
G00 X8.2316 Y13.7908 
G01 Z-0.1200 F100.00 
G01 X8.0744 Y13.6858 F230.00 
G01 X7.8998 Y13.6135 
G01 X7.7145 Y13.5766 
G01 X7.5255 Y13.5766 
G01 X7.3402 Y13.6135 
G01 X7.1656 Y13.6858 
G01 X7.0084 Y13.7908 
G01 X6.8748 Y13.9244 
G01 X6.7698 Y14.0816 
G01 X6.6975 Y14.2561 
G01 X6.6606 Y14.4415 
G01 X6.6606 Y16.0385 
G01 X6.6975 Y16.2238 
G01 X6.7698 Y16.3984 
G01 X6.8748 Y16.5556 
G01 X7.0084 Y16.6892 
G01 X7.1656 Y16.7942 
G01 X7.3402 Y16.8665 
G01 X7.5255 Y16.9034 
G01 X7.7145 Y16.9034 
G01 X7.8998 Y16.8665 
G01 X8.0744 Y16.7942 
G01 X8.2316 Y16.6892 
G01 X8.3652 Y16.5556 
G01 X8.4702 Y16.3984 
G01 X8.5425 Y16.2238 
G01 X8.5794 Y16.0385 
G01 X8.5794 Y14.4415 
G01 X8.5425 Y14.2561 
G01 X8.4702 Y14.0816 
G01 X8.3652 Y13.9244 
G01 X8.2316 Y13.7908 
G00 Z2.5400 
G00 X18.4566 Y14.5532 
G01 Z-0.1200 F100.00 
G01 X18.4230 Y14.6114 F230.00 
G01 X18.4056 Y14.6764 
G01 X18.4056 Y18.3436 
G01 X18.4230 Y18.4086 
G01 X18.4566 Y18.4668 
G01 X18.5042 Y18.5144 
G01 X18.5624 Y18.5480 
G01 X18.6274 Y18.5654 
G01 X20.8946 Y18.5654 
G01 X20.9596 Y18.5480 
G01 X21.0178 Y18.5144 
G01 X21.0654 Y18.4668 
G01 X21.0990 Y18.4086 
G01 X21.1164 Y18.3436 
G01 X21.1164 Y14.6764 
G01 X21.0990 Y14.6114 
G01 X21.0654 Y14.5532 
G01 X21.0178 Y14.5056 
G01 X20.9596 Y14.4720 
G01 X20.8946 Y14.4546 
G01 X18.6274 Y14.4546 
G01 X18.5624 Y14.4720 
G01 X18.5042 Y14.5056 
G01 X18.4566 Y14.5532 
G00 Z2.5400 
G00 X21.1160 Y10.0344 
G01 Z-0.1200 F100.00 
G01 X22.0640 Y10.0344 F230.00 
G01 X22.7344 Y9.3640 
G01 X22.7344 Y8.4160 
G01 X22.0640 Y7.7456 
G01 X21.1160 Y7.7456 
G01 X20.4456 Y8.4160 
G01 X20.4456 Y9.3640 
G01 X21.1160 Y10.0344 
G00 Z2.5400 
G00 X22.7337 Y4.3702 
G01 Z-0.1200 F100.00 
G01 X23.7412 Y4.3702 F230.00 
G01 X24.5766 Y5.2056 
G01 X23.6560 Y5.2056 
G01 X23.6302 Y5.2314 
G01 X22.9120 Y4.5132 
G01 X22.8172 Y4.4184 
G01 X22.7337 Y4.3702 
G00 Z2.5400 
G00 X25.2582 Y15.0636 
G01 Z-0.1200 F100.00 
G01 X26.7130 Y15.0636 F230.00 
G01 X27.3036 Y15.6542 
G01 X27.3036 Y15.7831 
G01 X27.2808 Y15.7436 
G01 X27.2332 Y15.6960 
G01 X27.1750 Y15.6624 
G01 X27.1100 Y15.6450 
G01 X25.8396 Y15.6450 
G01 X25.3250 Y15.1304 
G01 X25.2582 Y15.0636 
G00 Z2.5400 
G00 X25.1284 Y17.4004 
G01 Z-0.1200 F100.00 
G01 X25.8322 Y17.4004 F230.00 
G01 X25.8485 Y17.4037 
G01 X25.8990 Y17.4004 
G01 X25.9497 Y17.4004 
G01 X25.9657 Y17.3961 
G01 X25.9823 Y17.3950 
G01 X26.0303 Y17.3788 
G01 X26.0445 Y17.3750 
G01 X27.1100 Y17.3750 
G01 X27.1750 Y17.3576 
G01 X27.2332 Y17.3240 
G01 X27.2808 Y17.2764 
G01 X27.3144 Y17.2182 
G01 X27.3318 Y17.1532 
G01 X27.3318 Y16.5807 
G01 X27.3383 Y16.6050 
G01 X27.4054 Y16.7212 
G01 X27.5002 Y16.8160 
G01 X31.1644 Y20.4802 
G01 X31.1644 Y20.6306 
G01 X30.9515 Y20.6306 
G01 X30.7661 Y20.6675 
G01 X30.5916 Y20.7398 
G01 X30.4344 Y20.8448 
G01 X30.3008 Y20.9784 
G01 X30.1958 Y21.1356 
G01 X30.1235 Y21.3102 
G01 X30.0866 Y21.4955 
G01 X30.0866 Y21.6845 
G01 X30.1208 Y21.8566 
G01 X27.3318 Y19.0676 
G01 X27.3318 Y18.1782 
G01 X27.3144 Y18.1132 
G01 X27.2808 Y18.0550 
G01 X27.2332 Y18.0074 
G01 X27.1750 Y17.9738 
G01 X27.1100 Y17.9564 
G01 X24.8076 Y17.9564 
G01 X24.7426 Y17.9738 
G01 X24.6844 Y18.0074 
G01 X24.6368 Y18.0550 
G01 X24.6032 Y18.1132 
G01 X24.5858 Y18.1782 
G01 X24.5858 Y19.4646 
G01 X24.6032 Y19.5296 
G01 X24.6368 Y19.5878 
G01 X24.6844 Y19.6354 
G01 X24.7426 Y19.6690 
G01 X24.8076 Y19.6864 
G01 X26.5098 Y19.6864 
G01 X30.3213 Y23.4979 
G01 X30.3008 Y23.5184 
G01 X30.1958 Y23.6756 
G01 X30.1235 Y23.8501 
G01 X30.0866 Y24.0355 
G01 X30.0866 Y24.2245 
G01 X30.1235 Y24.4098 
G01 X30.1958 Y24.5844 
G01 X30.3008 Y24.7416 
G01 X30.4344 Y24.8752 
G01 X30.5916 Y24.9802 
G01 X30.7661 Y25.0525 
G01 X30.8460 Y25.0684 
G01 X29.9544 Y25.0684 
G01 X24.4616 Y19.5756 
G01 X24.4616 Y18.0672 
G01 X25.1284 Y17.4004 
G00 Z2.5400 
G00 X30.7794 Y22.5152 
G01 Z-0.1200 F100.00 
G01 X30.9515 Y22.5494 F230.00 
G01 X32.5485 Y22.5494 
G01 X32.7338 Y22.5125 
G01 X32.9084 Y22.4402 
G01 X33.0656 Y22.3352 
G01 X33.1992 Y22.2016 
G01 X33.3042 Y22.0444 
G01 X33.3765 Y21.8698 
G01 X33.4134 Y21.6845 
G01 X33.4134 Y21.4955 
G01 X33.3765 Y21.3102 
G01 X33.3301 Y21.1981 
G01 X33.5774 Y21.4454 
G01 X33.5774 Y24.4016 
G01 X32.9106 Y25.0684 
G01 X32.6540 Y25.0684 
G01 X32.7338 Y25.0525 
G01 X32.9084 Y24.9802 
G01 X33.0656 Y24.8752 
G01 X33.1992 Y24.7416 
G01 X33.3042 Y24.5844 
G01 X33.3765 Y24.4098 
G01 X33.4134 Y24.2245 
G01 X33.4134 Y24.0355 
G01 X33.3765 Y23.8501 
G01 X33.3042 Y23.6756 
G01 X33.1992 Y23.5184 
G01 X33.0656 Y23.3848 
G01 X32.9084 Y23.2798 
G01 X32.7338 Y23.2075 
G01 X32.5485 Y23.1706 
G01 X31.4348 Y23.1706 
G01 X30.7794 Y22.5152 
G00 Z2.5400 
G00 X4.2414 Y3.6598 
G01 Z-0.1200 F100.00 
G01 X4.1397 Y3.7998 F230.00 
G01 X4.0611 Y3.9540 
G01 X4.0077 Y4.1186 
G01 X3.9806 Y4.2895 
G01 X3.9806 Y5.8705 
G01 X4.0077 Y6.0414 
G01 X4.0611 Y6.2060 
G01 X4.1397 Y6.3602 
G01 X4.2414 Y6.5002 
G01 X4.3638 Y6.6226 
G01 X4.5038 Y6.7243 
G01 X4.6580 Y6.8029 
G01 X4.8226 Y6.8563 
G01 X4.9935 Y6.8834 
G01 X5.1665 Y6.8834 
G01 X5.3374 Y6.8563 
G01 X5.5020 Y6.8029 
G01 X5.6562 Y6.7243 
G01 X5.7962 Y6.6226 
G01 X5.9186 Y6.5002 
G01 X6.0203 Y6.3602 
G01 X6.0988 Y6.2060 
G01 X6.1523 Y6.0414 
G01 X6.1794 Y5.8705 
G01 X6.1794 Y4.2895 
G01 X6.1523 Y4.1186 
G01 X6.0988 Y3.9540 
G01 X6.0203 Y3.7998 
G01 X5.9186 Y3.6598 
G01 X5.7962 Y3.5374 
G01 X5.6562 Y3.4357 
G01 X5.5020 Y3.3571 
G01 X5.3374 Y3.3037 
G01 X5.1665 Y3.2766 
G01 X4.9935 Y3.2766 
G01 X4.8226 Y3.3037 
G01 X4.6580 Y3.3571 
G01 X4.5038 Y3.4357 
G01 X4.3638 Y3.5374 
G01 X4.2414 Y3.6598 
G00 Z2.5400 
G00 X6.7814 Y3.6598 
G01 Z-0.1200 F100.00 
G01 X6.6797 Y3.7998 F230.00 
G01 X6.6011 Y3.9540 
G01 X6.5477 Y4.1186 
G01 X6.5206 Y4.2895 
G01 X6.5206 Y5.8705 
G01 X6.5477 Y6.0414 
G01 X6.6011 Y6.2060 
G01 X6.6797 Y6.3602 
G01 X6.7814 Y6.5002 
G01 X6.9038 Y6.6226 
G01 X7.0438 Y6.7243 
G01 X7.1980 Y6.8029 
G01 X7.3626 Y6.8563 
G01 X7.5335 Y6.8834 
G01 X7.7065 Y6.8834 
G01 X7.8774 Y6.8563 
G01 X8.0420 Y6.8029 
G01 X8.1962 Y6.7243 
G01 X8.3362 Y6.6226 
G01 X8.4586 Y6.5002 
G01 X8.5603 Y6.3602 
G01 X8.6388 Y6.2060 
G01 X8.6923 Y6.0414 
G01 X8.7194 Y5.8705 
G01 X8.7194 Y4.2895 
G01 X8.6923 Y4.1186 
G01 X8.6388 Y3.9540 
G01 X8.5603 Y3.7998 
G01 X8.4586 Y3.6598 
G01 X8.3362 Y3.5374 
G01 X8.1962 Y3.4357 
G01 X8.0420 Y3.3571 
G01 X7.8774 Y3.3037 
G01 X7.7065 Y3.2766 
G01 X7.5335 Y3.2766 
G01 X7.3626 Y3.3037 
G01 X7.1980 Y3.3571 
G01 X7.0438 Y3.4357 
G01 X6.9038 Y3.5374 
G01 X6.7814 Y3.6598 
G00 Z2.5400 
G00 X9.3214 Y3.6598 
G01 Z-0.1200 F100.00 
G01 X9.2197 Y3.7998 F230.00 
G01 X9.1411 Y3.9540 
G01 X9.0877 Y4.1186 
G01 X9.0606 Y4.2895 
G01 X9.0606 Y5.8705 
G01 X9.0877 Y6.0414 
G01 X9.1411 Y6.2060 
G01 X9.2197 Y6.3602 
G01 X9.3214 Y6.5002 
G01 X9.4438 Y6.6226 
G01 X9.5838 Y6.7243 
G01 X9.7380 Y6.8029 
G01 X9.9026 Y6.8563 
G01 X10.0735 Y6.8834 
G01 X10.2465 Y6.8834 
G01 X10.3804 Y6.8622 
G01 X10.1704 Y7.0722 
G01 X6.9972 Y7.0722 
G01 X6.8718 Y7.0972 
G01 X6.7536 Y7.1461 
G01 X6.6472 Y7.2172 
G01 X5.4456 Y8.4188 
G01 X5.3374 Y8.3837 
G01 X5.1665 Y8.3566 
G01 X4.9935 Y8.3566 
G01 X4.8226 Y8.3837 
G01 X4.6580 Y8.4371 
G01 X4.5038 Y8.5157 
G01 X4.3638 Y8.6174 
G01 X4.2414 Y8.7398 
G01 X4.1397 Y8.8798 
G01 X4.0611 Y9.0340 
G01 X4.0077 Y9.1986 
G01 X3.9806 Y9.3695 
G01 X3.9806 Y10.9505 
G01 X4.0077 Y11.1214 
G01 X4.0611 Y11.2860 
G01 X4.1397 Y11.4402 
G01 X4.2414 Y11.5802 
G01 X4.3638 Y11.7026 
G01 X4.5038 Y11.8043 
G01 X4.6580 Y11.8828 
G01 X4.8226 Y11.9363 
G01 X4.9935 Y11.9634 
G01 X5.1665 Y11.9634 
G01 X5.3374 Y11.9363 
G01 X5.5020 Y11.8828 
G01 X5.6562 Y11.8043 
G01 X5.7962 Y11.7026 
G01 X5.9186 Y11.5802 
G01 X6.0203 Y11.4402 
G01 X6.0988 Y11.2860 
G01 X6.1523 Y11.1214 
G01 X6.1794 Y10.9505 
G01 X6.1794 Y9.5218 
G01 X6.5694 Y9.1318 
G01 X6.5477 Y9.1986 
G01 X6.5206 Y9.3695 
G01 X6.5206 Y10.9505 
G01 X6.5477 Y11.1214 
G01 X6.6011 Y11.2860 
G01 X6.6797 Y11.4402 
G01 X6.7814 Y11.5802 
G01 X6.9038 Y11.7026 
G01 X7.0438 Y11.8043 
G01 X7.1980 Y11.8828 
G01 X7.3626 Y11.9363 
G01 X7.5335 Y11.9634 
G01 X7.7065 Y11.9634 
G01 X7.8774 Y11.9363 
G01 X8.0420 Y11.8828 
G01 X8.1962 Y11.8043 
G01 X8.3362 Y11.7026 
G01 X8.4586 Y11.5802 
G01 X8.5603 Y11.4402 
G01 X8.6388 Y11.2860 
G01 X8.6923 Y11.1214 
G01 X8.7194 Y10.9505 
G01 X8.7194 Y9.3695 
G01 X8.6923 Y9.1986 
G01 X8.6388 Y9.0340 
G01 X8.5603 Y8.8798 
G01 X8.4586 Y8.7398 
G01 X8.3362 Y8.6174 
G01 X8.1962 Y8.5157 
G01 X8.0420 Y8.4371 
G01 X7.8774 Y8.3837 
G01 X7.7974 Y8.3710 
G01 X9.9826 Y8.3710 
G01 X9.9026 Y8.3837 
G01 X9.7380 Y8.4371 
G01 X9.5838 Y8.5157 
G01 X9.4438 Y8.6174 
G01 X9.3214 Y8.7398 
G01 X9.2197 Y8.8798 
G01 X9.1411 Y9.0340 
G01 X9.0877 Y9.1986 
G01 X9.0606 Y9.3695 
G01 X9.0606 Y10.9505 
G01 X9.0877 Y11.1214 
G01 X9.1411 Y11.2860 
G01 X9.2197 Y11.4402 
G01 X9.3074 Y11.5609 
G01 X9.3074 Y12.3808 
G01 X4.5842 Y12.3808 
G01 X4.4588 Y12.4058 
G01 X4.3406 Y12.4547 
G01 X4.2342 Y12.5258 
G01 X2.6960 Y14.0640 
G01 X2.6249 Y14.1704 
G01 X2.5760 Y14.2886 
G01 X2.5510 Y14.4140 
G01 X2.5510 Y21.2984 
G01 X2.5760 Y21.4238 
G01 X2.6249 Y21.5420 
G01 X2.6960 Y21.6484 
G01 X4.1438 Y23.0962 
G01 X4.2342 Y23.1866 
G01 X4.3406 Y23.2577 
G01 X4.4588 Y23.3066 
G01 X4.5842 Y23.3316 
G01 X8.0904 Y23.3316 
G01 X8.2158 Y23.3066 
G01 X8.3340 Y23.2577 
G01 X8.4404 Y23.1866 
G01 X9.6361 Y21.9909 
G01 X9.7380 Y22.0429 
G01 X9.9026 Y22.0963 
G01 X10.0735 Y22.1234 
G01 X10.2465 Y22.1234 
G01 X10.4174 Y22.0963 
G01 X10.5820 Y22.0429 
G01 X10.7362 Y21.9643 
G01 X10.8762 Y21.8626 
G01 X10.9986 Y21.7402 
G01 X11.1003 Y21.6002 
G01 X11.1789 Y21.4460 
G01 X11.2323 Y21.2814 
G01 X11.2594 Y21.1105 
G01 X11.2594 Y19.5295 
G01 X11.2323 Y19.3586 
G01 X11.1789 Y19.1940 
G01 X11.1003 Y19.0398 
G01 X10.9986 Y18.8998 
G01 X10.8762 Y18.7774 
G01 X10.7362 Y18.6757 
G01 X10.5820 Y18.5971 
G01 X10.4174 Y18.5437 
G01 X10.2465 Y18.5166 
G01 X10.0735 Y18.5166 
G01 X9.9026 Y18.5437 
G01 X9.7380 Y18.5971 
G01 X9.5838 Y18.6757 
G01 X9.4438 Y18.7774 
G01 X9.3214 Y18.8998 
G01 X9.2197 Y19.0398 
G01 X9.1411 Y19.1940 
G01 X9.0877 Y19.3586 
G01 X9.0606 Y19.5295 
G01 X9.0606 Y20.7296 
G01 X8.7194 Y21.0708 
G01 X8.7194 Y19.5295 
G01 X8.6923 Y19.3586 
G01 X8.6388 Y19.1940 
G01 X8.5603 Y19.0398 
G01 X8.4586 Y18.8998 
G01 X8.3362 Y18.7774 
G01 X8.1962 Y18.6757 
G01 X8.0420 Y18.5971 
G01 X7.8774 Y18.5437 
G01 X7.7065 Y18.5166 
G01 X7.5335 Y18.5166 
G01 X7.3626 Y18.5437 
G01 X7.2582 Y18.5776 
G01 X7.3302 Y18.5056 
G01 X10.5034 Y18.5056 
G01 X10.6288 Y18.4806 
G01 X10.7470 Y18.4317 
G01 X10.8534 Y18.3606 
G01 X10.9438 Y18.2702 
G01 X12.3916 Y16.8224 
G01 X12.4627 Y16.7160 
G01 X12.5116 Y16.5978 
G01 X12.5366 Y16.4724 
G01 X12.5366 Y13.7818 
G01 X17.7656 Y8.5528 
G01 X17.7656 Y9.4220 
G01 X18.5180 Y10.1744 
G01 X19.2128 Y10.1744 
G01 X20.1600 Y11.1216 
G01 X20.2664 Y11.1927 
G01 X20.3846 Y11.2416 
G01 X20.5100 Y11.2666 
G01 X21.8550 Y11.2666 
G01 X21.8550 Y13.5768 
G01 X21.8800 Y13.7022 
G01 X21.9289 Y13.8204 
G01 X22.0000 Y13.9268 
G01 X22.0904 Y14.0172 
G01 X24.0208 Y15.9476 
G01 X24.1272 Y16.0187 
G01 X24.2454 Y16.0676 
G01 X24.3708 Y16.0926 
G01 X24.4458 Y16.0926 
G01 X24.4458 Y16.4442 
G01 X24.4130 Y16.4770 
G01 X23.5382 Y17.3518 
G01 X23.4478 Y17.4422 
G01 X23.3767 Y17.5486 
G01 X23.3278 Y17.6668 
G01 X23.3028 Y17.7922 
G01 X23.3028 Y19.8506 
G01 X23.3278 Y19.9760 
G01 X23.3767 Y20.0942 
G01 X23.4478 Y20.2006 
G01 X23.5382 Y20.2910 
G01 X29.3294 Y26.0822 
G01 X29.4358 Y26.1533 
G01 X29.5540 Y26.2022 
G01 X29.6794 Y26.2272 
G01 X33.1856 Y26.2272 
G01 X33.3110 Y26.2022 
G01 X33.4292 Y26.1533 
G01 X33.5356 Y26.0822 
G01 X33.6260 Y25.9918 
G01 X34.5912 Y25.0266 
G01 X34.6623 Y24.9202 
G01 X34.7112 Y24.8020 
G01 X34.7362 Y24.6766 
G01 X34.7362 Y21.1704 
G01 X34.7112 Y21.0450 
G01 X34.6623 Y20.9268 
G01 X34.5912 Y20.8204 
G01 X34.5008 Y20.7300 
G01 X32.8058 Y19.0350 
G01 X32.8058 Y14.0744 
G01 X32.9026 Y14.0485 
G01 X32.9928 Y13.9964 
G01 X33.0664 Y13.9228 
G01 X33.1185 Y13.8326 
G01 X33.1454 Y13.7321 
G01 X33.1454 Y12.1279 
G01 X33.1185 Y12.0274 
G01 X33.0664 Y11.9372 
G01 X32.9928 Y11.8636 
G01 X32.9026 Y11.8115 
G01 X32.8021 Y11.7846 
G01 X30.6979 Y11.7846 
G01 X30.5974 Y11.8115 
G01 X30.5072 Y11.8636 
G01 X30.4336 Y11.9372 
G01 X30.3815 Y12.0274 
G01 X30.3546 Y12.1279 
G01 X30.3546 Y13.7321 
G01 X30.3815 Y13.8326 
G01 X30.4336 Y13.9228 
G01 X30.5072 Y13.9964 
G01 X30.5974 Y14.0485 
G01 X30.6979 Y14.0754 
G01 X31.5070 Y14.0754 
G01 X31.5070 Y19.1840 
G01 X28.4624 Y16.1394 
G01 X28.4624 Y15.3792 
G01 X28.4374 Y15.2538 
G01 X28.3885 Y15.1356 
G01 X28.3174 Y15.0292 
G01 X27.4718 Y14.1836 
G01 X27.4718 Y13.5369 
G01 X27.4448 Y13.4364 
G01 X27.3928 Y13.3462 
G01 X27.3192 Y13.2726 
G01 X27.2290 Y13.2205 
G01 X27.1285 Y13.1936 
G01 X27.1202 Y13.1936 
G01 X30.0124 Y10.3014 
G01 X30.3546 Y10.3014 
G01 X30.3546 Y10.7321 
G01 X30.3815 Y10.8326 
G01 X30.4336 Y10.9228 
G01 X30.5072 Y10.9964 
G01 X30.5974 Y11.0485 
G01 X30.6979 Y11.0754 
G01 X32.8021 Y11.0754 
G01 X32.9026 Y11.0485 
G01 X32.9928 Y10.9964 
G01 X33.0664 Y10.9228 
G01 X33.1185 Y10.8326 
G01 X33.1454 Y10.7321 
G01 X33.1454 Y9.1279 
G01 X33.1185 Y9.0274 
G01 X33.0664 Y8.9372 
G01 X32.9928 Y8.8636 
G01 X32.9026 Y8.8115 
G01 X32.8021 Y8.7846 
G01 X30.6979 Y8.7846 
G01 X30.5974 Y8.8115 
G01 X30.5072 Y8.8636 
G01 X30.4336 Y8.9372 
G01 X30.3959 Y9.0026 
G01 X30.0124 Y9.0026 
G01 X27.9544 Y6.9446 
G01 X27.9544 Y5.4089 
G01 X27.9275 Y5.3084 
G01 X27.8754 Y5.2182 
G01 X27.8018 Y5.1446 
G01 X27.7116 Y5.0925 
G01 X27.6111 Y5.0656 
G01 X26.0754 Y5.0656 
G01 X24.3662 Y3.3564 
G01 X24.2598 Y3.2853 
G01 X24.1416 Y3.2364 
G01 X24.0162 Y3.2114 
G01 X12.7884 Y3.2114 
G01 X12.6630 Y3.2364 
G01 X12.5448 Y3.2853 
G01 X12.4384 Y3.3564 
G01 X12.3480 Y3.4468 
G01 X11.6182 Y4.1766 
G01 X11.2415 Y4.1766 
G01 X11.2323 Y4.1186 
G01 X11.1789 Y3.9540 
G01 X11.1003 Y3.7998 
G01 X10.9986 Y3.6598 
G01 X10.8762 Y3.5374 
G01 X10.7362 Y3.4357 
G01 X10.5820 Y3.3571 
G01 X10.4174 Y3.3037 
G01 X10.2465 Y3.2766 
G01 X10.0735 Y3.2766 
G01 X9.9026 Y3.3037 
G01 X9.7380 Y3.3571 
G01 X9.5838 Y3.4357 
G01 X9.4438 Y3.5374 
G01 X9.3214 Y3.6598 
G00 Z2.5400 
G00 X11.2594 Y5.4754 
G01 Z-0.1200 F100.00 
G01 X11.7672 Y5.4754 F230.00 
G01 X11.2382 Y6.0044 
G01 X11.2594 Y5.8705 
G01 X11.2594 Y5.4754 
G00 Z2.5400 
G00 X13.6040 Y5.4754 
G01 Z-0.1200 F100.00 
G01 X18.1082 Y5.4754 F230.00 
G01 X17.7656 Y5.8180 
G01 X17.7656 Y6.7160 
G01 X11.4732 Y13.0084 
G01 X11.3828 Y13.0988 
G01 X11.3117 Y13.2052 
G01 X11.2628 Y13.3234 
G01 X11.2378 Y13.4488 
G01 X11.2378 Y14.3131 
G01 X11.2323 Y14.2786 
G01 X11.1789 Y14.1140 
G01 X11.1003 Y13.9598 
G01 X10.9986 Y13.8198 
G01 X10.8762 Y13.6974 
G01 X10.7362 Y13.5957 
G01 X10.6062 Y13.5295 
G01 X10.6062 Y11.8705 
G01 X10.7362 Y11.8043 
G01 X10.8762 Y11.7026 
G01 X10.9986 Y11.5802 
G01 X11.1003 Y11.4402 
G01 X11.1789 Y11.2860 
G01 X11.2323 Y11.1214 
G01 X11.2594 Y10.9505 
G01 X11.2594 Y9.3695 
G01 X11.2323 Y9.1986 
G01 X11.1789 Y9.0340 
G01 X11.1003 Y8.8798 
G01 X10.9986 Y8.7398 
G01 X10.8762 Y8.6174 
G01 X10.7362 Y8.5157 
G01 X10.5820 Y8.4371 
G01 X10.4174 Y8.3837 
G01 X10.3374 Y8.3710 
G01 X10.5034 Y8.3710 
G01 X10.6288 Y8.3460 
G01 X10.7470 Y8.2971 
G01 X10.8534 Y8.2260 
G01 X10.9438 Y8.1356 
G01 X13.6040 Y5.4754 
G00 Z2.5400 
G00 X19.9918 Y5.4754 
G01 Z-0.1200 F100.00 
G01 X20.6482 Y5.4754 F230.00 
G01 X20.3200 Y5.8036 
G01 X19.9918 Y5.4754 
G00 Z2.5400 
G00 X20.3200 Y6.8964 
G01 Z-0.1200 F100.00 
G01 X21.0436 Y7.6200 F230.00 
G01 X20.3200 Y8.3436 
G01 X19.5964 Y7.6200 
G01 X20.3200 Y6.8964 
G00 Z2.5400 
G00 X22.8600 Y6.8964 
G01 Z-0.1200 F100.00 
G01 X23.5836 Y7.6200 F230.00 
G01 X22.8600 Y8.3436 
G01 X22.1364 Y7.6200 
G01 X22.8600 Y6.8964 
G00 Z2.5400 
G00 X25.3856 Y6.9108 
G01 Z-0.1200 F100.00 
G01 X25.3856 Y7.2911 F230.00 
G01 X25.4125 Y7.3916 
G01 X25.4646 Y7.4818 
G01 X25.5382 Y7.5554 
G01 X25.6284 Y7.6075 
G01 X25.7289 Y7.6344 
G01 X26.1092 Y7.6344 
G01 X25.4000 Y8.3436 
G01 X24.6764 Y7.6200 
G01 X25.3856 Y6.9108 
G00 Z2.5400 
G00 X25.4000 Y9.4364 
G01 Z-0.1200 F100.00 
G01 X26.1380 Y10.1744 F230.00 
G01 X27.2020 Y10.1744 
G01 X27.9544 Y9.4220 
G01 X27.9544 Y8.7814 
G01 X28.8250 Y9.6520 
G01 X25.8608 Y12.6162 
G01 X25.7897 Y12.7226 
G01 X25.7408 Y12.8408 
G01 X25.7158 Y12.9662 
G01 X25.7158 Y13.1936 
G01 X24.7891 Y13.1936 
G01 X24.6886 Y13.2205 
G01 X24.5984 Y13.2726 
G01 X24.5248 Y13.3462 
G01 X24.4727 Y13.4364 
G01 X24.4458 Y13.5369 
G01 X24.4458 Y14.5358 
G01 X23.1538 Y13.2438 
G01 X23.1538 Y10.8862 
G01 X23.8656 Y10.1744 
G01 X24.6620 Y10.1744 
G01 X25.4000 Y9.4364 
G00 Z2.5400 
G00 X20.8514 Y9.9678 
G01 Z-0.1200 F100.00 
G01 X20.8430 Y9.9678 F230.00 
G01 X20.3158 Y9.4406 
G01 X20.3200 Y9.4364 
G01 X20.8514 Y9.9678 
G00 Z2.5400 
G00 X20.9131 Y14.3146 
G01 Z-0.1200 F100.00 
G01 X18.6089 Y14.3146 F230.00 
G01 X18.5084 Y14.3415 
G01 X18.4182 Y14.3936 
G01 X18.3446 Y14.4672 
G01 X18.2925 Y14.5574 
G01 X18.2656 Y14.6579 
G01 X18.2656 Y18.3621 
G01 X18.2925 Y18.4626 
G01 X18.3446 Y18.5528 
G01 X18.4182 Y18.6264 
G01 X18.5084 Y18.6785 
G01 X18.6089 Y18.7054 
G01 X20.9131 Y18.7054 
G01 X21.0136 Y18.6785 
G01 X21.1038 Y18.6264 
G01 X21.1774 Y18.5528 
G01 X21.2294 Y18.4626 
G01 X21.2564 Y18.3621 
G01 X21.2564 Y14.6579 
G01 X21.2294 Y14.5574 
G01 X21.1774 Y14.4672 
G01 X21.1038 Y14.3936 
G01 X21.0136 Y14.3415 
G01 X20.9131 Y14.3146 
G00 Z2.5400 
G00 X25.5962 Y15.2036 
G01 Z-0.1200 F100.00 
G01 X26.6550 Y15.2036 F230.00 
G01 X26.9564 Y15.5050 
G01 X25.8976 Y15.5050 
G01 X25.5962 Y15.2036 
G00 Z2.5400 
G00 X25.8833 Y17.5404 
G01 Z-0.1200 F100.00 
G01 X25.9459 Y17.5405 F230.00 
G01 X26.0096 Y17.5279 
G01 X26.0714 Y17.5156 
G01 X27.1285 Y17.5150 
G01 X27.2290 Y17.4881 
G01 X27.3192 Y17.4360 
G01 X27.3928 Y17.3624 
G01 X27.4448 Y17.2722 
G01 X27.4718 Y17.1717 
G01 X27.4718 Y16.9856 
G01 X30.9768 Y20.4906 
G01 X30.9595 Y20.4906 
G01 X30.7886 Y20.5177 
G01 X30.6240 Y20.5711 
G01 X30.4698 Y20.6497 
G01 X30.3298 Y20.7514 
G01 X30.2074 Y20.8738 
G01 X30.1057 Y21.0138 
G01 X30.0271 Y21.1680 
G01 X29.9737 Y21.3326 
G01 X29.9492 Y21.4870 
G01 X27.4718 Y19.0096 
G01 X27.4718 Y18.1597 
G01 X27.4448 Y18.0592 
G01 X27.3928 Y17.9690 
G01 X27.3192 Y17.8954 
G01 X27.2290 Y17.8433 
G01 X27.1285 Y17.8164 
G01 X24.9104 Y17.8164 
G01 X25.1864 Y17.5404 
G01 X25.8833 Y17.5404 
G00 Z2.5400 
G00 X26.4518 Y19.8264 
G01 Z-0.1200 F100.00 
G01 X30.1366 Y23.5112 F230.00 
G01 X30.1057 Y23.5538 
G01 X30.0271 Y23.7080 
G01 X29.9737 Y23.8726 
G01 X29.9466 Y24.0435 
G01 X29.9466 Y24.2165 
G01 X29.9737 Y24.3874 
G01 X30.0271 Y24.5520 
G01 X30.1057 Y24.7062 
G01 X30.2074 Y24.8462 
G01 X30.2896 Y24.9284 
G01 X30.0124 Y24.9284 
G01 X24.9104 Y19.8264 
G01 X26.4518 Y19.8264 
G00 Z2.5400 
G00 X32.3232 Y20.3892 
G01 Z-0.1200 F100.00 
G01 X32.4246 Y20.4906 F230.00 
G01 X32.3232 Y20.4906 
G01 X32.3232 Y20.3892 
G00 Z2.5400 
G00 X32.5405 Y22.6894 
G01 Z-0.1200 F100.00 
G01 X32.7114 Y22.6623 F230.00 
G01 X32.8760 Y22.6089 
G01 X33.0302 Y22.5303 
G01 X33.1702 Y22.4286 
G01 X33.2926 Y22.3062 
G01 X33.3943 Y22.1662 
G01 X33.4374 Y22.0816 
G01 X33.4374 Y23.6384 
G01 X33.3943 Y23.5538 
G01 X33.2926 Y23.4138 
G01 X33.1702 Y23.2914 
G01 X33.0302 Y23.1897 
G01 X32.8760 Y23.1111 
G01 X32.7114 Y23.0577 
G01 X32.5405 Y23.0306 
G01 X31.4928 Y23.0306 
G01 X31.1516 Y22.6894 
G01 X32.5405 Y22.6894 
G00 Z2.5400 
G00 X24.2386 Y5.0656 
G01 Z-0.1200 F100.00 
G01 X23.6624 Y5.0656 F230.00 
G01 X23.1070 Y4.5102 
G01 X23.6832 Y4.5102 
G01 X24.2386 Y5.0656 
G00 Z2.5400 
G00 X7.4426 Y8.3710 
G01 Z-0.1200 F100.00 
G01 X7.3626 Y8.3837 F230.00 
G01 X7.2958 Y8.4054 
G01 X7.3302 Y8.3710 
G01 X7.4426 Y8.3710 
G00 Z2.5400 
G00 X6.9283 Y13.6796 
G01 Z-0.1200 F100.00 
G01 X6.9038 Y13.6974 F230.00 
G01 X6.7814 Y13.8198 
G01 X6.6797 Y13.9598 
G01 X6.6011 Y14.1140 
G01 X6.5477 Y14.2786 
G01 X6.5206 Y14.4495 
G01 X6.5206 Y16.0305 
G01 X6.5477 Y16.2014 
G01 X6.6011 Y16.3660 
G01 X6.6797 Y16.5202 
G01 X6.7814 Y16.6602 
G01 X6.9038 Y16.7826 
G01 X7.0438 Y16.8843 
G01 X7.1980 Y16.9628 
G01 X7.3626 Y17.0163 
G01 X7.5335 Y17.0434 
G01 X7.7065 Y17.0434 
G01 X7.8774 Y17.0163 
G01 X8.0420 Y16.9628 
G01 X8.1962 Y16.8843 
G01 X8.3362 Y16.7826 
G01 X8.4586 Y16.6602 
G01 X8.5603 Y16.5202 
G01 X8.6388 Y16.3660 
G01 X8.6923 Y16.2014 
G01 X8.7194 Y16.0305 
G01 X8.7194 Y14.4495 
G01 X8.6923 Y14.2786 
G01 X8.6388 Y14.1140 
G01 X8.5603 Y13.9598 
G01 X8.4586 Y13.8198 
G01 X8.3362 Y13.6974 
G01 X8.3117 Y13.6796 
G01 X9.3074 Y13.6796 
G01 X9.3074 Y13.8391 
G01 X9.2197 Y13.9598 
G01 X9.1411 Y14.1140 
G01 X9.0877 Y14.2786 
G01 X9.0606 Y14.4495 
G01 X9.0606 Y16.0305 
G01 X9.0877 Y16.2014 
G01 X9.1411 Y16.3660 
G01 X9.2197 Y16.5202 
G01 X9.3214 Y16.6602 
G01 X9.4438 Y16.7826 
G01 X9.5838 Y16.8843 
G01 X9.7380 Y16.9628 
G01 X9.9026 Y17.0163 
G01 X10.0735 Y17.0434 
G01 X10.2465 Y17.0434 
G01 X10.3502 Y17.0270 
G01 X10.1704 Y17.2068 
G01 X7.1252 Y17.2068 
G01 X6.9972 Y17.2068 
G01 X6.8718 Y17.2318 
G01 X6.7536 Y17.2807 
G01 X6.6472 Y17.3518 
G01 X5.4264 Y18.5726 
G01 X5.3374 Y18.5437 
G01 X5.1665 Y18.5166 
G01 X4.9935 Y18.5166 
G01 X4.8226 Y18.5437 
G01 X4.6580 Y18.5971 
G01 X4.5038 Y18.6757 
G01 X4.3638 Y18.7774 
G01 X4.2414 Y18.8998 
G01 X4.1397 Y19.0398 
G01 X4.0611 Y19.1940 
G01 X4.0077 Y19.3586 
G01 X3.9806 Y19.5295 
G01 X3.9806 Y21.0962 
G01 X3.8498 Y20.9654 
G01 X3.8498 Y14.7470 
G01 X3.9806 Y14.6162 
G01 X3.9806 Y16.0305 
G01 X4.0077 Y16.2014 
G01 X4.0611 Y16.3660 
G01 X4.1397 Y16.5202 
G01 X4.2414 Y16.6602 
G01 X4.3638 Y16.7826 
G01 X4.5038 Y16.8843 
G01 X4.6580 Y16.9628 
G01 X4.8226 Y17.0163 
G01 X4.9935 Y17.0434 
G01 X5.1665 Y17.0434 
G01 X5.3374 Y17.0163 
G01 X5.5020 Y16.9628 
G01 X5.6562 Y16.8843 
G01 X5.7962 Y16.7826 
G01 X5.9186 Y16.6602 
G01 X6.0203 Y16.5202 
G01 X6.0988 Y16.3660 
G01 X6.1523 Y16.2014 
G01 X6.1794 Y16.0305 
G01 X6.1794 Y14.4495 
G01 X6.1523 Y14.2786 
G01 X6.0988 Y14.1140 
G01 X6.0203 Y13.9598 
G01 X5.9186 Y13.8198 
G01 X5.7962 Y13.6974 
G01 X5.7717 Y13.6796 
G01 X6.9283 Y13.6796 
G00 Z2.5400 
G00 X6.5816 Y19.2542 
G01 Z-0.1200 F100.00 
G01 X6.5477 Y19.3586 F230.00 
G01 X6.5206 Y19.5295 
G01 X6.5206 Y21.1105 
G01 X6.5477 Y21.2814 
G01 X6.6011 Y21.4460 
G01 X6.6797 Y21.6002 
G01 X6.7814 Y21.7402 
G01 X6.9038 Y21.8626 
G01 X7.0438 Y21.9643 
G01 X7.1783 Y22.0328 
G01 X5.5217 Y22.0328 
G01 X5.6562 Y21.9643 
G01 X5.7962 Y21.8626 
G01 X5.9186 Y21.7402 
G01 X6.0203 Y21.6002 
G01 X6.0988 Y21.4460 
G01 X6.1523 Y21.2814 
G01 X6.1794 Y21.1105 
G01 X6.1794 Y19.6564 
G01 X6.5816 Y19.2542 
G00 Z2.5400 
G00 X4.1346 Y3.5686 
G01 Z-0.1200 F100.00 
G01 X4.0200 Y3.7264 F230.00 
G01 X3.9314 Y3.9002 
G01 X3.8711 Y4.0858 
G01 X3.8406 Y4.2785 
G01 X3.8406 Y5.8815 
G01 X3.8711 Y6.0742 
G01 X3.9314 Y6.2598 
G01 X4.0200 Y6.4336 
G01 X4.1346 Y6.5914 
G01 X4.2726 Y6.7294 
G01 X4.4304 Y6.8440 
G01 X4.6042 Y6.9326 
G01 X4.7898 Y6.9929 
G01 X4.9825 Y7.0234 
G01 X5.1775 Y7.0234 
G01 X5.3702 Y6.9929 
G01 X5.5558 Y6.9326 
G01 X5.7296 Y6.8440 
G01 X5.8874 Y6.7294 
G01 X6.0254 Y6.5914 
G01 X6.1400 Y6.4336 
G01 X6.2286 Y6.2598 
G01 X6.2889 Y6.0742 
G01 X6.3194 Y5.8815 
G01 X6.3194 Y4.2785 
G01 X6.2889 Y4.0858 
G01 X6.2286 Y3.9002 
G01 X6.1400 Y3.7264 
G01 X6.0254 Y3.5686 
G01 X5.8874 Y3.4306 
G01 X5.7296 Y3.3160 
G01 X5.5558 Y3.2274 
G01 X5.3702 Y3.1671 
G01 X5.1775 Y3.1366 
G01 X4.9825 Y3.1366 
G01 X4.7898 Y3.1671 
G01 X4.6042 Y3.2274 
G01 X4.4304 Y3.3160 
G01 X4.2726 Y3.4306 
G01 X4.1346 Y3.5686 
G00 Z2.5400 
G00 X6.6746 Y3.5686 
G01 Z-0.1200 F100.00 
G01 X6.5600 Y3.7264 F230.00 
G01 X6.4714 Y3.9002 
G01 X6.4111 Y4.0858 
G01 X6.3806 Y4.2785 
G01 X6.3806 Y5.8815 
G01 X6.4111 Y6.0742 
G01 X6.4714 Y6.2598 
G01 X6.5600 Y6.4336 
G01 X6.6746 Y6.5914 
G01 X6.8126 Y6.7294 
G01 X6.9704 Y6.8440 
G01 X7.1435 Y6.9322 
G01 X6.9834 Y6.9322 
G01 X6.8309 Y6.9625 
G01 X6.6873 Y7.0220 
G01 X6.5580 Y7.1084 
G01 X5.4073 Y8.2592 
G01 X5.3702 Y8.2471 
G01 X5.1775 Y8.2166 
G01 X4.9825 Y8.2166 
G01 X4.7898 Y8.2471 
G01 X4.6042 Y8.3074 
G01 X4.4304 Y8.3960 
G01 X4.2726 Y8.5106 
G01 X4.1346 Y8.6486 
G01 X4.0200 Y8.8064 
G01 X3.9314 Y8.9802 
G01 X3.8711 Y9.1658 
G01 X3.8406 Y9.3585 
G01 X3.8406 Y10.9615 
G01 X3.8711 Y11.1542 
G01 X3.9314 Y11.3398 
G01 X4.0200 Y11.5136 
G01 X4.1346 Y11.6714 
G01 X4.2726 Y11.8094 
G01 X4.4304 Y11.9240 
G01 X4.6042 Y12.0126 
G01 X4.7898 Y12.0729 
G01 X4.9825 Y12.1034 
G01 X5.1775 Y12.1034 
G01 X5.3702 Y12.0729 
G01 X5.5558 Y12.0126 
G01 X5.7296 Y11.9240 
G01 X5.8874 Y11.8094 
G01 X6.0254 Y11.6714 
G01 X6.1400 Y11.5136 
G01 X6.2286 Y11.3398 
G01 X6.2889 Y11.1542 
G01 X6.3194 Y10.9615 
G01 X6.3194 Y9.5798 
G01 X6.3806 Y9.5186 
G01 X6.3806 Y10.9615 
G01 X6.4111 Y11.1542 
G01 X6.4714 Y11.3398 
G01 X6.5600 Y11.5136 
G01 X6.6746 Y11.6714 
G01 X6.8126 Y11.8094 
G01 X6.9704 Y11.9240 
G01 X7.1442 Y12.0126 
G01 X7.3298 Y12.0729 
G01 X7.5225 Y12.1034 
G01 X7.7175 Y12.1034 
G01 X7.9102 Y12.0729 
G01 X8.0958 Y12.0126 
G01 X8.2696 Y11.9240 
G01 X8.4274 Y11.8094 
G01 X8.5654 Y11.6714 
G01 X8.6800 Y11.5136 
G01 X8.7686 Y11.3398 
G01 X8.8289 Y11.1542 
G01 X8.8594 Y10.9615 
G01 X8.8594 Y9.3585 
G01 X8.8289 Y9.1658 
G01 X8.7686 Y8.9802 
G01 X8.6800 Y8.8064 
G01 X8.5654 Y8.6486 
G01 X8.4278 Y8.5110 
G01 X9.3522 Y8.5110 
G01 X9.2146 Y8.6486 
G01 X9.1000 Y8.8064 
G01 X9.0114 Y8.9802 
G01 X8.9511 Y9.1658 
G01 X8.9206 Y9.3585 
G01 X8.9206 Y10.9615 
G01 X8.9511 Y11.1542 
G01 X9.0114 Y11.3398 
G01 X9.1000 Y11.5136 
G01 X9.1674 Y11.6064 
G01 X9.1674 Y12.2408 
G01 X4.5704 Y12.2408 
G01 X4.4179 Y12.2711 
G01 X4.2743 Y12.3306 
G01 X4.1450 Y12.4170 
G01 X2.5872 Y13.9748 
G01 X2.5008 Y14.1041 
G01 X2.4413 Y14.2477 
G01 X2.4110 Y14.4002 
G01 X2.4110 Y21.3121 
G01 X2.4413 Y21.4647 
G01 X2.5008 Y21.6083 
G01 X2.5872 Y21.7376 
G01 X4.0350 Y23.1854 
G01 X4.1450 Y23.2954 
G01 X4.2743 Y23.3818 
G01 X4.4179 Y23.4413 
G01 X4.5704 Y23.4716 
G01 X8.1042 Y23.4716 
G01 X8.2567 Y23.4413 
G01 X8.4003 Y23.3818 
G01 X8.5296 Y23.2954 
G01 X9.6631 Y22.1618 
G01 X9.6842 Y22.1726 
G01 X9.8698 Y22.2329 
G01 X10.0625 Y22.2634 
G01 X10.2575 Y22.2634 
G01 X10.4502 Y22.2329 
G01 X10.6358 Y22.1726 
G01 X10.8096 Y22.0840 
G01 X10.9674 Y21.9694 
G01 X11.1054 Y21.8314 
G01 X11.2200 Y21.6736 
G01 X11.3086 Y21.4998 
G01 X11.3689 Y21.3142 
G01 X11.3994 Y21.1215 
G01 X11.3994 Y19.5185 
G01 X11.3689 Y19.3258 
G01 X11.3086 Y19.1402 
G01 X11.2200 Y18.9664 
G01 X11.1054 Y18.8086 
G01 X10.9674 Y18.6706 
G01 X10.8108 Y18.5568 
G01 X10.8133 Y18.5558 
G01 X10.9426 Y18.4694 
G01 X11.0526 Y18.3594 
G01 X12.5004 Y16.9116 
G01 X12.5868 Y16.7823 
G01 X12.6463 Y16.6387 
G01 X12.6766 Y16.4861 
G01 X12.6766 Y13.8398 
G01 X17.6256 Y8.8908 
G01 X17.6256 Y9.4800 
G01 X18.4600 Y10.3144 
G01 X19.1548 Y10.3144 
G01 X20.0708 Y11.2304 
G01 X20.2001 Y11.3168 
G01 X20.3437 Y11.3763 
G01 X20.4962 Y11.4066 
G01 X21.7150 Y11.4066 
G01 X21.7150 Y13.5906 
G01 X21.7453 Y13.7431 
G01 X21.8048 Y13.8867 
G01 X21.8912 Y14.0160 
G01 X22.0012 Y14.1260 
G01 X23.9316 Y16.0564 
G01 X24.0609 Y16.1428 
G01 X24.2045 Y16.2023 
G01 X24.3058 Y16.2224 
G01 X24.3058 Y16.3862 
G01 X23.4490 Y17.2430 
G01 X23.3390 Y17.3530 
G01 X23.2526 Y17.4823 
G01 X23.1931 Y17.6259 
G01 X23.1628 Y17.7784 
G01 X23.1628 Y19.8644 
G01 X23.1931 Y20.0169 
G01 X23.2526 Y20.1605 
G01 X23.3390 Y20.2898 
G01 X23.4490 Y20.3998 
G01 X29.2402 Y26.1910 
G01 X29.3695 Y26.2774 
G01 X29.5131 Y26.3369 
G01 X29.6656 Y26.3672 
G01 X33.1994 Y26.3672 
G01 X33.3519 Y26.3369 
G01 X33.4955 Y26.2774 
G01 X33.6248 Y26.1910 
G01 X33.7348 Y26.0810 
G01 X34.7000 Y25.1158 
G01 X34.7864 Y24.9865 
G01 X34.8459 Y24.8429 
G01 X34.8762 Y24.6903 
G01 X34.8762 Y21.1566 
G01 X34.8459 Y21.0041 
G01 X34.7864 Y20.8605 
G01 X34.7000 Y20.7312 
G01 X34.5900 Y20.6212 
G01 X32.9458 Y18.9770 
G01 X32.9458 Y14.1818 
G01 X32.9567 Y14.1789 
G01 X33.0787 Y14.1084 
G01 X33.1784 Y14.0087 
G01 X33.2489 Y13.8867 
G01 X33.2854 Y13.7505 
G01 X33.2854 Y12.1095 
G01 X33.2489 Y11.9733 
G01 X33.1784 Y11.8513 
G01 X33.0787 Y11.7516 
G01 X32.9567 Y11.6811 
G01 X32.8205 Y11.6446 
G01 X30.6795 Y11.6446 
G01 X30.5433 Y11.6811 
G01 X30.4213 Y11.7516 
G01 X30.3216 Y11.8513 
G01 X30.2511 Y11.9733 
G01 X30.2146 Y12.1095 
G01 X30.2146 Y13.7505 
G01 X30.2511 Y13.8867 
G01 X30.3216 Y14.0087 
G01 X30.4213 Y14.1084 
G01 X30.5433 Y14.1789 
G01 X30.6795 Y14.2154 
G01 X31.3670 Y14.2154 
G01 X31.3670 Y18.8460 
G01 X28.6024 Y16.0814 
G01 X28.6024 Y15.3654 
G01 X28.5721 Y15.2129 
G01 X28.5126 Y15.0693 
G01 X28.4262 Y14.9400 
G01 X27.6118 Y14.1256 
G01 X27.6118 Y13.5185 
G01 X27.5753 Y13.3823 
G01 X27.5048 Y13.2603 
G01 X27.4051 Y13.1606 
G01 X27.3709 Y13.1408 
G01 X30.0704 Y10.4414 
G01 X30.2146 Y10.4414 
G01 X30.2146 Y10.7505 
G01 X30.2511 Y10.8867 
G01 X30.3216 Y11.0087 
G01 X30.4213 Y11.1084 
G01 X30.5433 Y11.1789 
G01 X30.6795 Y11.2154 
G01 X32.8205 Y11.2154 
G01 X32.9567 Y11.1789 
G01 X33.0787 Y11.1084 
G01 X33.1784 Y11.0087 
G01 X33.2489 Y10.8867 
G01 X33.2854 Y10.7505 
G01 X33.2854 Y9.1095 
G01 X33.2489 Y8.9733 
G01 X33.1784 Y8.8513 
G01 X33.0787 Y8.7516 
G01 X32.9567 Y8.6811 
G01 X32.8205 Y8.6446 
G01 X30.6795 Y8.6446 
G01 X30.5433 Y8.6811 
G01 X30.4213 Y8.7516 
G01 X30.3216 Y8.8513 
G01 X30.3150 Y8.8626 
G01 X30.0704 Y8.8626 
G01 X28.0944 Y6.8866 
G01 X28.0944 Y5.3905 
G01 X28.0579 Y5.2543 
G01 X27.9874 Y5.1323 
G01 X27.8877 Y5.0326 
G01 X27.7657 Y4.9621 
G01 X27.6295 Y4.9256 
G01 X26.1334 Y4.9256 
G01 X24.4554 Y3.2476 
G01 X24.3261 Y3.1612 
G01 X24.1825 Y3.1017 
G01 X24.0299 Y3.0714 
G01 X12.7746 Y3.0714 
G01 X12.6221 Y3.1017 
G01 X12.4785 Y3.1612 
G01 X12.3492 Y3.2476 
G01 X12.2392 Y3.3576 
G01 X11.5602 Y4.0366 
G01 X11.3529 Y4.0366 
G01 X11.3086 Y3.9002 
G01 X11.2200 Y3.7264 
G01 X11.1054 Y3.5686 
G01 X10.9674 Y3.4306 
G01 X10.8096 Y3.3160 
G01 X10.6358 Y3.2274 
G01 X10.4502 Y3.1671 
G01 X10.2575 Y3.1366 
G01 X10.0625 Y3.1366 
G01 X9.8698 Y3.1671 
G01 X9.6842 Y3.2274 
G01 X9.5104 Y3.3160 
G01 X9.3526 Y3.4306 
G01 X9.2146 Y3.5686 
G01 X9.1000 Y3.7264 
G01 X9.0114 Y3.9002 
G01 X8.9511 Y4.0858 
G01 X8.9206 Y4.2785 
G01 X8.9206 Y5.8815 
G01 X8.9511 Y6.0742 
G01 X9.0114 Y6.2598 
G01 X9.1000 Y6.4336 
G01 X9.2146 Y6.5914 
G01 X9.3526 Y6.7294 
G01 X9.5104 Y6.8440 
G01 X9.6835 Y6.9322 
G01 X8.0965 Y6.9322 
G01 X8.2696 Y6.8440 
G01 X8.4274 Y6.7294 
G01 X8.5654 Y6.5914 
G01 X8.6800 Y6.4336 
G01 X8.7686 Y6.2598 
G01 X8.8289 Y6.0742 
G01 X8.8594 Y5.8815 
G01 X8.8594 Y4.2785 
G01 X8.8289 Y4.0858 
G01 X8.7686 Y3.9002 
G01 X8.6800 Y3.7264 
G01 X8.5654 Y3.5686 
G01 X8.4274 Y3.4306 
G01 X8.2696 Y3.3160 
G01 X8.0958 Y3.2274 
G01 X7.9102 Y3.1671 
G01 X7.7175 Y3.1366 
G01 X7.5225 Y3.1366 
G01 X7.3298 Y3.1671 
G01 X7.1442 Y3.2274 
G01 X6.9704 Y3.3160 
G01 X6.8126 Y3.4306 
G01 X6.6746 Y3.5686 
G00 Z2.5400 
G00 X11.3994 Y5.6154 
G01 Z-0.1200 F100.00 
G01 X11.4292 Y5.6154 F230.00 
G01 X11.3994 Y5.6452 
G01 X11.3994 Y5.6154 
G00 Z2.5400 
G00 X13.6620 Y5.6154 
G01 Z-0.1200 F100.00 
G01 X17.7702 Y5.6154 F230.00 
G01 X17.6256 Y5.7600 
G01 X17.6256 Y6.6580 
G01 X11.3840 Y12.8996 
G01 X11.2740 Y13.0096 
G01 X11.1876 Y13.1389 
G01 X11.1281 Y13.2825 
G01 X11.0978 Y13.4350 
G01 X11.0978 Y13.7210 
G01 X10.9674 Y13.5906 
G01 X10.8096 Y13.4760 
G01 X10.7462 Y13.4437 
G01 X10.7462 Y11.9563 
G01 X10.8096 Y11.9240 
G01 X10.9674 Y11.8094 
G01 X11.1054 Y11.6714 
G01 X11.2200 Y11.5136 
G01 X11.3086 Y11.3398 
G01 X11.3689 Y11.1542 
G01 X11.3994 Y10.9615 
G01 X11.3994 Y9.3585 
G01 X11.3689 Y9.1658 
G01 X11.3086 Y8.9802 
G01 X11.2200 Y8.8064 
G01 X11.1054 Y8.6486 
G01 X10.9674 Y8.5106 
G01 X10.8294 Y8.4104 
G01 X10.9426 Y8.3348 
G01 X11.0526 Y8.2248 
G01 X13.6620 Y5.6154 
G00 Z2.5400 
G00 X19.7944 Y7.6200 
G01 Z-0.1200 F100.00 
G01 X20.3200 Y7.0944 F230.00 
G01 X20.8456 Y7.6200 
G01 X20.3200 Y8.1456 
G01 X19.7944 Y7.6200 
G00 Z2.5400 
G00 X22.3344 Y7.6200 
G01 Z-0.1200 F100.00 
G01 X22.8600 Y7.0944 F230.00 
G01 X23.3856 Y7.6200 
G01 X22.8600 Y8.1456 
G01 X22.3344 Y7.6200 
G00 Z2.5400 
G00 X24.8744 Y7.6200 
G01 Z-0.1200 F100.00 
G01 X25.2456 Y7.2488 F230.00 
G01 X25.2456 Y7.3095 
G01 X25.2821 Y7.4457 
G01 X25.3526 Y7.5677 
G01 X25.4523 Y7.6674 
G01 X25.5743 Y7.7379 
G01 X25.7105 Y7.7744 
G01 X25.7712 Y7.7744 
G01 X25.4000 Y8.1456 
G01 X24.8744 Y7.6200 
G00 Z2.5400 
G00 X25.4000 Y9.6344 
G01 Z-0.1200 F100.00 
G01 X26.0800 Y10.3144 F230.00 
G01 X27.2600 Y10.3144 
G01 X28.0944 Y9.4800 
G01 X28.0944 Y9.1194 
G01 X28.6270 Y9.6520 
G01 X25.7520 Y12.5270 
G01 X25.6656 Y12.6563 
G01 X25.6061 Y12.7999 
G01 X25.5758 Y12.9524 
G01 X25.5758 Y13.0536 
G01 X24.7707 Y13.0536 
G01 X24.6345 Y13.0901 
G01 X24.5125 Y13.1606 
G01 X24.4128 Y13.2603 
G01 X24.3423 Y13.3823 
G01 X24.3058 Y13.5185 
G01 X24.3058 Y14.1978 
G01 X23.2938 Y13.1858 
G01 X23.2938 Y10.9442 
G01 X23.9236 Y10.3144 
G01 X24.7200 Y10.3144 
G01 X25.4000 Y9.6344 
G00 Z2.5400 
G00 X23.9006 Y4.9256 
G01 Z-0.1200 F100.00 
G01 X23.7204 Y4.9256 F230.00 
G01 X23.4450 Y4.6502 
G01 X23.6252 Y4.6502 
G01 X23.9006 Y4.9256 
G00 Z2.5400 
G00 X21.1897 Y14.2816 
G01 Z-0.1200 F100.00 
G01 X21.0677 Y14.2111 F230.00 
G01 X20.9315 Y14.1746 
G01 X18.5905 Y14.1746 
G01 X18.4543 Y14.2111 
G01 X18.3323 Y14.2816 
G01 X18.2326 Y14.3813 
G01 X18.1621 Y14.5033 
G01 X18.1256 Y14.6395 
G01 X18.1256 Y18.3805 
G01 X18.1621 Y18.5167 
G01 X18.2326 Y18.6387 
G01 X18.3323 Y18.7384 
G01 X18.4543 Y18.8089 
G01 X18.5905 Y18.8454 
G01 X20.9315 Y18.8454 
G01 X21.0677 Y18.8089 
G01 X21.1897 Y18.7384 
G01 X21.2894 Y18.6387 
G01 X21.3599 Y18.5167 
G01 X21.3964 Y18.3805 
G01 X21.3964 Y14.6395 
G01 X21.3599 Y14.5033 
G01 X21.2894 Y14.3813 
G01 X21.1897 Y14.2816 
G00 Z2.5400 
G00 X25.9342 Y15.3436 
G01 Z-0.1200 F100.00 
G01 X26.5970 Y15.3436 F230.00 
G01 X26.6184 Y15.3650 
G01 X25.9556 Y15.3650 
G01 X25.9342 Y15.3436 
G00 Z2.5400 
G00 X25.9804 Y17.6764 
G01 Z-0.1200 F100.00 
G01 X26.0361 Y17.6653 F230.00 
G01 X26.0883 Y17.6550 
G01 X27.1469 Y17.6550 
G01 X27.2831 Y17.6185 
G01 X27.4051 Y17.5480 
G01 X27.5048 Y17.4483 
G01 X27.5753 Y17.3263 
G01 X27.5836 Y17.2954 
G01 X30.6905 Y20.4023 
G01 X30.5702 Y20.4414 
G01 X30.3964 Y20.5300 
G01 X30.2386 Y20.6446 
G01 X30.1006 Y20.7826 
G01 X29.9860 Y20.9404 
G01 X29.8974 Y21.1142 
G01 X29.8672 Y21.2071 
G01 X27.6118 Y18.9516 
G01 X27.6118 Y18.1413 
G01 X27.5753 Y18.0051 
G01 X27.5048 Y17.8831 
G01 X27.4051 Y17.7834 
G01 X27.2831 Y17.7129 
G01 X27.1469 Y17.6764 
G01 X25.9804 Y17.6764 
G00 Z2.5400 
G00 X26.3938 Y19.9664 
G01 Z-0.1200 F100.00 
G01 X29.9596 Y23.5322 F230.00 
G01 X29.8974 Y23.6542 
G01 X29.8371 Y23.8398 
G01 X29.8066 Y24.0325 
G01 X29.8066 Y24.2275 
G01 X29.8371 Y24.4202 
G01 X29.8974 Y24.6058 
G01 X29.9074 Y24.6255 
G01 X25.2484 Y19.9664 
G01 X26.3938 Y19.9664 
G00 Z2.5400 
G00 X31.4896 Y22.8294 
G01 Z-0.1200 F100.00 
G01 X32.5515 Y22.8294 F230.00 
G01 X32.7442 Y22.7989 
G01 X32.9298 Y22.7386 
G01 X33.1036 Y22.6500 
G01 X33.2614 Y22.5354 
G01 X33.2974 Y22.4994 
G01 X33.2974 Y23.2206 
G01 X33.2614 Y23.1846 
G01 X33.1036 Y23.0700 
G01 X32.9298 Y22.9814 
G01 X32.7442 Y22.9211 
G01 X32.5515 Y22.8906 
G01 X31.5508 Y22.8906 
G01 X31.4896 Y22.8294 
G00 Z2.5400 
G00 X8.8594 Y20.7328 
G01 Z-0.1200 F100.00 
G01 X8.8594 Y19.5185 F230.00 
G01 X8.8289 Y19.3258 
G01 X8.7686 Y19.1402 
G01 X8.6800 Y18.9664 
G01 X8.5654 Y18.8086 
G01 X8.4274 Y18.6706 
G01 X8.3929 Y18.6456 
G01 X9.3871 Y18.6456 
G01 X9.3526 Y18.6706 
G01 X9.2146 Y18.8086 
G01 X9.1000 Y18.9664 
G01 X9.0114 Y19.1402 
G01 X8.9511 Y19.3258 
G01 X8.9206 Y19.5185 
G01 X8.9206 Y20.6716 
G01 X8.8594 Y20.7328 
G00 Z2.5400 
G00 X6.3806 Y21.1215 
G01 Z-0.1200 F100.00 
G01 X6.4111 Y21.3142 F230.00 
G01 X6.4714 Y21.4998 
G01 X6.5600 Y21.6736 
G01 X6.6746 Y21.8314 
G01 X6.7360 Y21.8928 
G01 X5.9640 Y21.8928 
G01 X6.0254 Y21.8314 
G01 X6.1400 Y21.6736 
G01 X6.2286 Y21.4998 
G01 X6.2889 Y21.3142 
G01 X6.3194 Y21.1215 
G01 X6.3194 Y19.7144 
G01 X6.3806 Y19.6532 
G01 X6.3806 Y21.1215 
G00 Z2.5400 
G00 X5.3881 Y18.4129 
G01 Z-0.1200 F100.00 
G01 X5.3702 Y18.4071 F230.00 
G01 X5.1775 Y18.3766 
G01 X4.9825 Y18.3766 
G01 X4.7898 Y18.4071 
G01 X4.6042 Y18.4674 
G01 X4.4304 Y18.5560 
G01 X4.2726 Y18.6706 
G01 X4.1346 Y18.8086 
G01 X4.0200 Y18.9664 
G01 X3.9898 Y19.0256 
G01 X3.9898 Y16.5344 
G01 X4.0200 Y16.5936 
G01 X4.1346 Y16.7514 
G01 X4.2726 Y16.8894 
G01 X4.4304 Y17.0040 
G01 X4.6042 Y17.0926 
G01 X4.7898 Y17.1529 
G01 X4.9825 Y17.1834 
G01 X5.1775 Y17.1834 
G01 X5.3702 Y17.1529 
G01 X5.5558 Y17.0926 
G01 X5.7296 Y17.0040 
G01 X5.8874 Y16.8894 
G01 X6.0254 Y16.7514 
G01 X6.1400 Y16.5936 
G01 X6.2286 Y16.4198 
G01 X6.2889 Y16.2342 
G01 X6.3194 Y16.0415 
G01 X6.3194 Y14.4385 
G01 X6.2889 Y14.2458 
G01 X6.2286 Y14.0602 
G01 X6.1400 Y13.8864 
G01 X6.0915 Y13.8196 
G01 X6.6085 Y13.8196 
G01 X6.5600 Y13.8864 
G01 X6.4714 Y14.0602 
G01 X6.4111 Y14.2458 
G01 X6.3806 Y14.4385 
G01 X6.3806 Y16.0415 
G01 X6.4111 Y16.2342 
G01 X6.4714 Y16.4198 
G01 X6.5600 Y16.5936 
G01 X6.6746 Y16.7514 
G01 X6.8126 Y16.8894 
G01 X6.9704 Y17.0040 
G01 X7.0936 Y17.0668 
G01 X6.9834 Y17.0668 
G01 X6.8309 Y17.0971 
G01 X6.6873 Y17.1566 
G01 X6.5580 Y17.2430 
G01 X5.3881 Y18.4129 
G00 Z2.5400 
G00 X8.1464 Y17.0668 
G01 Z-0.1200 F100.00 
G01 X8.2696 Y17.0040 F230.00 
G01 X8.4274 Y16.8894 
G01 X8.5654 Y16.7514 
G01 X8.6800 Y16.5936 
G01 X8.7686 Y16.4198 
G01 X8.8289 Y16.2342 
G01 X8.8594 Y16.0415 
G01 X8.8594 Y14.4385 
G01 X8.8289 Y14.2458 
G01 X8.7686 Y14.0602 
G01 X8.6800 Y13.8864 
G01 X8.6315 Y13.8196 
G01 X9.1485 Y13.8196 
G01 X9.1000 Y13.8864 
G01 X9.0114 Y14.0602 
G01 X8.9511 Y14.2458 
G01 X8.9206 Y14.4385 
G01 X8.9206 Y16.0415 
G01 X8.9511 Y16.2342 
G01 X9.0114 Y16.4198 
G01 X9.1000 Y16.5936 
G01 X9.2146 Y16.7514 
G01 X9.3526 Y16.8894 
G01 X9.5104 Y17.0040 
G01 X9.6336 Y17.0668 
G01 X8.1464 Y17.0668 
G00 Z2.5400 
G00 Z10.0000 
M05
M02
