(.../Personal Projects/pcb-gcode/pcb-gcode.ulp)
(Copyright 2005 - 2012 by John Johnson)
(See readme.txt for licensing terms.)
(This file generated from the board:)
(.../esp01-4xSensors/Sensorsboard.brd)
(Current profile is .../pcb-gcode/profiles/generic.pp  )
(This file generated 1/6/19 8:44 PM)
(Settings from pcb-machine.h)
(spindle on time = 0.5000)
(  Tool Size)
(0.1800 )
(spindle speed = 30000.0000)
(tool change at 0.0000 0.0000 10.0000 )
(feed rate xy = F230.00 )
(feed rate z  = F100.00 )
(Z Axis Settings)
(  High     Up        Down     Drill)
(10.0000 	2.5400 	-0.1200 	-3.0000 )
(Settings from pcb-defaults.h)
(isolate min = 0.0254)
(isolate max = 0.4000)
(isolate step = 0.1400)
(Generated top outlines, top drill, bottom outlines, bottom drill, )
(Unit of measure: mm)
(Metric Mode)
G21
(Absolute Coordinates)
G90
S30000
G00 Z10.0000 
G00 X0.0000 Y0.0000 
M03
G04 P0.500000
G00 Z2.5400 
G00 X1.9396 Y5.0818 
G01 Z-0.1200 F100.00 
G01 X5.8004 Y1.2210 F230.00 
G01 X5.8692 Y1.1522 
G01 X5.9534 Y1.1036 
G01 X6.0474 Y1.0784 
G01 X24.9660 Y1.0784 
G01 X25.0600 Y1.1036 
G01 X25.1442 Y1.1522 
G01 X28.5224 Y4.5304 
G01 X28.5912 Y4.5992 
G01 X28.6398 Y4.6834 
G01 X28.6650 Y4.7774 
G01 X28.6650 Y7.7702 
G01 X28.6398 Y7.8642 
G01 X28.5912 Y7.9484 
G01 X28.5224 Y8.0172 
G01 X27.6744 Y8.8652 
G01 X27.6744 Y9.3060 
G01 X27.0860 Y9.8944 
G01 X26.2540 Y9.8944 
G01 X26.2083 Y9.8487 
G01 X18.8704 Y17.1866 
G01 X18.7862 Y17.2352 
G01 X18.6922 Y17.2604 
G01 X15.6994 Y17.2604 
G01 X15.6054 Y17.2352 
G01 X15.5212 Y17.1866 
G01 X15.4524 Y17.1178 
G01 X14.2900 Y15.9554 
G01 X13.9170 Y15.9554 
G01 X13.8746 Y15.9378 
G01 X13.8422 Y15.9054 
G01 X13.8246 Y15.8630 
G01 X13.8246 Y14.6170 
G01 X13.8422 Y14.5746 
G01 X13.8746 Y14.5422 
G01 X13.9170 Y14.5246 
G01 X14.7630 Y14.5246 
G01 X14.8054 Y14.5422 
G01 X14.8378 Y14.5746 
G01 X14.8554 Y14.6170 
G01 X14.8554 Y15.4760 
G01 X15.9010 Y16.5216 
G01 X18.4906 Y16.5216 
G01 X25.6859 Y9.3263 
G01 X25.6656 Y9.3060 
G01 X25.6656 Y8.4740 
G01 X26.2540 Y7.8856 
G01 X27.0860 Y7.8856 
G01 X27.3476 Y8.1472 
G01 X27.9262 Y7.5686 
G01 X27.9262 Y4.9790 
G01 X24.7644 Y1.8172 
G01 X6.2490 Y1.8172 
G01 X2.6046 Y5.4616 
G01 X2.6046 Y11.4294 
G01 X4.9096 Y13.7344 
G01 X4.9993 Y13.7166 
G01 X5.1607 Y13.7166 
G01 X5.3190 Y13.7481 
G01 X5.4681 Y13.8099 
G01 X5.6023 Y13.8995 
G01 X5.7165 Y14.0137 
G01 X5.8061 Y14.1479 
G01 X5.8679 Y14.2970 
G01 X5.8994 Y14.4553 
G01 X5.8994 Y16.0247 
G01 X5.8679 Y16.1830 
G01 X5.8061 Y16.3321 
G01 X5.7165 Y16.4663 
G01 X5.6023 Y16.5805 
G01 X5.4681 Y16.6701 
G01 X5.3190 Y16.7319 
G01 X5.1607 Y16.7634 
G01 X4.9993 Y16.7634 
G01 X4.8410 Y16.7319 
G01 X4.6919 Y16.6701 
G01 X4.5577 Y16.5805 
G01 X4.4435 Y16.4663 
G01 X4.3539 Y16.3321 
G01 X4.2921 Y16.1830 
G01 X4.2606 Y16.0247 
G01 X4.2606 Y14.4553 
G01 X4.2788 Y14.3638 
G01 X4.2788 Y14.1484 
G01 X2.0084 Y11.8780 
G01 X1.9396 Y11.8092 
G01 X1.8910 Y11.7250 
G01 X1.8658 Y11.6310 
G01 X1.8658 Y5.2600 
G01 X1.8910 Y5.1660 
G01 X1.9396 Y5.0818 
G00 Z2.5400 
G00 X4.2606 Y5.8647 
G01 Z-0.1200 F100.00 
G01 X4.2606 Y4.2953 F230.00 
G01 X4.2921 Y4.1370 
G01 X4.3539 Y3.9879 
G01 X4.4435 Y3.8537 
G01 X4.5577 Y3.7395 
G01 X4.6919 Y3.6499 
G01 X4.8410 Y3.5881 
G01 X4.9993 Y3.5566 
G01 X5.1607 Y3.5566 
G01 X5.3190 Y3.5881 
G01 X5.4681 Y3.6499 
G01 X5.6023 Y3.7395 
G01 X5.6486 Y3.7858 
G01 X6.7656 Y2.6688 
G01 X6.8344 Y2.6000 
G01 X6.9186 Y2.5514 
G01 X7.0126 Y2.5262 
G01 X14.6298 Y2.5262 
G01 X14.9698 Y2.1862 
G01 X15.0386 Y2.1174 
G01 X15.1228 Y2.0688 
G01 X15.2168 Y2.0436 
G01 X17.7270 Y2.0436 
G01 X17.8210 Y2.0688 
G01 X17.9052 Y2.1174 
G01 X21.1537 Y5.3659 
G01 X21.1740 Y5.3456 
G01 X22.0060 Y5.3456 
G01 X22.5944 Y5.9340 
G01 X22.5944 Y6.7660 
G01 X22.0060 Y7.3544 
G01 X21.1740 Y7.3544 
G01 X20.5856 Y6.7660 
G01 X20.5856 Y5.9340 
G01 X20.6313 Y5.8883 
G01 X17.5254 Y2.7824 
G01 X15.4184 Y2.7824 
G01 X15.0784 Y3.1224 
G01 X15.0096 Y3.1912 
G01 X14.8554 Y3.3454 
G01 X14.8554 Y4.4330 
G01 X14.8378 Y4.4754 
G01 X14.8054 Y4.5078 
G01 X14.7630 Y4.5254 
G01 X13.9170 Y4.5254 
G01 X13.8746 Y4.5078 
G01 X13.8422 Y4.4754 
G01 X13.8246 Y4.4330 
G01 X13.8246 Y3.2650 
G01 X7.2142 Y3.2650 
G01 X5.8994 Y4.5798 
G01 X5.8994 Y5.8647 
G01 X5.8679 Y6.0230 
G01 X5.8061 Y6.1721 
G01 X5.7165 Y6.3063 
G01 X5.6023 Y6.4205 
G01 X5.4681 Y6.5101 
G01 X5.3190 Y6.5719 
G01 X5.1607 Y6.6034 
G01 X4.9993 Y6.6034 
G01 X4.8410 Y6.5719 
G01 X4.6919 Y6.5101 
G01 X4.5577 Y6.4205 
G01 X4.4435 Y6.3063 
G01 X4.3539 Y6.1721 
G01 X4.2921 Y6.0230 
G01 X4.2606 Y5.8647 
G00 Z2.5400 
G00 X4.4214 Y7.4260 
G01 Z-0.1200 F100.00 
G01 X4.5056 Y7.3774 F230.00 
G01 X4.5996 Y7.3522 
G01 X4.9778 Y7.3522 
G01 X6.8006 Y5.5294 
G01 X6.8006 Y4.2953 
G01 X6.8321 Y4.1370 
G01 X6.8939 Y3.9879 
G01 X6.9835 Y3.8537 
G01 X7.0977 Y3.7395 
G01 X7.2319 Y3.6499 
G01 X7.3810 Y3.5881 
G01 X7.5393 Y3.5566 
G01 X7.7007 Y3.5566 
G01 X7.8590 Y3.5881 
G01 X8.0081 Y3.6499 
G01 X8.1423 Y3.7395 
G01 X8.2565 Y3.8537 
G01 X8.3461 Y3.9879 
G01 X8.4079 Y4.1370 
G01 X8.4394 Y4.2953 
G01 X8.4394 Y5.8647 
G01 X8.4079 Y6.0230 
G01 X8.3461 Y6.1721 
G01 X8.2565 Y6.3063 
G01 X8.1423 Y6.4205 
G01 X8.0081 Y6.5101 
G01 X7.8590 Y6.5719 
G01 X7.7007 Y6.6034 
G01 X7.5393 Y6.6034 
G01 X7.3810 Y6.5719 
G01 X7.2319 Y6.5101 
G01 X7.0977 Y6.4205 
G01 X7.0260 Y6.3488 
G01 X5.4264 Y7.9484 
G01 X5.3576 Y8.0172 
G01 X5.2734 Y8.0658 
G01 X5.1794 Y8.0910 
G01 X4.8012 Y8.0910 
G01 X3.5698 Y9.3224 
G01 X3.5698 Y10.9468 
G01 X4.8012 Y12.1782 
G01 X5.4604 Y12.1782 
G01 X6.8006 Y10.8380 
G01 X6.8006 Y9.3753 
G01 X6.8321 Y9.2170 
G01 X6.8939 Y9.0679 
G01 X6.9835 Y8.9337 
G01 X7.0977 Y8.8195 
G01 X7.2319 Y8.7299 
G01 X7.3810 Y8.6681 
G01 X7.5393 Y8.6366 
G01 X7.7007 Y8.6366 
G01 X7.8590 Y8.6681 
G01 X8.0081 Y8.7299 
G01 X8.1423 Y8.8195 
G01 X8.2565 Y8.9337 
G01 X8.3461 Y9.0679 
G01 X8.4079 Y9.2170 
G01 X8.4394 Y9.3753 
G01 X8.4394 Y10.9447 
G01 X8.4318 Y10.9828 
G01 X10.1098 Y12.6608 
G01 X11.4532 Y12.6608 
G01 X11.5472 Y12.6860 
G01 X11.6314 Y12.7346 
G01 X12.8524 Y13.9556 
G01 X13.0394 Y13.7686 
G01 X13.1082 Y13.6998 
G01 X13.1924 Y13.6512 
G01 X13.2864 Y13.6260 
G01 X15.8612 Y13.6260 
G01 X15.8612 Y10.3054 
G01 X14.6170 Y10.3054 
G01 X14.5746 Y10.2878 
G01 X14.5422 Y10.2554 
G01 X14.5246 Y10.2130 
G01 X14.5246 Y9.3670 
G01 X14.5422 Y9.3246 
G01 X14.5746 Y9.2922 
G01 X14.6170 Y9.2746 
G01 X15.8630 Y9.2746 
G01 X15.8823 Y9.2826 
G01 X18.0080 Y9.2826 
G01 X18.0456 Y9.2450 
G01 X18.0456 Y8.6112 
G01 X15.9350 Y6.5006 
G01 X15.8864 Y6.4164 
G01 X15.8612 Y6.3224 
G01 X15.8612 Y4.5254 
G01 X15.7170 Y4.5254 
G01 X15.6746 Y4.5078 
G01 X15.6422 Y4.4754 
G01 X15.6246 Y4.4330 
G01 X15.6246 Y3.1870 
G01 X15.6422 Y3.1446 
G01 X15.6746 Y3.1122 
G01 X15.7170 Y3.0946 
G01 X16.5630 Y3.0946 
G01 X16.6054 Y3.1122 
G01 X16.6378 Y3.1446 
G01 X16.6554 Y3.1870 
G01 X16.6554 Y4.4330 
G01 X16.6378 Y4.4754 
G01 X16.6054 Y4.5078 
G01 X16.6000 Y4.5100 
G01 X16.6000 Y6.1208 
G01 X18.4994 Y8.0202 
G01 X18.6340 Y7.8856 
G01 X19.4660 Y7.8856 
G01 X20.0544 Y8.4740 
G01 X20.0544 Y9.3060 
G01 X19.4660 Y9.8944 
G01 X18.6340 Y9.8944 
G01 X18.5375 Y9.7979 
G01 X18.3878 Y9.9476 
G01 X18.3036 Y9.9962 
G01 X18.2096 Y10.0214 
G01 X16.6000 Y10.0214 
G01 X16.6000 Y14.5399 
G01 X16.6054 Y14.5422 
G01 X16.6378 Y14.5746 
G01 X16.6554 Y14.6170 
G01 X16.6554 Y15.8630 
G01 X16.6378 Y15.9054 
G01 X16.6054 Y15.9378 
G01 X16.5630 Y15.9554 
G01 X15.7170 Y15.9554 
G01 X15.6746 Y15.9378 
G01 X15.6422 Y15.9054 
G01 X15.6246 Y15.8630 
G01 X15.6246 Y14.6170 
G01 X15.6422 Y14.5746 
G01 X15.6746 Y14.5422 
G01 X15.7170 Y14.5246 
G01 X15.8612 Y14.5246 
G01 X15.8612 Y14.3648 
G01 X13.4880 Y14.3648 
G01 X13.2218 Y14.6310 
G01 X13.2218 Y15.7728 
G01 X16.0436 Y18.5946 
G01 X16.0922 Y18.6788 
G01 X16.1174 Y18.7728 
G01 X16.1174 Y19.6046 
G01 X16.5630 Y19.6046 
G01 X16.6054 Y19.6222 
G01 X16.6378 Y19.6546 
G01 X16.6554 Y19.6970 
G01 X16.6554 Y20.3824 
G01 X22.0704 Y20.3824 
G01 X22.1644 Y20.4076 
G01 X22.2486 Y20.4562 
G01 X25.1720 Y23.3796 
G01 X25.3974 Y23.3796 
G01 X25.4807 Y23.4141 
G01 X25.5444 Y23.4778 
G01 X25.5789 Y23.5611 
G01 X25.5789 Y23.7865 
G01 X25.6956 Y23.9032 
G01 X25.7442 Y23.9874 
G01 X25.7694 Y24.0814 
G01 X25.7694 Y24.1786 
G01 X25.7442 Y24.2726 
G01 X25.6956 Y24.3568 
G01 X25.6268 Y24.4256 
G01 X25.5789 Y24.4533 
G01 X25.5789 Y24.6989 
G01 X25.5444 Y24.7822 
G01 X25.4807 Y24.8459 
G01 X25.3974 Y24.8804 
G01 X24.6406 Y24.8804 
G01 X24.5573 Y24.8459 
G01 X24.4936 Y24.7822 
G01 X24.4591 Y24.6989 
G01 X24.4591 Y23.7115 
G01 X21.8688 Y21.1212 
G01 X16.2689 Y21.1212 
G01 X16.2589 Y21.1233 
G01 X16.2204 Y21.1212 
G01 X16.1820 Y21.1212 
G01 X16.1720 Y21.1185 
G01 X16.1617 Y21.1180 
G01 X16.1252 Y21.1060 
G01 X16.0880 Y21.0960 
G01 X16.0791 Y21.0909 
G01 X16.0693 Y21.0877 
G01 X16.0371 Y21.0666 
G01 X16.0038 Y21.0474 
G01 X15.9965 Y21.0401 
G01 X15.9893 Y21.0354 
G01 X15.7170 Y21.0354 
G01 X15.6746 Y21.0178 
G01 X15.6422 Y20.9854 
G01 X15.6246 Y20.9430 
G01 X15.6246 Y20.6186 
G01 X15.6054 Y20.6134 
G01 X15.5846 Y20.6014 
G01 X15.5624 Y20.5922 
G01 X15.5427 Y20.5772 
G01 X15.5212 Y20.5648 
G01 X15.5042 Y20.5478 
G01 X15.4851 Y20.5332 
G01 X15.4699 Y20.5135 
G01 X15.4524 Y20.4960 
G01 X15.4404 Y20.4752 
G01 X15.4257 Y20.4561 
G01 X15.4162 Y20.4332 
G01 X15.4038 Y20.4118 
G01 X15.3976 Y20.3886 
G01 X15.3883 Y20.3664 
G01 X15.3850 Y20.3418 
G01 X15.3786 Y20.3178 
G01 X15.3786 Y20.2938 
G01 X15.3754 Y20.2700 
G01 X15.3786 Y20.2454 
G01 X15.3786 Y18.9744 
G01 X12.6256 Y16.2214 
G01 X12.5568 Y16.1526 
G01 X12.5082 Y16.0684 
G01 X12.4830 Y15.9744 
G01 X12.4830 Y14.6310 
G01 X11.2516 Y13.3996 
G01 X9.9082 Y13.3996 
G01 X9.8142 Y13.3744 
G01 X9.7300 Y13.3258 
G01 X9.6612 Y13.2570 
G01 X7.9984 Y11.5942 
G01 X7.8590 Y11.6519 
G01 X7.7007 Y11.6834 
G01 X7.5393 Y11.6834 
G01 X7.3810 Y11.6519 
G01 X7.2319 Y11.5901 
G01 X7.1488 Y11.5346 
G01 X5.8945 Y12.7889 
G01 X7.0514 Y13.9458 
G01 X7.0977 Y13.8995 
G01 X7.2319 Y13.8099 
G01 X7.3810 Y13.7481 
G01 X7.5393 Y13.7166 
G01 X7.7007 Y13.7166 
G01 X7.8590 Y13.7481 
G01 X8.0081 Y13.8099 
G01 X8.1423 Y13.8995 
G01 X8.2565 Y14.0137 
G01 X8.3461 Y14.1479 
G01 X8.4079 Y14.2970 
G01 X8.4394 Y14.4553 
G01 X8.4394 Y16.0247 
G01 X8.4079 Y16.1830 
G01 X8.3461 Y16.3321 
G01 X8.2565 Y16.4663 
G01 X8.1423 Y16.5805 
G01 X8.0081 Y16.6701 
G01 X7.8590 Y16.7319 
G01 X7.7007 Y16.7634 
G01 X7.5393 Y16.7634 
G01 X7.3810 Y16.7319 
G01 X7.2319 Y16.6701 
G01 X7.0977 Y16.5805 
G01 X7.0133 Y16.4961 
G01 X5.8402 Y17.6692 
G01 X5.7560 Y17.7178 
G01 X5.6620 Y17.7430 
G01 X5.2838 Y17.7430 
G01 X3.5698 Y19.4570 
G01 X3.5698 Y21.0814 
G01 X4.8012 Y22.3128 
G01 X5.4604 Y22.3128 
G01 X6.8006 Y20.9726 
G01 X6.8006 Y19.5353 
G01 X6.8321 Y19.3770 
G01 X6.8939 Y19.2279 
G01 X6.9835 Y19.0937 
G01 X7.0977 Y18.9795 
G01 X7.2319 Y18.8899 
G01 X7.3810 Y18.8281 
G01 X7.5393 Y18.7966 
G01 X7.7007 Y18.7966 
G01 X7.8590 Y18.8281 
G01 X8.0081 Y18.8899 
G01 X8.1423 Y18.9795 
G01 X8.2565 Y19.0937 
G01 X8.3461 Y19.2279 
G01 X8.4079 Y19.3770 
G01 X8.4394 Y19.5353 
G01 X8.4394 Y21.1047 
G01 X8.4079 Y21.2630 
G01 X8.3461 Y21.4121 
G01 X8.2565 Y21.5463 
G01 X8.1423 Y21.6605 
G01 X8.0081 Y21.7501 
G01 X7.8590 Y21.8119 
G01 X7.7007 Y21.8434 
G01 X7.5393 Y21.8434 
G01 X7.3810 Y21.8119 
G01 X7.2319 Y21.7501 
G01 X7.1336 Y21.6844 
G01 X5.9090 Y22.9090 
G01 X5.8402 Y22.9778 
G01 X5.7560 Y23.0264 
G01 X5.6620 Y23.0516 
G01 X4.5996 Y23.0516 
G01 X4.5056 Y23.0264 
G01 X4.4214 Y22.9778 
G01 X2.9736 Y21.5300 
G01 X2.9048 Y21.4612 
G01 X2.8562 Y21.3770 
G01 X2.8310 Y21.2830 
G01 X2.8310 Y19.2554 
G01 X2.8562 Y19.1614 
G01 X2.9048 Y19.0772 
G01 X4.8352 Y17.1468 
G01 X4.9040 Y17.0780 
G01 X4.9882 Y17.0294 
G01 X5.0822 Y17.0042 
G01 X5.4604 Y17.0042 
G01 X6.8006 Y15.6640 
G01 X6.8006 Y14.7398 
G01 X4.9778 Y12.9170 
G01 X4.5996 Y12.9170 
G01 X4.5056 Y12.8918 
G01 X4.4214 Y12.8432 
G01 X4.3526 Y12.7744 
G01 X2.9048 Y11.3266 
G01 X2.8562 Y11.2424 
G01 X2.8310 Y11.1484 
G01 X2.8310 Y9.1208 
G01 X2.8562 Y9.0268 
G01 X2.9048 Y8.9426 
G01 X2.9736 Y8.8738 
G01 X4.4214 Y7.4260 
G00 Z2.5400 
G00 X4.4435 Y8.9337 
G01 Z-0.1200 F100.00 
G01 X4.5577 Y8.8195 F230.00 
G01 X4.6919 Y8.7299 
G01 X4.8410 Y8.6681 
G01 X4.9993 Y8.6366 
G01 X5.1607 Y8.6366 
G01 X5.3190 Y8.6681 
G01 X5.4681 Y8.7299 
G01 X5.5055 Y8.7549 
G01 X6.8344 Y7.4260 
G01 X6.9186 Y7.3774 
G01 X7.0126 Y7.3522 
G01 X14.7355 Y7.3522 
G01 X14.7842 Y7.3522 
G01 X14.8314 Y7.3522 
G01 X14.8341 Y7.3526 
G01 X14.8798 Y7.3652 
G01 X14.9254 Y7.3774 
G01 X14.9688 Y7.4024 
G01 X15.0096 Y7.4260 
G01 X15.0917 Y7.4746 
G01 X15.8630 Y7.4746 
G01 X15.9054 Y7.4922 
G01 X15.9378 Y7.5246 
G01 X15.9554 Y7.5670 
G01 X15.9554 Y8.4130 
G01 X15.9378 Y8.4554 
G01 X15.9054 Y8.4878 
G01 X15.8630 Y8.5054 
G01 X14.6170 Y8.5054 
G01 X14.5746 Y8.4878 
G01 X14.5422 Y8.4554 
G01 X14.5246 Y8.4130 
G01 X14.5246 Y8.0910 
G01 X7.2142 Y8.0910 
G01 X5.8994 Y9.4058 
G01 X5.8994 Y10.9447 
G01 X5.8679 Y11.1030 
G01 X5.8061 Y11.2521 
G01 X5.7165 Y11.3863 
G01 X5.6023 Y11.5005 
G01 X5.4681 Y11.5901 
G01 X5.3190 Y11.6519 
G01 X5.1607 Y11.6834 
G01 X4.9993 Y11.6834 
G01 X4.8410 Y11.6519 
G01 X4.6919 Y11.5901 
G01 X4.5577 Y11.5005 
G01 X4.4435 Y11.3863 
G01 X4.3539 Y11.2521 
G01 X4.2921 Y11.1030 
G01 X4.2606 Y10.9447 
G01 X4.2606 Y9.3753 
G01 X4.2921 Y9.2170 
G01 X4.3539 Y9.0679 
G01 X4.4435 Y8.9337 
G00 Z2.5400 
G00 X9.5235 Y8.9337 
G01 Z-0.1200 F100.00 
G01 X9.6377 Y8.8195 F230.00 
G01 X9.7719 Y8.7299 
G01 X9.9210 Y8.6681 
G01 X10.0793 Y8.6366 
G01 X10.2407 Y8.6366 
G01 X10.3990 Y8.6681 
G01 X10.5481 Y8.7299 
G01 X10.6823 Y8.8195 
G01 X10.7965 Y8.9337 
G01 X10.8861 Y9.0679 
G01 X10.9479 Y9.2170 
G01 X10.9794 Y9.3753 
G01 X10.9794 Y10.9447 
G01 X10.9479 Y11.1030 
G01 X10.8861 Y11.2521 
G01 X10.7965 Y11.3863 
G01 X10.6823 Y11.5005 
G01 X10.5481 Y11.5901 
G01 X10.3990 Y11.6519 
G01 X10.2407 Y11.6834 
G01 X10.0793 Y11.6834 
G01 X9.9210 Y11.6519 
G01 X9.7719 Y11.5901 
G01 X9.6377 Y11.5005 
G01 X9.5235 Y11.3863 
G01 X9.4339 Y11.2521 
G01 X9.3721 Y11.1030 
G01 X9.3406 Y10.9447 
G01 X9.3406 Y9.3753 
G01 X9.3721 Y9.2170 
G01 X9.4339 Y9.0679 
G01 X9.5235 Y8.9337 
G00 Z2.5400 
G00 X9.6377 Y6.4205 
G01 Z-0.1200 F100.00 
G01 X9.5235 Y6.3063 F230.00 
G01 X9.4339 Y6.1721 
G01 X9.3721 Y6.0230 
G01 X9.3406 Y5.8647 
G01 X9.3406 Y4.2953 
G01 X9.3721 Y4.1370 
G01 X9.4339 Y3.9879 
G01 X9.5235 Y3.8537 
G01 X9.6377 Y3.7395 
G01 X9.7719 Y3.6499 
G01 X9.9210 Y3.5881 
G01 X10.0793 Y3.5566 
G01 X10.2407 Y3.5566 
G01 X10.3990 Y3.5881 
G01 X10.5481 Y3.6499 
G01 X10.6823 Y3.7395 
G01 X10.7965 Y3.8537 
G01 X10.8861 Y3.9879 
G01 X10.9479 Y4.1370 
G01 X10.9794 Y4.2953 
G01 X10.9794 Y5.8647 
G01 X10.9479 Y6.0230 
G01 X10.8861 Y6.1721 
G01 X10.7965 Y6.3063 
G01 X10.6823 Y6.4205 
G01 X10.5481 Y6.5101 
G01 X10.3990 Y6.5719 
G01 X10.2407 Y6.6034 
G01 X10.0793 Y6.6034 
G01 X9.9210 Y6.5719 
G01 X9.7719 Y6.5101 
G01 X9.6377 Y6.4205 
G00 Z2.5400 
G00 X9.6377 Y13.8995 
G01 Z-0.1200 F100.00 
G01 X9.7719 Y13.8099 F230.00 
G01 X9.9210 Y13.7481 
G01 X10.0793 Y13.7166 
G01 X10.2407 Y13.7166 
G01 X10.3990 Y13.7481 
G01 X10.5481 Y13.8099 
G01 X10.6823 Y13.8995 
G01 X10.7965 Y14.0137 
G01 X10.8861 Y14.1479 
G01 X10.9479 Y14.2970 
G01 X10.9794 Y14.4553 
G01 X10.9794 Y16.0247 
G01 X10.9479 Y16.1830 
G01 X10.8861 Y16.3321 
G01 X10.7965 Y16.4663 
G01 X10.6823 Y16.5805 
G01 X10.5481 Y16.6701 
G01 X10.3990 Y16.7319 
G01 X10.2407 Y16.7634 
G01 X10.0793 Y16.7634 
G01 X9.9210 Y16.7319 
G01 X9.7719 Y16.6701 
G01 X9.6377 Y16.5805 
G01 X9.5235 Y16.4663 
G01 X9.4339 Y16.3321 
G01 X9.3721 Y16.1830 
G01 X9.3406 Y16.0247 
G01 X9.3406 Y14.4553 
G01 X9.3721 Y14.2970 
G01 X9.4339 Y14.1479 
G01 X9.5235 Y14.0137 
G01 X9.6377 Y13.8995 
G00 Z2.5400 
G00 X10.4880 Y17.4868 
G01 Z-0.1200 F100.00 
G01 X10.5820 Y17.5120 F230.00 
G01 X10.6662 Y17.5606 
G01 X10.7350 Y17.6294 
G01 X13.0054 Y19.8998 
G01 X13.8246 Y19.8998 
G01 X13.8246 Y19.6970 
G01 X13.8422 Y19.6546 
G01 X13.8746 Y19.6222 
G01 X13.9170 Y19.6046 
G01 X14.7630 Y19.6046 
G01 X14.8054 Y19.6222 
G01 X14.8378 Y19.6546 
G01 X14.8554 Y19.6970 
G01 X14.8554 Y20.9430 
G01 X14.8378 Y20.9854 
G01 X14.8054 Y21.0178 
G01 X14.7630 Y21.0354 
G01 X13.9170 Y21.0354 
G01 X13.8746 Y21.0178 
G01 X13.8422 Y20.9854 
G01 X13.8246 Y20.9430 
G01 X13.8246 Y20.6386 
G01 X12.8038 Y20.6386 
G01 X12.7098 Y20.6134 
G01 X12.6256 Y20.5648 
G01 X10.2864 Y18.2256 
G01 X7.2142 Y18.2256 
G01 X5.8994 Y19.5404 
G01 X5.8994 Y21.1047 
G01 X5.8679 Y21.2630 
G01 X5.8061 Y21.4121 
G01 X5.7165 Y21.5463 
G01 X5.6023 Y21.6605 
G01 X5.4681 Y21.7501 
G01 X5.3190 Y21.8119 
G01 X5.1607 Y21.8434 
G01 X4.9993 Y21.8434 
G01 X4.8410 Y21.8119 
G01 X4.6919 Y21.7501 
G01 X4.5577 Y21.6605 
G01 X4.4435 Y21.5463 
G01 X4.3539 Y21.4121 
G01 X4.2921 Y21.2630 
G01 X4.2606 Y21.1047 
G01 X4.2606 Y19.5353 
G01 X4.2921 Y19.3770 
G01 X4.3539 Y19.2279 
G01 X4.4435 Y19.0937 
G01 X4.5577 Y18.9795 
G01 X4.6919 Y18.8899 
G01 X4.8410 Y18.8281 
G01 X4.9993 Y18.7966 
G01 X5.1607 Y18.7966 
G01 X5.3190 Y18.8281 
G01 X5.4681 Y18.8899 
G01 X5.4903 Y18.9047 
G01 X6.8344 Y17.5606 
G01 X6.9186 Y17.5120 
G01 X7.0126 Y17.4868 
G01 X10.4880 Y17.4868 
G00 Z2.5400 
G00 X10.3990 Y18.8281 
G01 Z-0.1200 F100.00 
G01 X10.5481 Y18.8899 F230.00 
G01 X10.6823 Y18.9795 
G01 X10.7965 Y19.0937 
G01 X10.8861 Y19.2279 
G01 X10.9479 Y19.3770 
G01 X10.9794 Y19.5353 
G01 X10.9794 Y20.7694 
G01 X13.9706 Y23.7606 
G01 X17.6346 Y23.7606 
G01 X17.6346 Y23.5070 
G01 X17.6522 Y23.4646 
G01 X17.6846 Y23.4322 
G01 X17.7270 Y23.4146 
G01 X18.5730 Y23.4146 
G01 X18.6154 Y23.4322 
G01 X18.6478 Y23.4646 
G01 X18.6654 Y23.5070 
G01 X18.6654 Y24.5946 
G01 X19.2792 Y25.2084 
G01 X27.1774 Y25.2084 
G01 X30.3550 Y22.0308 
G01 X30.3199 Y21.9781 
G01 X30.2581 Y21.8290 
G01 X30.2266 Y21.6707 
G01 X30.2266 Y21.5093 
G01 X30.2581 Y21.3510 
G01 X30.3199 Y21.2019 
G01 X30.4095 Y21.0677 
G01 X30.5237 Y20.9535 
G01 X30.6579 Y20.8639 
G01 X30.8070 Y20.8021 
G01 X30.9653 Y20.7706 
G01 X32.5347 Y20.7706 
G01 X32.6930 Y20.8021 
G01 X32.8421 Y20.8639 
G01 X32.9763 Y20.9535 
G01 X33.0905 Y21.0677 
G01 X33.1801 Y21.2019 
G01 X33.2419 Y21.3510 
G01 X33.2734 Y21.5093 
G01 X33.2734 Y21.6707 
G01 X33.2419 Y21.8290 
G01 X33.1801 Y21.9781 
G01 X33.0905 Y22.1123 
G01 X32.9763 Y22.2265 
G01 X32.8421 Y22.3161 
G01 X32.6930 Y22.3779 
G01 X32.5347 Y22.4094 
G01 X31.0212 Y22.4094 
G01 X27.5572 Y25.8734 
G01 X27.4730 Y25.9220 
G01 X27.3790 Y25.9472 
G01 X19.0776 Y25.9472 
G01 X18.9836 Y25.9220 
G01 X18.8994 Y25.8734 
G01 X18.8306 Y25.8046 
G01 X17.8714 Y24.8454 
G01 X17.7270 Y24.8454 
G01 X17.6846 Y24.8278 
G01 X17.6522 Y24.7954 
G01 X17.6346 Y24.7530 
G01 X17.6346 Y24.4994 
G01 X13.7690 Y24.4994 
G01 X13.6750 Y24.4742 
G01 X13.5908 Y24.4256 
G01 X10.7540 Y21.5888 
G01 X10.6823 Y21.6605 
G01 X10.5481 Y21.7501 
G01 X10.3990 Y21.8119 
G01 X10.2407 Y21.8434 
G01 X10.0793 Y21.8434 
G01 X9.9210 Y21.8119 
G01 X9.7719 Y21.7501 
G01 X9.6377 Y21.6605 
G01 X9.5235 Y21.5463 
G01 X9.4339 Y21.4121 
G01 X9.3721 Y21.2630 
G01 X9.3406 Y21.1047 
G01 X9.3406 Y19.5353 
G01 X9.3721 Y19.3770 
G01 X9.4339 Y19.2279 
G01 X9.5235 Y19.0937 
G01 X9.6377 Y18.9795 
G01 X9.7719 Y18.8899 
G01 X9.9210 Y18.8281 
G01 X10.0793 Y18.7966 
G01 X10.2407 Y18.7966 
G01 X10.3990 Y18.8281 
G00 Z2.5400 
G00 X19.4522 Y23.4646 
G01 Z-0.1200 F100.00 
G01 X19.4846 Y23.4322 F230.00 
G01 X19.5270 Y23.4146 
G01 X20.3730 Y23.4146 
G01 X20.4154 Y23.4322 
G01 X20.4478 Y23.4646 
G01 X20.4654 Y23.5070 
G01 X20.4654 Y23.7606 
G01 X22.6811 Y23.7606 
G01 X22.6811 Y23.5611 
G01 X22.7156 Y23.4778 
G01 X22.7793 Y23.4141 
G01 X22.8626 Y23.3796 
G01 X23.6194 Y23.3796 
G01 X23.7027 Y23.4141 
G01 X23.7664 Y23.4778 
G01 X23.8009 Y23.5611 
G01 X23.8009 Y24.6989 
G01 X23.7664 Y24.7822 
G01 X23.7027 Y24.8459 
G01 X23.6194 Y24.8804 
G01 X22.8626 Y24.8804 
G01 X22.7793 Y24.8459 
G01 X22.7156 Y24.7822 
G01 X22.6811 Y24.6989 
G01 X22.6811 Y24.4994 
G01 X20.4654 Y24.4994 
G01 X20.4654 Y24.7530 
G01 X20.4478 Y24.7954 
G01 X20.4154 Y24.8278 
G01 X20.3730 Y24.8454 
G01 X19.5270 Y24.8454 
G01 X19.4846 Y24.8278 
G01 X19.4522 Y24.7954 
G01 X19.4346 Y24.7530 
G01 X19.4346 Y23.5070 
G01 X19.4522 Y23.4646 
G00 Z2.5400 
G00 X30.4095 Y23.6077 
G01 Z-0.1200 F100.00 
G01 X30.5237 Y23.4935 F230.00 
G01 X30.6579 Y23.4039 
G01 X30.8070 Y23.3421 
G01 X30.9653 Y23.3106 
G01 X32.5347 Y23.3106 
G01 X32.6930 Y23.3421 
G01 X32.8421 Y23.4039 
G01 X32.9763 Y23.4935 
G01 X33.0905 Y23.6077 
G01 X33.1801 Y23.7419 
G01 X33.2419 Y23.8910 
G01 X33.2734 Y24.0493 
G01 X33.2734 Y24.2107 
G01 X33.2419 Y24.3690 
G01 X33.1801 Y24.5181 
G01 X33.0905 Y24.6523 
G01 X32.9763 Y24.7665 
G01 X32.8421 Y24.8561 
G01 X32.6930 Y24.9179 
G01 X32.5347 Y24.9494 
G01 X30.9653 Y24.9494 
G01 X30.8070 Y24.9179 
G01 X30.6579 Y24.8561 
G01 X30.5237 Y24.7665 
G01 X30.4095 Y24.6523 
G01 X30.3199 Y24.5181 
G01 X30.2581 Y24.3690 
G01 X30.2266 Y24.2107 
G01 X30.2266 Y24.0493 
G01 X30.2581 Y23.8910 
G01 X30.3199 Y23.7419 
G01 X30.4095 Y23.6077 
G00 Z2.5400 
G00 X27.6568 Y7.3044 
G01 Z-0.1200 F100.00 
G01 X27.6244 Y7.3368 F230.00 
G01 X27.5820 Y7.3544 
G01 X25.7580 Y7.3544 
G01 X25.7156 Y7.3368 
G01 X25.6832 Y7.3044 
G01 X25.6656 Y7.2620 
G01 X25.6656 Y5.4380 
G01 X25.6832 Y5.3956 
G01 X25.7156 Y5.3632 
G01 X25.7580 Y5.3456 
G01 X27.5820 Y5.3456 
G01 X27.6244 Y5.3632 
G01 X27.6568 Y5.3956 
G01 X27.6744 Y5.4380 
G01 X27.6744 Y7.2620 
G01 X27.6568 Y7.3044 
G00 Z2.5400 
G00 X25.1344 Y6.7660 
G01 Z-0.1200 F100.00 
G01 X24.5460 Y7.3544 F230.00 
G01 X23.7140 Y7.3544 
G01 X23.1256 Y6.7660 
G01 X23.1256 Y5.9340 
G01 X23.7140 Y5.3456 
G01 X24.5460 Y5.3456 
G01 X25.1344 Y5.9340 
G01 X25.1344 Y6.7660 
G00 Z2.5400 
G00 X25.1344 Y8.4740 
G01 Z-0.1200 F100.00 
G01 X25.1344 Y9.3060 F230.00 
G01 X24.5460 Y9.8944 
G01 X23.7140 Y9.8944 
G01 X23.1256 Y9.3060 
G01 X23.1256 Y8.4740 
G01 X23.7140 Y7.8856 
G01 X24.5460 Y7.8856 
G01 X25.1344 Y8.4740 
G00 Z2.5400 
G00 X22.5944 Y8.4740 
G01 Z-0.1200 F100.00 
G01 X22.5944 Y9.3060 F230.00 
G01 X22.0060 Y9.8944 
G01 X21.1740 Y9.8944 
G01 X20.5856 Y9.3060 
G01 X20.5856 Y8.4740 
G01 X21.1740 Y7.8856 
G01 X22.0060 Y7.8856 
G01 X22.5944 Y8.4740 
G00 Z2.5400 
G00 X20.0544 Y6.7660 
G01 Z-0.1200 F100.00 
G01 X19.4660 Y7.3544 F230.00 
G01 X18.6340 Y7.3544 
G01 X18.0456 Y6.7660 
G01 X18.0456 Y5.9340 
G01 X18.6340 Y5.3456 
G01 X19.4660 Y5.3456 
G01 X20.0544 Y5.9340 
G01 X20.0544 Y6.7660 
G00 Z2.5400 
G00 X1.8276 Y4.9958 
G01 Z-0.1200 F100.00 
G01 X5.6884 Y1.1350 F230.00 
G01 X5.7832 Y1.0402 
G01 X5.8994 Y0.9731 
G01 X6.0289 Y0.9384 
G01 X24.9845 Y0.9384 
G01 X25.1140 Y0.9731 
G01 X25.2302 Y1.0402 
G01 X28.6084 Y4.4184 
G01 X28.7032 Y4.5132 
G01 X28.7703 Y4.6294 
G01 X28.8050 Y4.7589 
G01 X28.8050 Y7.7887 
G01 X28.7703 Y7.9182 
G01 X28.7032 Y8.0344 
G01 X28.6084 Y8.1292 
G01 X27.8144 Y8.9232 
G01 X27.8144 Y9.3640 
G01 X27.1440 Y10.0344 
G01 X26.2206 Y10.0344 
G01 X18.9564 Y17.2986 
G01 X18.8402 Y17.3657 
G01 X18.7107 Y17.4004 
G01 X15.6809 Y17.4004 
G01 X15.5514 Y17.3657 
G01 X15.4352 Y17.2986 
G01 X15.3404 Y17.2038 
G01 X14.2320 Y16.0954 
G01 X13.9064 Y16.0954 
G01 X13.8414 Y16.0780 
G01 X13.7832 Y16.0444 
G01 X13.7356 Y15.9968 
G01 X13.7020 Y15.9386 
G01 X13.6846 Y15.8736 
G01 X13.6846 Y14.6064 
G01 X13.7020 Y14.5414 
G01 X13.7232 Y14.5048 
G01 X13.5460 Y14.5048 
G01 X13.3618 Y14.6890 
G01 X13.3618 Y15.7148 
G01 X16.1556 Y18.5086 
G01 X16.2227 Y18.6248 
G01 X16.2574 Y18.7543 
G01 X16.2574 Y19.4646 
G01 X16.5736 Y19.4646 
G01 X16.6386 Y19.4820 
G01 X16.6968 Y19.5156 
G01 X16.7444 Y19.5632 
G01 X16.7780 Y19.6214 
G01 X16.7954 Y19.6864 
G01 X16.7954 Y20.2424 
G01 X22.0889 Y20.2424 
G01 X22.2184 Y20.2771 
G01 X22.3346 Y20.3442 
G01 X25.2300 Y23.2396 
G01 X25.4006 Y23.2396 
G01 X25.4938 Y23.2646 
G01 X25.5774 Y23.3128 
G01 X25.6457 Y23.3811 
G01 X25.6939 Y23.4646 
G01 X25.7189 Y23.5579 
G01 X25.7189 Y23.7285 
G01 X25.8076 Y23.8172 
G01 X25.8747 Y23.9334 
G01 X25.9094 Y24.0629 
G01 X25.9094 Y24.1971 
G01 X25.8747 Y24.3266 
G01 X25.8076 Y24.4428 
G01 X25.7189 Y24.5315 
G01 X25.7189 Y24.7021 
G01 X25.6939 Y24.7953 
G01 X25.6457 Y24.8789 
G01 X25.5774 Y24.9472 
G01 X25.4938 Y24.9954 
G01 X25.4006 Y25.0204 
G01 X24.6374 Y25.0204 
G01 X24.5441 Y24.9954 
G01 X24.4606 Y24.9472 
G01 X24.3923 Y24.8789 
G01 X24.3441 Y24.7953 
G01 X24.3191 Y24.7021 
G01 X24.3191 Y23.7695 
G01 X21.8108 Y21.2612 
G01 X16.2835 Y21.2612 
G01 X16.2696 Y21.2641 
G01 X16.2166 Y21.2612 
G01 X16.1635 Y21.2612 
G01 X16.1498 Y21.2575 
G01 X16.1356 Y21.2567 
G01 X16.0852 Y21.2402 
G01 X16.0340 Y21.2265 
G01 X16.0217 Y21.2194 
G01 X16.0082 Y21.2150 
G01 X15.9638 Y21.1860 
G01 X15.9455 Y21.1754 
G01 X15.7064 Y21.1754 
G01 X15.6414 Y21.1580 
G01 X15.5832 Y21.1244 
G01 X15.5356 Y21.0768 
G01 X15.5020 Y21.0186 
G01 X15.4846 Y20.9536 
G01 X15.4846 Y20.7090 
G01 X15.4648 Y20.6939 
G01 X15.4352 Y20.6768 
G01 X15.4118 Y20.6534 
G01 X15.3854 Y20.6332 
G01 X15.3646 Y20.6062 
G01 X15.3404 Y20.5820 
G01 X15.3238 Y20.5533 
G01 X15.3036 Y20.5270 
G01 X15.2904 Y20.4954 
G01 X15.2733 Y20.4658 
G01 X15.2647 Y20.4338 
G01 X15.2520 Y20.4032 
G01 X15.2475 Y20.3693 
G01 X15.2386 Y20.3363 
G01 X15.2386 Y20.3031 
G01 X15.2342 Y20.2702 
G01 X15.2386 Y20.2363 
G01 X15.2386 Y19.0324 
G01 X12.5396 Y16.3334 
G01 X12.4448 Y16.2386 
G01 X12.3777 Y16.1224 
G01 X12.3430 Y15.9929 
G01 X12.3430 Y14.6890 
G01 X11.1936 Y13.5396 
G01 X9.8897 Y13.5396 
G01 X9.7602 Y13.5049 
G01 X9.6440 Y13.4378 
G01 X9.5492 Y13.3430 
G01 X7.9655 Y11.7593 
G01 X7.8998 Y11.7865 
G01 X7.7145 Y11.8234 
G01 X7.5255 Y11.8234 
G01 X7.3402 Y11.7865 
G01 X7.1667 Y11.7147 
G01 X6.0925 Y12.7889 
G01 X7.0599 Y13.7564 
G01 X7.1656 Y13.6858 
G01 X7.3402 Y13.6135 
G01 X7.5255 Y13.5766 
G01 X7.7145 Y13.5766 
G01 X7.8998 Y13.6135 
G01 X8.0744 Y13.6858 
G01 X8.2316 Y13.7908 
G01 X8.3652 Y13.9244 
G01 X8.4702 Y14.0816 
G01 X8.5425 Y14.2561 
G01 X8.5794 Y14.4415 
G01 X8.5794 Y16.0385 
G01 X8.5425 Y16.2238 
G01 X8.4702 Y16.3984 
G01 X8.3652 Y16.5556 
G01 X8.2316 Y16.6892 
G01 X8.0744 Y16.7942 
G01 X7.8998 Y16.8665 
G01 X7.7145 Y16.9034 
G01 X7.5255 Y16.9034 
G01 X7.3402 Y16.8665 
G01 X7.1656 Y16.7942 
G01 X7.0143 Y16.6931 
G01 X5.9262 Y17.7812 
G01 X5.8100 Y17.8483 
G01 X5.6805 Y17.8830 
G01 X5.3418 Y17.8830 
G01 X3.7098 Y19.5150 
G01 X3.7098 Y21.0234 
G01 X4.8592 Y22.1728 
G01 X5.4024 Y22.1728 
G01 X6.6606 Y20.9146 
G01 X6.6606 Y19.5215 
G01 X6.6975 Y19.3361 
G01 X6.7698 Y19.1616 
G01 X6.8748 Y19.0044 
G01 X7.0084 Y18.8708 
G01 X7.1656 Y18.7658 
G01 X7.3402 Y18.6935 
G01 X7.5255 Y18.6566 
G01 X7.7145 Y18.6566 
G01 X7.8998 Y18.6935 
G01 X8.0744 Y18.7658 
G01 X8.2316 Y18.8708 
G01 X8.3652 Y19.0044 
G01 X8.4702 Y19.1616 
G01 X8.5425 Y19.3361 
G01 X8.5794 Y19.5215 
G01 X8.5794 Y21.1185 
G01 X8.5425 Y21.3038 
G01 X8.4702 Y21.4784 
G01 X8.3652 Y21.6356 
G01 X8.2316 Y21.7692 
G01 X8.0744 Y21.8742 
G01 X7.8998 Y21.9465 
G01 X7.7145 Y21.9834 
G01 X7.5255 Y21.9834 
G01 X7.3402 Y21.9465 
G01 X7.1656 Y21.8742 
G01 X7.1513 Y21.8647 
G01 X6.0210 Y22.9950 
G01 X5.9262 Y23.0898 
G01 X5.8100 Y23.1569 
G01 X5.6805 Y23.1916 
G01 X4.5811 Y23.1916 
G01 X4.4516 Y23.1569 
G01 X4.3354 Y23.0898 
G01 X2.8876 Y21.6420 
G01 X2.7928 Y21.5472 
G01 X2.7257 Y21.4310 
G01 X2.6910 Y21.3015 
G01 X2.6910 Y19.2369 
G01 X2.7257 Y19.1074 
G01 X2.7928 Y18.9912 
G01 X4.7232 Y17.0608 
G01 X4.8180 Y16.9660 
G01 X4.9342 Y16.8989 
G01 X4.9464 Y16.8956 
G01 X4.8002 Y16.8665 
G01 X4.6256 Y16.7942 
G01 X4.4684 Y16.6892 
G01 X4.3348 Y16.5556 
G01 X4.2298 Y16.3984 
G01 X4.1575 Y16.2238 
G01 X4.1206 Y16.0385 
G01 X4.1206 Y14.4415 
G01 X4.1388 Y14.3500 
G01 X4.1388 Y14.2064 
G01 X1.9224 Y11.9900 
G01 X1.8276 Y11.8952 
G01 X1.7605 Y11.7790 
G01 X1.7258 Y11.6495 
G01 X1.7258 Y5.2415 
G01 X1.7605 Y5.1120 
G01 X1.8276 Y4.9958 
G00 Z2.5400 
G00 X2.7446 Y5.5196 
G01 Z-0.1200 F100.00 
G01 X2.7446 Y8.9401 F230.00 
G01 X2.7928 Y8.8566 
G01 X2.8876 Y8.7618 
G01 X4.3354 Y7.3140 
G01 X4.4516 Y7.2469 
G01 X4.5811 Y7.2122 
G01 X4.9198 Y7.2122 
G01 X5.4719 Y6.6601 
G01 X5.3598 Y6.7065 
G01 X5.1745 Y6.7434 
G01 X4.9855 Y6.7434 
G01 X4.8002 Y6.7065 
G01 X4.6256 Y6.6342 
G01 X4.4684 Y6.5292 
G01 X4.3348 Y6.3956 
G01 X4.2298 Y6.2384 
G01 X4.1575 Y6.0638 
G01 X4.1206 Y5.8785 
G01 X4.1206 Y4.2815 
G01 X4.1548 Y4.1094 
G01 X2.7446 Y5.5196 
G00 Z2.5400 
G00 X6.0394 Y5.8785 
G01 Z-0.1200 F100.00 
G01 X6.0025 Y6.0638 F230.00 
G01 X5.9561 Y6.1759 
G01 X6.6606 Y5.4714 
G01 X6.6606 Y4.2815 
G01 X6.6975 Y4.0961 
G01 X6.7698 Y3.9216 
G01 X6.7983 Y3.8789 
G01 X6.0394 Y4.6378 
G01 X6.0394 Y5.8785 
G00 Z2.5400 
G00 X7.0295 Y6.5433 
G01 Z-0.1200 F100.00 
G01 X5.5384 Y8.0344 F230.00 
G01 X5.4436 Y8.1292 
G01 X5.3274 Y8.1963 
G01 X5.1979 Y8.2310 
G01 X4.8592 Y8.2310 
G01 X3.7098 Y9.3804 
G01 X3.7098 Y10.8888 
G01 X4.8592 Y12.0382 
G01 X5.4024 Y12.0382 
G01 X6.6606 Y10.7800 
G01 X6.6606 Y9.3615 
G01 X6.6975 Y9.1761 
G01 X6.7698 Y9.0016 
G01 X6.8748 Y8.8444 
G01 X7.0084 Y8.7108 
G01 X7.1656 Y8.6058 
G01 X7.3402 Y8.5335 
G01 X7.5255 Y8.4966 
G01 X7.7145 Y8.4966 
G01 X7.8998 Y8.5335 
G01 X8.0744 Y8.6058 
G01 X8.2316 Y8.7108 
G01 X8.3652 Y8.8444 
G01 X8.4702 Y9.0016 
G01 X8.5425 Y9.1761 
G01 X8.5794 Y9.3615 
G01 X8.5794 Y10.9324 
G01 X10.1678 Y12.5208 
G01 X11.4717 Y12.5208 
G01 X11.6012 Y12.5555 
G01 X11.7174 Y12.6226 
G01 X12.8524 Y13.7576 
G01 X12.9274 Y13.6826 
G01 X13.0222 Y13.5878 
G01 X13.1384 Y13.5207 
G01 X13.2679 Y13.4860 
G01 X15.7212 Y13.4860 
G01 X15.7212 Y10.4454 
G01 X14.6064 Y10.4454 
G01 X14.5414 Y10.4280 
G01 X14.4832 Y10.3944 
G01 X14.4356 Y10.3468 
G01 X14.4020 Y10.2886 
G01 X14.3846 Y10.2236 
G01 X14.3846 Y9.3564 
G01 X14.4020 Y9.2914 
G01 X14.4356 Y9.2332 
G01 X14.4832 Y9.1856 
G01 X14.5414 Y9.1520 
G01 X14.6064 Y9.1346 
G01 X15.8736 Y9.1346 
G01 X15.9035 Y9.1426 
G01 X17.9056 Y9.1426 
G01 X17.9056 Y8.6692 
G01 X15.8230 Y6.5866 
G01 X15.7559 Y6.4704 
G01 X15.7212 Y6.3409 
G01 X15.7212 Y4.6654 
G01 X15.7064 Y4.6654 
G01 X15.6414 Y4.6480 
G01 X15.5832 Y4.6144 
G01 X15.5356 Y4.5668 
G01 X15.5020 Y4.5086 
G01 X15.4846 Y4.4436 
G01 X15.4846 Y3.1764 
G01 X15.5020 Y3.1114 
G01 X15.5356 Y3.0532 
G01 X15.5832 Y3.0056 
G01 X15.6414 Y2.9720 
G01 X15.7064 Y2.9546 
G01 X16.5736 Y2.9546 
G01 X16.6386 Y2.9720 
G01 X16.6968 Y3.0056 
G01 X16.7444 Y3.0532 
G01 X16.7780 Y3.1114 
G01 X16.7954 Y3.1764 
G01 X16.7954 Y4.4436 
G01 X16.7780 Y4.5086 
G01 X16.7444 Y4.5668 
G01 X16.7400 Y4.5712 
G01 X16.7400 Y6.0628 
G01 X18.4994 Y7.8222 
G01 X18.5760 Y7.7456 
G01 X19.5240 Y7.7456 
G01 X20.1944 Y8.4160 
G01 X20.1944 Y9.3640 
G01 X19.5240 Y10.0344 
G01 X18.5760 Y10.0344 
G01 X18.5375 Y9.9959 
G01 X18.4738 Y10.0596 
G01 X18.3576 Y10.1267 
G01 X18.2281 Y10.1614 
G01 X16.7400 Y10.1614 
G01 X16.7400 Y14.4788 
G01 X16.7444 Y14.4832 
G01 X16.7780 Y14.5414 
G01 X16.7954 Y14.6064 
G01 X16.7954 Y15.8736 
G01 X16.7780 Y15.9386 
G01 X16.7444 Y15.9968 
G01 X16.6968 Y16.0444 
G01 X16.6386 Y16.0780 
G01 X16.5736 Y16.0954 
G01 X15.7064 Y16.0954 
G01 X15.6605 Y16.0831 
G01 X15.9590 Y16.3816 
G01 X18.4326 Y16.3816 
G01 X25.5256 Y9.2886 
G01 X25.5256 Y8.4160 
G01 X26.1960 Y7.7456 
G01 X27.1440 Y7.7456 
G01 X27.3476 Y7.9492 
G01 X27.7862 Y7.5106 
G01 X27.7862 Y7.3563 
G01 X27.7634 Y7.3958 
G01 X27.7158 Y7.4434 
G01 X27.6576 Y7.4770 
G01 X27.5926 Y7.4944 
G01 X25.7474 Y7.4944 
G01 X25.6824 Y7.4770 
G01 X25.6242 Y7.4434 
G01 X25.5766 Y7.3958 
G01 X25.5430 Y7.3376 
G01 X25.5256 Y7.2726 
G01 X25.5256 Y5.4274 
G01 X25.5430 Y5.3624 
G01 X25.5766 Y5.3042 
G01 X25.6242 Y5.2566 
G01 X25.6824 Y5.2230 
G01 X25.7474 Y5.2056 
G01 X27.5926 Y5.2056 
G01 X27.6576 Y5.2230 
G01 X27.7158 Y5.2566 
G01 X27.7634 Y5.3042 
G01 X27.7862 Y5.3437 
G01 X27.7862 Y5.0370 
G01 X24.7064 Y1.9572 
G01 X17.9077 Y1.9572 
G01 X17.9912 Y2.0054 
G01 X21.1914 Y5.2056 
G01 X22.0640 Y5.2056 
G01 X22.7344 Y5.8760 
G01 X22.7344 Y6.8240 
G01 X22.0640 Y7.4944 
G01 X21.1160 Y7.4944 
G01 X20.4456 Y6.8240 
G01 X20.4456 Y5.9006 
G01 X17.4674 Y2.9224 
G01 X15.4764 Y2.9224 
G01 X15.1904 Y3.2084 
G01 X15.0956 Y3.3032 
G01 X14.9954 Y3.4034 
G01 X14.9954 Y4.4436 
G01 X14.9780 Y4.5086 
G01 X14.9444 Y4.5668 
G01 X14.8968 Y4.6144 
G01 X14.8386 Y4.6480 
G01 X14.7736 Y4.6654 
G01 X13.9064 Y4.6654 
G01 X13.8414 Y4.6480 
G01 X13.7832 Y4.6144 
G01 X13.7356 Y4.5668 
G01 X13.7020 Y4.5086 
G01 X13.6846 Y4.4436 
G01 X13.6846 Y3.4050 
G01 X7.2722 Y3.4050 
G01 X7.1229 Y3.5543 
G01 X7.1656 Y3.5258 
G01 X7.3402 Y3.4535 
G01 X7.5255 Y3.4166 
G01 X7.7145 Y3.4166 
G01 X7.8998 Y3.4535 
G01 X8.0744 Y3.5258 
G01 X8.2316 Y3.6308 
G01 X8.3652 Y3.7644 
G01 X8.4702 Y3.9216 
G01 X8.5425 Y4.0961 
G01 X8.5794 Y4.2815 
G01 X8.5794 Y5.8785 
G01 X8.5425 Y6.0638 
G01 X8.4702 Y6.2384 
G01 X8.3652 Y6.3956 
G01 X8.2316 Y6.5292 
G01 X8.0744 Y6.6342 
G01 X7.8998 Y6.7065 
G01 X7.7145 Y6.7434 
G01 X7.5255 Y6.7434 
G01 X7.3402 Y6.7065 
G01 X7.1656 Y6.6342 
G01 X7.0295 Y6.5433 
G00 Z2.5400 
G00 X6.9941 Y7.2122 
G01 Z-0.1200 F100.00 
G01 X14.7176 Y7.2122 F230.00 
G01 X14.7846 Y7.2122 
G01 X14.8499 Y7.2122 
G01 X14.8536 Y7.2127 
G01 X14.9164 Y7.2300 
G01 X14.9794 Y7.2469 
G01 X14.9829 Y7.2484 
G01 X15.0390 Y7.2813 
G01 X15.0956 Y7.3140 
G01 X15.1298 Y7.3346 
G01 X15.8736 Y7.3346 
G01 X15.9386 Y7.3520 
G01 X15.9968 Y7.3856 
G01 X16.0444 Y7.4332 
G01 X16.0780 Y7.4914 
G01 X16.0954 Y7.5564 
G01 X16.0954 Y8.4236 
G01 X16.0780 Y8.4886 
G01 X16.0444 Y8.5468 
G01 X15.9968 Y8.5944 
G01 X15.9386 Y8.6280 
G01 X15.8736 Y8.6454 
G01 X14.6064 Y8.6454 
G01 X14.5414 Y8.6280 
G01 X14.4832 Y8.5944 
G01 X14.4356 Y8.5468 
G01 X14.4020 Y8.4886 
G01 X14.3846 Y8.4236 
G01 X14.3846 Y8.2310 
G01 X7.2722 Y8.2310 
G01 X6.0394 Y9.4638 
G01 X6.0394 Y10.9585 
G01 X6.0025 Y11.1438 
G01 X5.9302 Y11.3184 
G01 X5.8252 Y11.4756 
G01 X5.6916 Y11.6092 
G01 X5.5344 Y11.7142 
G01 X5.3598 Y11.7865 
G01 X5.1745 Y11.8234 
G01 X4.9855 Y11.8234 
G01 X4.8002 Y11.7865 
G01 X4.6256 Y11.7142 
G01 X4.4684 Y11.6092 
G01 X4.3348 Y11.4756 
G01 X4.2298 Y11.3184 
G01 X4.1575 Y11.1438 
G01 X4.1206 Y10.9585 
G01 X4.1206 Y9.3615 
G01 X4.1575 Y9.1761 
G01 X4.2298 Y9.0016 
G01 X4.3348 Y8.8444 
G01 X4.4684 Y8.7108 
G01 X4.6256 Y8.6058 
G01 X4.8002 Y8.5335 
G01 X4.9855 Y8.4966 
G01 X5.1745 Y8.4966 
G01 X5.3598 Y8.5335 
G01 X5.4794 Y8.5830 
G01 X6.7484 Y7.3140 
G01 X6.8646 Y7.2469 
G01 X6.9941 Y7.2122 
G00 Z2.5400 
G00 X9.5484 Y6.5292 
G01 Z-0.1200 F100.00 
G01 X9.4148 Y6.3956 F230.00 
G01 X9.3098 Y6.2384 
G01 X9.2375 Y6.0638 
G01 X9.2006 Y5.8785 
G01 X9.2006 Y4.2815 
G01 X9.2375 Y4.0961 
G01 X9.3098 Y3.9216 
G01 X9.4148 Y3.7644 
G01 X9.5484 Y3.6308 
G01 X9.7056 Y3.5258 
G01 X9.8802 Y3.4535 
G01 X10.0655 Y3.4166 
G01 X10.2545 Y3.4166 
G01 X10.4398 Y3.4535 
G01 X10.6144 Y3.5258 
G01 X10.7716 Y3.6308 
G01 X10.9052 Y3.7644 
G01 X11.0102 Y3.9216 
G01 X11.0825 Y4.0961 
G01 X11.1194 Y4.2815 
G01 X11.1194 Y5.8785 
G01 X11.0825 Y6.0638 
G01 X11.0102 Y6.2384 
G01 X10.9052 Y6.3956 
G01 X10.7716 Y6.5292 
G01 X10.6144 Y6.6342 
G01 X10.4398 Y6.7065 
G01 X10.2545 Y6.7434 
G01 X10.0655 Y6.7434 
G01 X9.8802 Y6.7065 
G01 X9.7056 Y6.6342 
G01 X9.5484 Y6.5292 
G00 Z2.5400 
G00 X9.5484 Y8.7108 
G01 Z-0.1200 F100.00 
G01 X9.7056 Y8.6058 F230.00 
G01 X9.8802 Y8.5335 
G01 X10.0655 Y8.4966 
G01 X10.2545 Y8.4966 
G01 X10.4398 Y8.5335 
G01 X10.6144 Y8.6058 
G01 X10.7716 Y8.7108 
G01 X10.9052 Y8.8444 
G01 X11.0102 Y9.0016 
G01 X11.0825 Y9.1761 
G01 X11.1194 Y9.3615 
G01 X11.1194 Y10.9585 
G01 X11.0825 Y11.1438 
G01 X11.0102 Y11.3184 
G01 X10.9052 Y11.4756 
G01 X10.7716 Y11.6092 
G01 X10.6144 Y11.7142 
G01 X10.4398 Y11.7865 
G01 X10.2545 Y11.8234 
G01 X10.0655 Y11.8234 
G01 X9.8802 Y11.7865 
G01 X9.7056 Y11.7142 
G01 X9.5484 Y11.6092 
G01 X9.4148 Y11.4756 
G01 X9.3098 Y11.3184 
G01 X9.2375 Y11.1438 
G01 X9.2006 Y10.9585 
G01 X9.2006 Y9.3615 
G01 X9.2375 Y9.1761 
G01 X9.3098 Y9.0016 
G01 X9.4148 Y8.8444 
G01 X9.5484 Y8.7108 
G00 Z2.5400 
G00 X9.5484 Y13.7908 
G01 Z-0.1200 F100.00 
G01 X9.7056 Y13.6858 F230.00 
G01 X9.8802 Y13.6135 
G01 X10.0655 Y13.5766 
G01 X10.2545 Y13.5766 
G01 X10.4398 Y13.6135 
G01 X10.6144 Y13.6858 
G01 X10.7716 Y13.7908 
G01 X10.9052 Y13.9244 
G01 X11.0102 Y14.0816 
G01 X11.0825 Y14.2561 
G01 X11.1194 Y14.4415 
G01 X11.1194 Y16.0385 
G01 X11.0825 Y16.2238 
G01 X11.0102 Y16.3984 
G01 X10.9052 Y16.5556 
G01 X10.7716 Y16.6892 
G01 X10.6144 Y16.7942 
G01 X10.4398 Y16.8665 
G01 X10.2545 Y16.9034 
G01 X10.0655 Y16.9034 
G01 X9.8802 Y16.8665 
G01 X9.7056 Y16.7942 
G01 X9.5484 Y16.6892 
G01 X9.4148 Y16.5556 
G01 X9.3098 Y16.3984 
G01 X9.2375 Y16.2238 
G01 X9.2006 Y16.0385 
G01 X9.2006 Y14.4415 
G01 X9.2375 Y14.2561 
G01 X9.3098 Y14.0816 
G01 X9.4148 Y13.9244 
G01 X9.5484 Y13.7908 
G00 Z2.5400 
G00 X5.9017 Y14.0389 
G01 Z-0.1200 F100.00 
G01 X5.9302 Y14.0816 F230.00 
G01 X6.0025 Y14.2561 
G01 X6.0394 Y14.4415 
G01 X6.0394 Y16.0385 
G01 X6.0025 Y16.2238 
G01 X5.9741 Y16.2925 
G01 X6.6606 Y15.6060 
G01 X6.6606 Y14.7978 
G01 X5.9017 Y14.0389 
G00 Z2.5400 
G00 X5.5771 Y13.7143 
G01 Z-0.1200 F100.00 
G01 X4.9198 Y13.0570 F230.00 
G01 X4.5811 Y13.0570 
G01 X4.4516 Y13.0223 
G01 X4.3354 Y12.9552 
G01 X4.2406 Y12.8604 
G01 X2.7928 Y11.4126 
G01 X2.7446 Y11.3291 
G01 X2.7446 Y11.3714 
G01 X4.9557 Y13.5825 
G01 X4.9855 Y13.5766 
G01 X5.1745 Y13.5766 
G01 X5.3598 Y13.6135 
G01 X5.5344 Y13.6858 
G01 X5.5771 Y13.7143 
G00 Z2.5400 
G00 X5.4285 Y16.8381 
G01 Z-0.1200 F100.00 
G01 X5.3655 Y16.8642 F230.00 
G01 X5.4024 Y16.8642 
G01 X5.4285 Y16.8381 
G00 Z2.5400 
G00 X5.3598 Y18.6935 
G01 Z-0.1200 F100.00 
G01 X5.4614 Y18.7356 F230.00 
G01 X6.7484 Y17.4486 
G01 X6.8646 Y17.3815 
G01 X6.9941 Y17.3468 
G01 X10.5065 Y17.3468 
G01 X10.6360 Y17.3815 
G01 X10.7522 Y17.4486 
G01 X10.8470 Y17.5434 
G01 X13.0634 Y19.7598 
G01 X13.6846 Y19.7598 
G01 X13.6846 Y19.6864 
G01 X13.7020 Y19.6214 
G01 X13.7356 Y19.5632 
G01 X13.7832 Y19.5156 
G01 X13.8414 Y19.4820 
G01 X13.9064 Y19.4646 
G01 X14.7736 Y19.4646 
G01 X14.8386 Y19.4820 
G01 X14.8968 Y19.5156 
G01 X14.9444 Y19.5632 
G01 X14.9780 Y19.6214 
G01 X14.9954 Y19.6864 
G01 X14.9954 Y20.9536 
G01 X14.9780 Y21.0186 
G01 X14.9444 Y21.0768 
G01 X14.8968 Y21.1244 
G01 X14.8386 Y21.1580 
G01 X14.7736 Y21.1754 
G01 X13.9064 Y21.1754 
G01 X13.8414 Y21.1580 
G01 X13.7832 Y21.1244 
G01 X13.7356 Y21.0768 
G01 X13.7020 Y21.0186 
G01 X13.6846 Y20.9536 
G01 X13.6846 Y20.7786 
G01 X12.7853 Y20.7786 
G01 X12.6558 Y20.7439 
G01 X12.5396 Y20.6768 
G01 X10.9817 Y19.1189 
G01 X11.0102 Y19.1616 
G01 X11.0825 Y19.3361 
G01 X11.1194 Y19.5215 
G01 X11.1194 Y20.7114 
G01 X14.0286 Y23.6206 
G01 X17.4946 Y23.6206 
G01 X17.4946 Y23.4964 
G01 X17.5120 Y23.4314 
G01 X17.5456 Y23.3732 
G01 X17.5932 Y23.3256 
G01 X17.6514 Y23.2920 
G01 X17.7164 Y23.2746 
G01 X18.5836 Y23.2746 
G01 X18.6486 Y23.2920 
G01 X18.7068 Y23.3256 
G01 X18.7544 Y23.3732 
G01 X18.7880 Y23.4314 
G01 X18.8054 Y23.4964 
G01 X18.8054 Y24.5366 
G01 X19.3372 Y25.0684 
G01 X27.1194 Y25.0684 
G01 X30.1804 Y22.0074 
G01 X30.1235 Y21.8698 
G01 X30.0866 Y21.6845 
G01 X30.0866 Y21.4955 
G01 X30.1235 Y21.3102 
G01 X30.1958 Y21.1356 
G01 X30.3008 Y20.9784 
G01 X30.4344 Y20.8448 
G01 X30.5916 Y20.7398 
G01 X30.7661 Y20.6675 
G01 X30.9515 Y20.6306 
G01 X32.5485 Y20.6306 
G01 X32.7338 Y20.6675 
G01 X32.9084 Y20.7398 
G01 X33.0656 Y20.8448 
G01 X33.1992 Y20.9784 
G01 X33.3042 Y21.1356 
G01 X33.3765 Y21.3102 
G01 X33.4134 Y21.4955 
G01 X33.4134 Y21.6845 
G01 X33.3765 Y21.8698 
G01 X33.3042 Y22.0444 
G01 X33.1992 Y22.2016 
G01 X33.0656 Y22.3352 
G01 X32.9084 Y22.4402 
G01 X32.7338 Y22.5125 
G01 X32.5485 Y22.5494 
G01 X31.0792 Y22.5494 
G01 X27.6432 Y25.9854 
G01 X27.5270 Y26.0525 
G01 X27.3975 Y26.0872 
G01 X19.0591 Y26.0872 
G01 X18.9296 Y26.0525 
G01 X18.8134 Y25.9854 
G01 X18.7186 Y25.8906 
G01 X17.8134 Y24.9854 
G01 X17.7164 Y24.9854 
G01 X17.6514 Y24.9680 
G01 X17.5932 Y24.9344 
G01 X17.5456 Y24.8868 
G01 X17.5120 Y24.8286 
G01 X17.4946 Y24.7636 
G01 X17.4946 Y24.6394 
G01 X13.7505 Y24.6394 
G01 X13.6210 Y24.6047 
G01 X13.5048 Y24.5376 
G01 X10.7505 Y21.7833 
G01 X10.6144 Y21.8742 
G01 X10.4398 Y21.9465 
G01 X10.2545 Y21.9834 
G01 X10.0655 Y21.9834 
G01 X9.8802 Y21.9465 
G01 X9.7056 Y21.8742 
G01 X9.5484 Y21.7692 
G01 X9.4148 Y21.6356 
G01 X9.3098 Y21.4784 
G01 X9.2375 Y21.3038 
G01 X9.2006 Y21.1185 
G01 X9.2006 Y19.5215 
G01 X9.2375 Y19.3361 
G01 X9.3098 Y19.1616 
G01 X9.4148 Y19.0044 
G01 X9.5484 Y18.8708 
G01 X9.7056 Y18.7658 
G01 X9.8802 Y18.6935 
G01 X10.0655 Y18.6566 
G01 X10.2545 Y18.6566 
G01 X10.4398 Y18.6935 
G01 X10.6144 Y18.7658 
G01 X10.6571 Y18.7943 
G01 X10.2284 Y18.3656 
G01 X7.2722 Y18.3656 
G01 X6.0394 Y19.5984 
G01 X6.0394 Y21.1185 
G01 X6.0025 Y21.3038 
G01 X5.9302 Y21.4784 
G01 X5.8252 Y21.6356 
G01 X5.6916 Y21.7692 
G01 X5.5344 Y21.8742 
G01 X5.3598 Y21.9465 
G01 X5.1745 Y21.9834 
G01 X4.9855 Y21.9834 
G01 X4.8002 Y21.9465 
G01 X4.6256 Y21.8742 
G01 X4.4684 Y21.7692 
G01 X4.3348 Y21.6356 
G01 X4.2298 Y21.4784 
G01 X4.1575 Y21.3038 
G01 X4.1206 Y21.1185 
G01 X4.1206 Y19.5215 
G01 X4.1575 Y19.3361 
G01 X4.2298 Y19.1616 
G01 X4.3348 Y19.0044 
G01 X4.4684 Y18.8708 
G01 X4.6256 Y18.7658 
G01 X4.8002 Y18.6935 
G01 X4.9855 Y18.6566 
G01 X5.1745 Y18.6566 
G01 X5.3598 Y18.6935 
G00 Z2.5400 
G00 X14.9954 Y15.4180 
G01 Z-0.1200 F100.00 
G01 X15.4969 Y15.9195 F230.00 
G01 X15.4846 Y15.8736 
G01 X15.4846 Y14.6064 
G01 X15.5020 Y14.5414 
G01 X15.5231 Y14.5048 
G01 X14.9568 Y14.5048 
G01 X14.9780 Y14.5414 
G01 X14.9954 Y14.6064 
G01 X14.9954 Y15.4180 
G00 Z2.5400 
G00 X18.5760 Y7.4944 
G01 Z-0.1200 F100.00 
G01 X17.9056 Y6.8240 F230.00 
G01 X17.9056 Y5.8760 
G01 X18.5760 Y5.2056 
G01 X19.5240 Y5.2056 
G01 X20.1944 Y5.8760 
G01 X20.1944 Y6.8240 
G01 X19.5240 Y7.4944 
G01 X18.5760 Y7.4944 
G00 Z2.5400 
G00 X20.4456 Y8.4160 
G01 Z-0.1200 F100.00 
G01 X21.1160 Y7.7456 F230.00 
G01 X22.0640 Y7.7456 
G01 X22.7344 Y8.4160 
G01 X22.7344 Y9.3640 
G01 X22.0640 Y10.0344 
G01 X21.1160 Y10.0344 
G01 X20.4456 Y9.3640 
G01 X20.4456 Y8.4160 
G00 Z2.5400 
G00 X22.9856 Y8.4160 
G01 Z-0.1200 F100.00 
G01 X23.6560 Y7.7456 F230.00 
G01 X24.6040 Y7.7456 
G01 X25.2744 Y8.4160 
G01 X25.2744 Y9.3640 
G01 X24.6040 Y10.0344 
G01 X23.6560 Y10.0344 
G01 X22.9856 Y9.3640 
G01 X22.9856 Y8.4160 
G00 Z2.5400 
G00 X23.6560 Y7.4944 
G01 Z-0.1200 F100.00 
G01 X22.9856 Y6.8240 F230.00 
G01 X22.9856 Y5.8760 
G01 X23.6560 Y5.2056 
G01 X24.6040 Y5.2056 
G01 X25.2744 Y5.8760 
G01 X25.2744 Y6.8240 
G01 X24.6040 Y7.4944 
G01 X23.6560 Y7.4944 
G00 Z2.5400 
G00 X15.0361 Y1.9572 
G01 Z-0.1200 F100.00 
G01 X6.3070 Y1.9572 F230.00 
G01 X4.8133 Y3.4508 
G01 X4.9855 Y3.4166 
G01 X5.1745 Y3.4166 
G01 X5.3598 Y3.4535 
G01 X5.5344 Y3.5258 
G01 X5.6400 Y3.5964 
G01 X6.6536 Y2.5828 
G01 X6.7484 Y2.4880 
G01 X6.8646 Y2.4209 
G01 X6.9941 Y2.3862 
G01 X14.5718 Y2.3862 
G01 X14.8578 Y2.1002 
G01 X14.9526 Y2.0054 
G01 X15.0361 Y1.9572 
G00 Z2.5400 
G00 X19.3456 Y23.3732 
G01 Z-0.1200 F100.00 
G01 X19.3932 Y23.3256 F230.00 
G01 X19.4514 Y23.2920 
G01 X19.5164 Y23.2746 
G01 X20.3836 Y23.2746 
G01 X20.4486 Y23.2920 
G01 X20.5068 Y23.3256 
G01 X20.5544 Y23.3732 
G01 X20.5880 Y23.4314 
G01 X20.6054 Y23.4964 
G01 X20.6054 Y23.6206 
G01 X22.5411 Y23.6206 
G01 X22.5411 Y23.5579 
G01 X22.5661 Y23.4646 
G01 X22.6143 Y23.3811 
G01 X22.6826 Y23.3128 
G01 X22.7661 Y23.2646 
G01 X22.8594 Y23.2396 
G01 X23.6226 Y23.2396 
G01 X23.7158 Y23.2646 
G01 X23.7994 Y23.3128 
G01 X23.8677 Y23.3811 
G01 X23.9159 Y23.4646 
G01 X23.9409 Y23.5579 
G01 X23.9409 Y24.7021 
G01 X23.9159 Y24.7953 
G01 X23.8677 Y24.8789 
G01 X23.7994 Y24.9472 
G01 X23.7158 Y24.9954 
G01 X23.6226 Y25.0204 
G01 X22.8594 Y25.0204 
G01 X22.7661 Y24.9954 
G01 X22.6826 Y24.9472 
G01 X22.6143 Y24.8789 
G01 X22.5661 Y24.7953 
G01 X22.5411 Y24.7021 
G01 X22.5411 Y24.6394 
G01 X20.6054 Y24.6394 
G01 X20.6054 Y24.7636 
G01 X20.5880 Y24.8286 
G01 X20.5544 Y24.8868 
G01 X20.5068 Y24.9344 
G01 X20.4486 Y24.9680 
G01 X20.3836 Y24.9854 
G01 X19.5164 Y24.9854 
G01 X19.4514 Y24.9680 
G01 X19.3932 Y24.9344 
G01 X19.3456 Y24.8868 
G01 X19.3120 Y24.8286 
G01 X19.2946 Y24.7636 
G01 X19.2946 Y23.4964 
G01 X19.3120 Y23.4314 
G01 X19.3456 Y23.3732 
G00 Z2.5400 
G00 X30.3008 Y23.5184 
G01 Z-0.1200 F100.00 
G01 X30.4344 Y23.3848 F230.00 
G01 X30.5916 Y23.2798 
G01 X30.7661 Y23.2075 
G01 X30.9515 Y23.1706 
G01 X32.5485 Y23.1706 
G01 X32.7338 Y23.2075 
G01 X32.9084 Y23.2798 
G01 X33.0656 Y23.3848 
G01 X33.1992 Y23.5184 
G01 X33.3042 Y23.6756 
G01 X33.3765 Y23.8501 
G01 X33.4134 Y24.0355 
G01 X33.4134 Y24.2245 
G01 X33.3765 Y24.4098 
G01 X33.3042 Y24.5844 
G01 X33.1992 Y24.7416 
G01 X33.0656 Y24.8752 
G01 X32.9084 Y24.9802 
G01 X32.7338 Y25.0525 
G01 X32.5485 Y25.0894 
G01 X30.9515 Y25.0894 
G01 X30.7661 Y25.0525 
G01 X30.5916 Y24.9802 
G01 X30.4344 Y24.8752 
G01 X30.3008 Y24.7416 
G01 X30.1958 Y24.5844 
G01 X30.1235 Y24.4098 
G01 X30.0866 Y24.2245 
G01 X30.0866 Y24.0355 
G01 X30.1235 Y23.8501 
G01 X30.1958 Y23.6756 
G01 X30.3008 Y23.5184 
G00 Z2.5400 
G00 X1.7308 Y4.8946 
G01 Z-0.1200 F100.00 
G01 X5.5916 Y1.0338 F230.00 
G01 X5.6820 Y0.9434 
G01 X5.7884 Y0.8723 
G01 X5.9066 Y0.8234 
G01 X6.0320 Y0.7984 
G01 X24.9814 Y0.7984 
G01 X25.1068 Y0.8234 
G01 X25.2250 Y0.8723 
G01 X25.3314 Y0.9434 
G01 X28.7096 Y4.3216 
G01 X28.8000 Y4.4120 
G01 X28.8711 Y4.5184 
G01 X28.9200 Y4.6366 
G01 X28.9450 Y4.7620 
G01 X28.9450 Y7.7856 
G01 X28.9200 Y7.9110 
G01 X28.8711 Y8.0292 
G01 X28.8000 Y8.1356 
G01 X28.7096 Y8.2260 
G01 X27.9544 Y8.9812 
G01 X27.9544 Y9.4220 
G01 X27.2020 Y10.1744 
G01 X26.2786 Y10.1744 
G01 X19.0576 Y17.3954 
G01 X18.9512 Y17.4665 
G01 X18.8330 Y17.5154 
G01 X18.7076 Y17.5404 
G01 X15.6840 Y17.5404 
G01 X15.5586 Y17.5154 
G01 X15.4404 Y17.4665 
G01 X15.3340 Y17.3954 
G01 X15.2436 Y17.3050 
G01 X14.1740 Y16.2354 
G01 X14.0804 Y16.2354 
G01 X16.2524 Y18.4074 
G01 X16.3235 Y18.5138 
G01 X16.3724 Y18.6320 
G01 X16.3974 Y18.7574 
G01 X16.3974 Y19.3246 
G01 X16.5921 Y19.3246 
G01 X16.6926 Y19.3515 
G01 X16.7828 Y19.4036 
G01 X16.8564 Y19.4772 
G01 X16.9084 Y19.5674 
G01 X16.9354 Y19.6679 
G01 X16.9354 Y20.1024 
G01 X22.0858 Y20.1024 
G01 X22.2112 Y20.1274 
G01 X22.3294 Y20.1763 
G01 X22.4358 Y20.2474 
G01 X25.2880 Y23.0996 
G01 X25.4191 Y23.0996 
G01 X25.5479 Y23.1341 
G01 X25.6634 Y23.2008 
G01 X25.7577 Y23.2951 
G01 X25.8244 Y23.4106 
G01 X25.8589 Y23.5394 
G01 X25.8589 Y23.6705 
G01 X25.9044 Y23.7160 
G01 X25.9755 Y23.8224 
G01 X26.0244 Y23.9406 
G01 X26.0494 Y24.0660 
G01 X26.0494 Y24.1940 
G01 X26.0244 Y24.3194 
G01 X25.9755 Y24.4376 
G01 X25.9044 Y24.5440 
G01 X25.8589 Y24.5895 
G01 X25.8589 Y24.7206 
G01 X25.8244 Y24.8494 
G01 X25.7788 Y24.9284 
G01 X27.0614 Y24.9284 
G01 X30.0150 Y21.9748 
G01 X29.9737 Y21.8474 
G01 X29.9466 Y21.6765 
G01 X29.9466 Y21.5035 
G01 X29.9737 Y21.3326 
G01 X30.0271 Y21.1680 
G01 X30.1057 Y21.0138 
G01 X30.2074 Y20.8738 
G01 X30.3298 Y20.7514 
G01 X30.4698 Y20.6497 
G01 X30.6240 Y20.5711 
G01 X30.7886 Y20.5177 
G01 X30.9595 Y20.4906 
G01 X32.5405 Y20.4906 
G01 X32.7114 Y20.5177 
G01 X32.8760 Y20.5711 
G01 X33.0302 Y20.6497 
G01 X33.1702 Y20.7514 
G01 X33.2926 Y20.8738 
G01 X33.3943 Y21.0138 
G01 X33.4729 Y21.1680 
G01 X33.5263 Y21.3326 
G01 X33.5534 Y21.5035 
G01 X33.5534 Y21.6765 
G01 X33.5263 Y21.8474 
G01 X33.4729 Y22.0120 
G01 X33.3943 Y22.1662 
G01 X33.2926 Y22.3062 
G01 X33.1702 Y22.4286 
G01 X33.0302 Y22.5303 
G01 X32.8760 Y22.6089 
G01 X32.7114 Y22.6623 
G01 X32.5405 Y22.6894 
G01 X31.1372 Y22.6894 
G01 X30.7595 Y23.0671 
G01 X30.7886 Y23.0577 
G01 X30.9595 Y23.0306 
G01 X32.5405 Y23.0306 
G01 X32.7114 Y23.0577 
G01 X32.8760 Y23.1111 
G01 X33.0302 Y23.1897 
G01 X33.1702 Y23.2914 
G01 X33.2926 Y23.4138 
G01 X33.3943 Y23.5538 
G01 X33.4729 Y23.7080 
G01 X33.5263 Y23.8726 
G01 X33.5534 Y24.0435 
G01 X33.5534 Y24.2165 
G01 X33.5263 Y24.3874 
G01 X33.4729 Y24.5520 
G01 X33.3943 Y24.7062 
G01 X33.2926 Y24.8462 
G01 X33.1702 Y24.9686 
G01 X33.0302 Y25.0703 
G01 X32.8760 Y25.1488 
G01 X32.7114 Y25.2023 
G01 X32.5405 Y25.2294 
G01 X30.9595 Y25.2294 
G01 X30.7886 Y25.2023 
G01 X30.6240 Y25.1488 
G01 X30.4698 Y25.0703 
G01 X30.3298 Y24.9686 
G01 X30.2074 Y24.8462 
G01 X30.1057 Y24.7062 
G01 X30.0271 Y24.5520 
G01 X29.9737 Y24.3874 
G01 X29.9466 Y24.2165 
G01 X29.9466 Y24.0435 
G01 X29.9737 Y23.8726 
G01 X29.9831 Y23.8435 
G01 X27.7444 Y26.0822 
G01 X27.6380 Y26.1533 
G01 X27.5198 Y26.2022 
G01 X27.3944 Y26.2272 
G01 X19.0622 Y26.2272 
G01 X18.9368 Y26.2022 
G01 X18.8186 Y26.1533 
G01 X18.7122 Y26.0822 
G01 X18.6218 Y25.9918 
G01 X17.7554 Y25.1254 
G01 X17.6979 Y25.1254 
G01 X17.5974 Y25.0984 
G01 X17.5072 Y25.0464 
G01 X17.4336 Y24.9728 
G01 X17.3815 Y24.8826 
G01 X17.3546 Y24.7821 
G01 X17.3546 Y24.7794 
G01 X13.7536 Y24.7794 
G01 X13.6282 Y24.7544 
G01 X13.5100 Y24.7055 
G01 X13.4036 Y24.6344 
G01 X10.7344 Y21.9652 
G01 X10.5820 Y22.0429 
G01 X10.4174 Y22.0963 
G01 X10.2465 Y22.1234 
G01 X10.0735 Y22.1234 
G01 X9.9026 Y22.0963 
G01 X9.7380 Y22.0429 
G01 X9.5838 Y21.9643 
G01 X9.4438 Y21.8626 
G01 X9.3214 Y21.7402 
G01 X9.2197 Y21.6002 
G01 X9.1411 Y21.4460 
G01 X9.0877 Y21.2814 
G01 X9.0606 Y21.1105 
G01 X9.0606 Y19.5295 
G01 X9.0877 Y19.3586 
G01 X9.1411 Y19.1940 
G01 X9.2197 Y19.0398 
G01 X9.3214 Y18.8998 
G01 X9.4438 Y18.7774 
G01 X9.5838 Y18.6757 
G01 X9.7380 Y18.5971 
G01 X9.9026 Y18.5437 
G01 X10.0735 Y18.5166 
G01 X10.1814 Y18.5166 
G01 X10.1704 Y18.5056 
G01 X7.3302 Y18.5056 
G01 X7.2582 Y18.5776 
G01 X7.3626 Y18.5437 
G01 X7.5335 Y18.5166 
G01 X7.7065 Y18.5166 
G01 X7.8774 Y18.5437 
G01 X8.0420 Y18.5971 
G01 X8.1962 Y18.6757 
G01 X8.3362 Y18.7774 
G01 X8.4586 Y18.8998 
G01 X8.5603 Y19.0398 
G01 X8.6388 Y19.1940 
G01 X8.6923 Y19.3586 
G01 X8.7194 Y19.5295 
G01 X8.7194 Y21.1105 
G01 X8.6923 Y21.2814 
G01 X8.6388 Y21.4460 
G01 X8.5603 Y21.6002 
G01 X8.4586 Y21.7402 
G01 X8.3362 Y21.8626 
G01 X8.1962 Y21.9643 
G01 X8.0420 Y22.0429 
G01 X7.8774 Y22.0963 
G01 X7.7065 Y22.1234 
G01 X7.5335 Y22.1234 
G01 X7.3626 Y22.0963 
G01 X7.1980 Y22.0429 
G01 X7.1802 Y22.0338 
G01 X6.1178 Y23.0962 
G01 X6.0274 Y23.1866 
G01 X5.9210 Y23.2577 
G01 X5.8028 Y23.3066 
G01 X5.6774 Y23.3316 
G01 X4.5842 Y23.3316 
G01 X4.4588 Y23.3066 
G01 X4.3406 Y23.2577 
G01 X4.2342 Y23.1866 
G01 X2.7864 Y21.7388 
G01 X2.6960 Y21.6484 
G01 X2.6249 Y21.5420 
G01 X2.5760 Y21.4238 
G01 X2.5510 Y21.2984 
G01 X2.5510 Y19.2400 
G01 X2.5760 Y19.1146 
G01 X2.6249 Y18.9964 
G01 X2.6960 Y18.8900 
G01 X4.6264 Y16.9596 
G01 X4.6349 Y16.9511 
G01 X4.5038 Y16.8843 
G01 X4.3638 Y16.7826 
G01 X4.2414 Y16.6602 
G01 X4.1397 Y16.5202 
G01 X4.0611 Y16.3660 
G01 X4.0077 Y16.2014 
G01 X3.9806 Y16.0305 
G01 X3.9806 Y14.4495 
G01 X3.9988 Y14.3346 
G01 X3.9988 Y14.2644 
G01 X1.8212 Y12.0868 
G01 X1.7308 Y11.9964 
G01 X1.6597 Y11.8900 
G01 X1.6108 Y11.7718 
G01 X1.5858 Y11.6464 
G01 X1.5858 Y5.2446 
G01 X1.6108 Y5.1192 
G01 X1.6597 Y5.0010 
G01 X1.7308 Y4.8946 
G00 Z2.5400 
G00 X2.8846 Y5.5776 
G01 Z-0.1200 F100.00 
G01 X2.8846 Y8.5668 F230.00 
G01 X4.2342 Y7.2172 
G01 X4.3406 Y7.1461 
G01 X4.4588 Y7.0972 
G01 X4.5842 Y7.0722 
G01 X4.8618 Y7.0722 
G01 X5.0506 Y6.8834 
G01 X4.9935 Y6.8834 
G01 X4.8226 Y6.8563 
G01 X4.6580 Y6.8029 
G01 X4.5038 Y6.7243 
G01 X4.3638 Y6.6226 
G01 X4.2414 Y6.5002 
G01 X4.1397 Y6.3602 
G01 X4.0611 Y6.2060 
G01 X4.0077 Y6.0414 
G01 X3.9806 Y5.8705 
G01 X3.9806 Y4.4816 
G01 X2.8846 Y5.5776 
G00 Z2.5400 
G00 X6.1794 Y5.7546 
G01 Z-0.1200 F100.00 
G01 X6.5206 Y5.4134 F230.00 
G01 X6.5206 Y4.3546 
G01 X6.1794 Y4.6958 
G01 X6.1794 Y5.7546 
G00 Z2.5400 
G00 X7.0456 Y6.7252 
G01 Z-0.1200 F100.00 
G01 X5.6352 Y8.1356 F230.00 
G01 X5.5448 Y8.2260 
G01 X5.4384 Y8.2971 
G01 X5.3202 Y8.3460 
G01 X5.2225 Y8.3655 
G01 X5.3374 Y8.3837 
G01 X5.4456 Y8.4188 
G01 X6.6472 Y7.2172 
G01 X6.7536 Y7.1461 
G01 X6.8718 Y7.0972 
G01 X6.9972 Y7.0722 
G01 X14.7639 Y7.0722 
G01 X14.8089 Y7.0696 
G01 X14.8277 Y7.0722 
G01 X14.8468 Y7.0722 
G01 X14.8909 Y7.0810 
G01 X14.9356 Y7.0872 
G01 X14.9536 Y7.0934 
G01 X14.9722 Y7.0972 
G01 X15.0138 Y7.1144 
G01 X15.0564 Y7.1292 
G01 X15.0728 Y7.1388 
G01 X15.0904 Y7.1461 
G01 X15.1279 Y7.1711 
G01 X15.1678 Y7.1946 
G01 X15.8921 Y7.1946 
G01 X15.9926 Y7.2215 
G01 X16.0828 Y7.2736 
G01 X16.1564 Y7.3472 
G01 X16.2084 Y7.4374 
G01 X16.2354 Y7.5379 
G01 X16.2354 Y8.4421 
G01 X16.2084 Y8.5426 
G01 X16.1564 Y8.6328 
G01 X16.0828 Y8.7064 
G01 X15.9926 Y8.7584 
G01 X15.8921 Y8.7854 
G01 X14.5879 Y8.7854 
G01 X14.4874 Y8.7584 
G01 X14.3972 Y8.7064 
G01 X14.3236 Y8.6328 
G01 X14.2715 Y8.5426 
G01 X14.2446 Y8.4421 
G01 X14.2446 Y8.3710 
G01 X10.3374 Y8.3710 
G01 X10.4174 Y8.3837 
G01 X10.5820 Y8.4371 
G01 X10.7362 Y8.5157 
G01 X10.8762 Y8.6174 
G01 X10.9986 Y8.7398 
G01 X11.1003 Y8.8798 
G01 X11.1789 Y9.0340 
G01 X11.2323 Y9.1986 
G01 X11.2594 Y9.3695 
G01 X11.2594 Y10.9505 
G01 X11.2323 Y11.1214 
G01 X11.1789 Y11.2860 
G01 X11.1003 Y11.4402 
G01 X10.9986 Y11.5802 
G01 X10.8762 Y11.7026 
G01 X10.7362 Y11.8043 
G01 X10.5820 Y11.8828 
G01 X10.4174 Y11.9363 
G01 X10.2465 Y11.9634 
G01 X10.0735 Y11.9634 
G01 X9.9026 Y11.9363 
G01 X9.7380 Y11.8828 
G01 X9.7173 Y11.8723 
G01 X10.2258 Y12.3808 
G01 X11.4686 Y12.3808 
G01 X11.5940 Y12.4058 
G01 X11.7122 Y12.4547 
G01 X11.8186 Y12.5258 
G01 X12.8524 Y13.5596 
G01 X12.9210 Y13.4910 
G01 X13.0274 Y13.4199 
G01 X13.1456 Y13.3710 
G01 X13.2710 Y13.3460 
G01 X15.5812 Y13.3460 
G01 X15.5812 Y10.5854 
G01 X14.5879 Y10.5854 
G01 X14.4874 Y10.5585 
G01 X14.3972 Y10.5064 
G01 X14.3236 Y10.4328 
G01 X14.2715 Y10.3426 
G01 X14.2446 Y10.2421 
G01 X14.2446 Y9.3379 
G01 X14.2715 Y9.2374 
G01 X14.3236 Y9.1472 
G01 X14.3972 Y9.0736 
G01 X14.4874 Y9.0215 
G01 X14.5879 Y8.9946 
G01 X15.8921 Y8.9946 
G01 X15.9219 Y9.0026 
G01 X17.7656 Y9.0026 
G01 X17.7656 Y8.7272 
G01 X15.7262 Y6.6878 
G01 X15.6551 Y6.5814 
G01 X15.6062 Y6.4632 
G01 X15.5812 Y6.3378 
G01 X15.5812 Y4.7749 
G01 X15.4972 Y4.7264 
G01 X15.4236 Y4.6528 
G01 X15.3715 Y4.5626 
G01 X15.3446 Y4.4621 
G01 X15.3446 Y3.2522 
G01 X15.2872 Y3.3096 
G01 X15.1968 Y3.4000 
G01 X15.1354 Y3.4614 
G01 X15.1354 Y4.4621 
G01 X15.1084 Y4.5626 
G01 X15.0564 Y4.6528 
G01 X14.9828 Y4.7264 
G01 X14.8926 Y4.7785 
G01 X14.7921 Y4.8054 
G01 X13.8879 Y4.8054 
G01 X13.7874 Y4.7785 
G01 X13.6972 Y4.7264 
G01 X13.6236 Y4.6528 
G01 X13.5715 Y4.5626 
G01 X13.5446 Y4.4621 
G01 X13.5446 Y3.5450 
G01 X10.8838 Y3.5450 
G01 X10.9986 Y3.6598 
G01 X11.1003 Y3.7998 
G01 X11.1789 Y3.9540 
G01 X11.2323 Y4.1186 
G01 X11.2594 Y4.2895 
G01 X11.2594 Y5.8705 
G01 X11.2323 Y6.0414 
G01 X11.1789 Y6.2060 
G01 X11.1003 Y6.3602 
G01 X10.9986 Y6.5002 
G01 X10.8762 Y6.6226 
G01 X10.7362 Y6.7243 
G01 X10.5820 Y6.8029 
G01 X10.4174 Y6.8563 
G01 X10.2465 Y6.8834 
G01 X10.0735 Y6.8834 
G01 X9.9026 Y6.8563 
G01 X9.7380 Y6.8029 
G01 X9.5838 Y6.7243 
G01 X9.4438 Y6.6226 
G01 X9.3214 Y6.5002 
G01 X9.2197 Y6.3602 
G01 X9.1411 Y6.2060 
G01 X9.0877 Y6.0414 
G01 X9.0606 Y5.8705 
G01 X9.0606 Y4.2895 
G01 X9.0877 Y4.1186 
G01 X9.1411 Y3.9540 
G01 X9.2197 Y3.7998 
G01 X9.3214 Y3.6598 
G01 X9.4362 Y3.5450 
G01 X8.3438 Y3.5450 
G01 X8.4586 Y3.6598 
G01 X8.5603 Y3.7998 
G01 X8.6388 Y3.9540 
G01 X8.6923 Y4.1186 
G01 X8.7194 Y4.2895 
G01 X8.7194 Y5.8705 
G01 X8.6923 Y6.0414 
G01 X8.6388 Y6.2060 
G01 X8.5603 Y6.3602 
G01 X8.4586 Y6.5002 
G01 X8.3362 Y6.6226 
G01 X8.1962 Y6.7243 
G01 X8.0420 Y6.8029 
G01 X7.8774 Y6.8563 
G01 X7.7065 Y6.8834 
G01 X7.5335 Y6.8834 
G01 X7.3626 Y6.8563 
G01 X7.1980 Y6.8029 
G01 X7.0456 Y6.7252 
G00 Z2.5400 
G00 X7.2958 Y8.4054 
G01 Z-0.1200 F100.00 
G01 X7.3626 Y8.3837 F230.00 
G01 X7.4426 Y8.3710 
G01 X7.3302 Y8.3710 
G01 X7.2958 Y8.4054 
G00 Z2.5400 
G00 X7.7974 Y8.3710 
G01 Z-0.1200 F100.00 
G01 X7.8774 Y8.3837 F230.00 
G01 X8.0420 Y8.4371 
G01 X8.1962 Y8.5157 
G01 X8.3362 Y8.6174 
G01 X8.4586 Y8.7398 
G01 X8.5603 Y8.8798 
G01 X8.6388 Y9.0340 
G01 X8.6923 Y9.1986 
G01 X8.7194 Y9.3695 
G01 X8.7194 Y10.8744 
G01 X9.1517 Y11.3067 
G01 X9.1411 Y11.2860 
G01 X9.0877 Y11.1214 
G01 X9.0606 Y10.9505 
G01 X9.0606 Y9.3695 
G01 X9.0877 Y9.1986 
G01 X9.1411 Y9.0340 
G01 X9.2197 Y8.8798 
G01 X9.3214 Y8.7398 
G01 X9.4438 Y8.6174 
G01 X9.5838 Y8.5157 
G01 X9.7380 Y8.4371 
G01 X9.9026 Y8.3837 
G01 X9.9826 Y8.3710 
G01 X7.7974 Y8.3710 
G00 Z2.5400 
G00 X6.5694 Y9.1318 
G01 Z-0.1200 F100.00 
G01 X6.1794 Y9.5218 F230.00 
G01 X6.1794 Y10.9505 
G01 X6.1582 Y11.0844 
G01 X6.5206 Y10.7220 
G01 X6.5206 Y9.3695 
G01 X6.5477 Y9.1986 
G01 X6.5694 Y9.1318 
G00 Z2.5400 
G00 X3.9922 Y9.2959 
G01 Z-0.1200 F100.00 
G01 X3.8498 Y9.4384 F230.00 
G01 X3.8498 Y10.8308 
G01 X3.9827 Y10.9637 
G01 X3.9806 Y10.9505 
G01 X3.9806 Y9.3695 
G01 X3.9922 Y9.2959 
G00 Z2.5400 
G00 X4.7682 Y13.1970 
G01 Z-0.1200 F100.00 
G01 X5.0078 Y13.4366 F230.00 
G01 X5.1014 Y13.4366 
G01 X4.8618 Y13.1970 
G01 X4.7682 Y13.1970 
G00 Z2.5400 
G00 X6.2905 Y12.7889 
G01 Z-0.1200 F100.00 
G01 X7.0792 Y13.5777 F230.00 
G01 X7.1980 Y13.5171 
G01 X7.3626 Y13.4637 
G01 X7.5335 Y13.4366 
G01 X7.7065 Y13.4366 
G01 X7.8774 Y13.4637 
G01 X8.0420 Y13.5171 
G01 X8.1962 Y13.5957 
G01 X8.3362 Y13.6974 
G01 X8.4586 Y13.8198 
G01 X8.5603 Y13.9598 
G01 X8.6388 Y14.1140 
G01 X8.6923 Y14.2786 
G01 X8.7194 Y14.4495 
G01 X8.7194 Y16.0305 
G01 X8.6923 Y16.2014 
G01 X8.6388 Y16.3660 
G01 X8.5603 Y16.5202 
G01 X8.4586 Y16.6602 
G01 X8.3362 Y16.7826 
G01 X8.1962 Y16.8843 
G01 X8.0420 Y16.9628 
G01 X7.8774 Y17.0163 
G01 X7.7065 Y17.0434 
G01 X7.5335 Y17.0434 
G01 X7.3626 Y17.0163 
G01 X7.1980 Y16.9628 
G01 X7.0438 Y16.8843 
G01 X7.0306 Y16.8747 
G01 X6.0274 Y17.8780 
G01 X5.9210 Y17.9491 
G01 X5.8028 Y17.9980 
G01 X5.6774 Y18.0230 
G01 X5.3998 Y18.0230 
G01 X4.8898 Y18.5330 
G01 X4.9935 Y18.5166 
G01 X5.1665 Y18.5166 
G01 X5.3374 Y18.5437 
G01 X5.4264 Y18.5726 
G01 X6.6472 Y17.3518 
G01 X6.7536 Y17.2807 
G01 X6.8718 Y17.2318 
G01 X6.9972 Y17.2068 
G01 X10.5034 Y17.2068 
G01 X10.6288 Y17.2318 
G01 X10.7470 Y17.2807 
G01 X10.8534 Y17.3518 
G01 X10.9438 Y17.4422 
G01 X13.1214 Y19.6198 
G01 X13.5575 Y19.6198 
G01 X13.5715 Y19.5674 
G01 X13.6236 Y19.4772 
G01 X13.6972 Y19.4036 
G01 X13.7874 Y19.3515 
G01 X13.8879 Y19.3246 
G01 X14.7921 Y19.3246 
G01 X14.8926 Y19.3515 
G01 X14.9828 Y19.4036 
G01 X15.0564 Y19.4772 
G01 X15.0986 Y19.5503 
G01 X15.0986 Y19.0904 
G01 X12.4384 Y16.4302 
G01 X12.3480 Y16.3398 
G01 X12.2769 Y16.2334 
G01 X12.2280 Y16.1152 
G01 X12.2030 Y15.9898 
G01 X12.2030 Y14.7470 
G01 X11.1356 Y13.6796 
G01 X10.8517 Y13.6796 
G01 X10.8762 Y13.6974 
G01 X10.9986 Y13.8198 
G01 X11.1003 Y13.9598 
G01 X11.1789 Y14.1140 
G01 X11.2323 Y14.2786 
G01 X11.2594 Y14.4495 
G01 X11.2594 Y16.0305 
G01 X11.2323 Y16.2014 
G01 X11.1789 Y16.3660 
G01 X11.1003 Y16.5202 
G01 X10.9986 Y16.6602 
G01 X10.8762 Y16.7826 
G01 X10.7362 Y16.8843 
G01 X10.5820 Y16.9628 
G01 X10.4174 Y17.0163 
G01 X10.2465 Y17.0434 
G01 X10.0735 Y17.0434 
G01 X9.9026 Y17.0163 
G01 X9.7380 Y16.9628 
G01 X9.5838 Y16.8843 
G01 X9.4438 Y16.7826 
G01 X9.3214 Y16.6602 
G01 X9.2197 Y16.5202 
G01 X9.1411 Y16.3660 
G01 X9.0877 Y16.2014 
G01 X9.0606 Y16.0305 
G01 X9.0606 Y14.4495 
G01 X9.0877 Y14.2786 
G01 X9.1411 Y14.1140 
G01 X9.2197 Y13.9598 
G01 X9.3214 Y13.8198 
G01 X9.4438 Y13.6974 
G01 X9.5838 Y13.5957 
G01 X9.6124 Y13.5811 
G01 X9.5428 Y13.5346 
G01 X9.4524 Y13.4442 
G01 X7.9281 Y11.9199 
G01 X7.8774 Y11.9363 
G01 X7.7065 Y11.9634 
G01 X7.5335 Y11.9634 
G01 X7.3626 Y11.9363 
G01 X7.1980 Y11.8828 
G01 X6.2905 Y12.7889 
G00 Z2.5400 
G00 X6.1794 Y14.5146 
G01 Z-0.1200 F100.00 
G01 X6.1794 Y15.8892 F230.00 
G01 X6.5206 Y15.5480 
G01 X6.5206 Y14.8558 
G01 X6.1794 Y14.5146 
G00 Z2.5400 
G00 X6.5816 Y19.2542 
G01 Z-0.1200 F100.00 
G01 X6.1794 Y19.6564 F230.00 
G01 X6.1794 Y21.1105 
G01 X6.1630 Y21.2142 
G01 X6.5206 Y20.8566 
G01 X6.5206 Y19.5295 
G01 X6.5477 Y19.3586 
G01 X6.5816 Y19.2542 
G00 Z2.5400 
G00 X3.9970 Y19.4258 
G01 Z-0.1200 F100.00 
G01 X3.8498 Y19.5730 F230.00 
G01 X3.8498 Y20.9654 
G01 X3.9806 Y21.0962 
G01 X3.9806 Y19.5295 
G01 X3.9970 Y19.4258 
G00 Z2.5400 
G00 X11.2594 Y19.5946 
G01 Z-0.1200 F100.00 
G01 X11.2594 Y20.6534 F230.00 
G01 X14.0866 Y23.4806 
G01 X17.3546 Y23.4806 
G01 X17.3546 Y23.4779 
G01 X17.3815 Y23.3774 
G01 X17.4336 Y23.2872 
G01 X17.5072 Y23.2136 
G01 X17.5974 Y23.1615 
G01 X17.6979 Y23.1346 
G01 X18.6021 Y23.1346 
G01 X18.7026 Y23.1615 
G01 X18.7928 Y23.2136 
G01 X18.8664 Y23.2872 
G01 X18.9184 Y23.3774 
G01 X18.9454 Y23.4779 
G01 X18.9454 Y24.4786 
G01 X19.1546 Y24.6878 
G01 X19.1546 Y23.4779 
G01 X19.1815 Y23.3774 
G01 X19.2336 Y23.2872 
G01 X19.3072 Y23.2136 
G01 X19.3974 Y23.1615 
G01 X19.4979 Y23.1346 
G01 X20.4021 Y23.1346 
G01 X20.5026 Y23.1615 
G01 X20.5928 Y23.2136 
G01 X20.6664 Y23.2872 
G01 X20.7185 Y23.3774 
G01 X20.7454 Y23.4779 
G01 X20.7454 Y23.4806 
G01 X22.4169 Y23.4806 
G01 X22.4356 Y23.4106 
G01 X22.5023 Y23.2951 
G01 X22.5966 Y23.2008 
G01 X22.7121 Y23.1341 
G01 X22.8409 Y23.0996 
G01 X23.4512 Y23.0996 
G01 X21.7528 Y21.4012 
G01 X16.2340 Y21.4012 
G01 X16.1734 Y21.4018 
G01 X16.1701 Y21.4012 
G01 X16.1666 Y21.4012 
G01 X16.1073 Y21.3894 
G01 X16.0477 Y21.3782 
G01 X16.0445 Y21.3769 
G01 X16.0412 Y21.3762 
G01 X15.9853 Y21.3531 
G01 X15.9290 Y21.3305 
G01 X15.9262 Y21.3286 
G01 X15.9230 Y21.3273 
G01 X15.9052 Y21.3154 
G01 X15.6879 Y21.3154 
G01 X15.5874 Y21.2885 
G01 X15.4972 Y21.2364 
G01 X15.4236 Y21.1628 
G01 X15.3715 Y21.0726 
G01 X15.3446 Y20.9721 
G01 X15.3446 Y20.7807 
G01 X15.3340 Y20.7736 
G01 X15.3043 Y20.7439 
G01 X15.2726 Y20.7162 
G01 X15.2592 Y20.6988 
G01 X15.2436 Y20.6832 
G01 X15.2202 Y20.6482 
G01 X15.1946 Y20.6149 
G01 X15.1848 Y20.5952 
G01 X15.1725 Y20.5768 
G01 X15.1564 Y20.5379 
G01 X15.1378 Y20.5003 
G01 X15.1354 Y20.4916 
G01 X15.1354 Y20.9721 
G01 X15.1084 Y21.0726 
G01 X15.0564 Y21.1628 
G01 X14.9828 Y21.2364 
G01 X14.8926 Y21.2885 
G01 X14.7921 Y21.3154 
G01 X13.8879 Y21.3154 
G01 X13.7874 Y21.2885 
G01 X13.6972 Y21.2364 
G01 X13.6236 Y21.1628 
G01 X13.5715 Y21.0726 
G01 X13.5446 Y20.9721 
G01 X13.5446 Y20.9186 
G01 X12.7884 Y20.9186 
G01 X12.6630 Y20.8936 
G01 X12.5448 Y20.8447 
G01 X12.4384 Y20.7736 
G01 X11.2594 Y19.5946 
G00 Z2.5400 
G00 X13.5446 Y15.6996 
G01 Z-0.1200 F100.00 
G01 X13.5446 Y14.7042 F230.00 
G01 X13.5018 Y14.7470 
G01 X13.5018 Y15.6568 
G01 X13.5446 Y15.6996 
G00 Z2.5400 
G00 X15.3446 Y15.5692 
G01 Z-0.1200 F100.00 
G01 X15.3446 Y14.6448 F230.00 
G01 X15.1354 Y14.6448 
G01 X15.1354 Y15.3600 
G01 X15.3446 Y15.5692 
G00 Z2.5400 
G00 X16.0108 Y16.2354 
G01 Z-0.1200 F100.00 
G01 X16.0170 Y16.2416 F230.00 
G01 X18.3746 Y16.2416 
G01 X24.4418 Y10.1744 
G01 X23.5980 Y10.1744 
G01 X22.8600 Y9.4364 
G01 X22.1220 Y10.1744 
G01 X21.0580 Y10.1744 
G01 X20.3200 Y9.4364 
G01 X19.5820 Y10.1744 
G01 X18.5481 Y10.1744 
G01 X18.4686 Y10.2275 
G01 X18.3504 Y10.2764 
G01 X18.2250 Y10.3014 
G01 X16.8800 Y10.3014 
G01 X16.8800 Y14.4381 
G01 X16.9084 Y14.4874 
G01 X16.9354 Y14.5879 
G01 X16.9354 Y15.8921 
G01 X16.9084 Y15.9926 
G01 X16.8564 Y16.0828 
G01 X16.7828 Y16.1564 
G01 X16.6926 Y16.2084 
G01 X16.5921 Y16.2354 
G01 X16.0108 Y16.2354 
G00 Z2.5400 
G00 X16.8800 Y6.0048 
G01 Z-0.1200 F100.00 
G01 X18.4994 Y7.6242 F230.00 
G01 X18.5036 Y7.6200 
G01 X17.7656 Y6.8820 
G01 X17.7656 Y5.8180 
G01 X18.5180 Y5.0656 
G01 X19.4126 Y5.0656 
G01 X17.4094 Y3.0624 
G01 X16.9098 Y3.0624 
G01 X16.9354 Y3.1579 
G01 X16.9354 Y4.4621 
G01 X16.9084 Y4.5626 
G01 X16.8800 Y4.6119 
G01 X16.8800 Y6.0048 
G00 Z2.5400 
G00 X19.5964 Y7.6200 
G01 Z-0.1200 F100.00 
G01 X20.3200 Y8.3436 F230.00 
G01 X21.0436 Y7.6200 
G01 X20.3200 Y6.8964 
G01 X19.5964 Y7.6200 
G00 Z2.5400 
G00 X22.1364 Y7.6200 
G01 Z-0.1200 F100.00 
G01 X22.8600 Y8.3436 F230.00 
G01 X23.5836 Y7.6200 
G01 X22.8600 Y6.8964 
G01 X22.1364 Y7.6200 
G00 Z2.5400 
G00 X22.8600 Y5.8036 
G01 Z-0.1200 F100.00 
G01 X23.5980 Y5.0656 F230.00 
G01 X24.6620 Y5.0656 
G01 X25.3856 Y5.7892 
G01 X25.3856 Y5.4089 
G01 X25.4125 Y5.3084 
G01 X25.4646 Y5.2182 
G01 X25.5382 Y5.1446 
G01 X25.6284 Y5.0925 
G01 X25.7289 Y5.0656 
G01 X27.6111 Y5.0656 
G01 X27.6189 Y5.0677 
G01 X24.6484 Y2.0972 
G01 X18.2810 Y2.0972 
G01 X21.2494 Y5.0656 
G01 X22.1220 Y5.0656 
G01 X22.8600 Y5.8036 
G00 Z2.5400 
G00 X25.3856 Y6.9108 
G01 Z-0.1200 F100.00 
G01 X24.6764 Y7.6200 F230.00 
G01 X25.4000 Y8.3436 
G01 X26.1092 Y7.6344 
G01 X25.7289 Y7.6344 
G01 X25.6284 Y7.6075 
G01 X25.5382 Y7.5554 
G01 X25.4646 Y7.4818 
G01 X25.4125 Y7.3916 
G01 X25.3856 Y7.2911 
G01 X25.3856 Y6.9108 
G00 Z2.5400 
G00 X27.2308 Y7.6344 
G01 Z-0.1200 F100.00 
G01 X27.3476 Y7.7512 F230.00 
G01 X27.4644 Y7.6344 
G01 X27.2308 Y7.6344 
G00 Z2.5400 
G00 X14.6628 Y2.0972 
G01 Z-0.1200 F100.00 
G01 X6.3650 Y2.0972 F230.00 
G01 X5.1830 Y3.2792 
G01 X5.3374 Y3.3037 
G01 X5.5020 Y3.3571 
G01 X5.6208 Y3.4177 
G01 X6.5568 Y2.4816 
G01 X6.6472 Y2.3912 
G01 X6.7536 Y2.3201 
G01 X6.8718 Y2.2712 
G01 X6.9972 Y2.2462 
G01 X14.5138 Y2.2462 
G01 X14.6628 Y2.0972 
G00 Z2.5400 
G00 X20.7454 Y24.7794 
G01 Z-0.1200 F100.00 
G01 X20.7454 Y24.7821 F230.00 
G01 X20.7185 Y24.8826 
G01 X20.6920 Y24.9284 
G01 X22.4812 Y24.9284 
G01 X22.4356 Y24.8494 
G01 X22.4169 Y24.7794 
G01 X20.7454 Y24.7794 
G00 Z2.5400 
G00 X24.0464 Y24.8494 
G01 Z-0.1200 F100.00 
G01 X24.0008 Y24.9284 F230.00 
G01 X24.2592 Y24.9284 
G01 X24.2136 Y24.8494 
G01 X24.1791 Y24.7206 
G01 X24.1791 Y23.8275 
G01 X24.0809 Y23.7293 
G01 X24.0809 Y24.7206 
G01 X24.0464 Y24.8494 
G00 Z2.5400 
G00 X1.6220 Y4.8054 
G01 Z-0.1200 F100.00 
G01 X5.4828 Y0.9446 F230.00 
G01 X5.5928 Y0.8346 
G01 X5.7221 Y0.7482 
G01 X5.8657 Y0.6887 
G01 X6.0182 Y0.6584 
G01 X24.9951 Y0.6584 
G01 X25.1477 Y0.6887 
G01 X25.2913 Y0.7482 
G01 X25.4206 Y0.8346 
G01 X28.7988 Y4.2128 
G01 X28.9088 Y4.3228 
G01 X28.9952 Y4.4521 
G01 X29.0547 Y4.5957 
G01 X29.0850 Y4.7482 
G01 X29.0850 Y7.7993 
G01 X29.0547 Y7.9519 
G01 X28.9952 Y8.0955 
G01 X28.9088 Y8.2248 
G01 X28.7988 Y8.3348 
G01 X28.0944 Y9.0392 
G01 X28.0944 Y9.4800 
G01 X27.2600 Y10.3144 
G01 X26.3366 Y10.3144 
G01 X19.1468 Y17.5042 
G01 X19.0175 Y17.5906 
G01 X18.8739 Y17.6501 
G01 X18.7214 Y17.6804 
G01 X15.7234 Y17.6804 
G01 X16.3612 Y18.3182 
G01 X16.4476 Y18.4475 
G01 X16.5071 Y18.5911 
G01 X16.5374 Y18.7436 
G01 X16.5374 Y19.1846 
G01 X16.6105 Y19.1846 
G01 X16.7467 Y19.2211 
G01 X16.8687 Y19.2916 
G01 X16.9684 Y19.3913 
G01 X17.0389 Y19.5133 
G01 X17.0754 Y19.6495 
G01 X17.0754 Y19.9624 
G01 X22.0996 Y19.9624 
G01 X22.2521 Y19.9927 
G01 X22.3957 Y20.0522 
G01 X22.5250 Y20.1386 
G01 X25.3460 Y22.9596 
G01 X25.4161 Y22.9596 
G01 X25.5410 Y22.9844 
G01 X25.6586 Y23.0332 
G01 X25.7645 Y23.1039 
G01 X25.8546 Y23.1940 
G01 X25.9253 Y23.2999 
G01 X25.9740 Y23.4175 
G01 X25.9989 Y23.5424 
G01 X25.9989 Y23.6125 
G01 X26.0132 Y23.6268 
G01 X26.0996 Y23.7561 
G01 X26.1591 Y23.8997 
G01 X26.1894 Y24.0522 
G01 X26.1894 Y24.2078 
G01 X26.1591 Y24.3603 
G01 X26.0996 Y24.5039 
G01 X26.0132 Y24.6332 
G01 X25.9989 Y24.6475 
G01 X25.9989 Y24.7176 
G01 X25.9848 Y24.7884 
G01 X27.0034 Y24.7884 
G01 X29.8554 Y21.9364 
G01 X29.8371 Y21.8802 
G01 X29.8066 Y21.6875 
G01 X29.8066 Y21.4925 
G01 X29.8371 Y21.2998 
G01 X29.8974 Y21.1142 
G01 X29.9860 Y20.9404 
G01 X30.1006 Y20.7826 
G01 X30.2386 Y20.6446 
G01 X30.3964 Y20.5300 
G01 X30.5702 Y20.4414 
G01 X30.7558 Y20.3811 
G01 X30.9485 Y20.3506 
G01 X32.5515 Y20.3506 
G01 X32.7442 Y20.3811 
G01 X32.9298 Y20.4414 
G01 X33.1036 Y20.5300 
G01 X33.2614 Y20.6446 
G01 X33.3994 Y20.7826 
G01 X33.5140 Y20.9404 
G01 X33.6026 Y21.1142 
G01 X33.6629 Y21.2998 
G01 X33.6934 Y21.4925 
G01 X33.6934 Y21.6875 
G01 X33.6629 Y21.8802 
G01 X33.6026 Y22.0658 
G01 X33.5140 Y22.2396 
G01 X33.3994 Y22.3974 
G01 X33.2614 Y22.5354 
G01 X33.1036 Y22.6500 
G01 X32.9298 Y22.7386 
G01 X32.7442 Y22.7989 
G01 X32.5515 Y22.8294 
G01 X31.1952 Y22.8294 
G01 X31.1340 Y22.8906 
G01 X32.5515 Y22.8906 
G01 X32.7442 Y22.9211 
G01 X32.9298 Y22.9814 
G01 X33.1036 Y23.0700 
G01 X33.2614 Y23.1846 
G01 X33.3994 Y23.3226 
G01 X33.5140 Y23.4804 
G01 X33.6026 Y23.6542 
G01 X33.6629 Y23.8398 
G01 X33.6934 Y24.0325 
G01 X33.6934 Y24.2275 
G01 X33.6629 Y24.4202 
G01 X33.6026 Y24.6058 
G01 X33.5140 Y24.7796 
G01 X33.3994 Y24.9374 
G01 X33.2614 Y25.0754 
G01 X33.1036 Y25.1900 
G01 X32.9298 Y25.2786 
G01 X32.7442 Y25.3389 
G01 X32.5515 Y25.3694 
G01 X30.9485 Y25.3694 
G01 X30.7558 Y25.3389 
G01 X30.5702 Y25.2786 
G01 X30.3964 Y25.1900 
G01 X30.2386 Y25.0754 
G01 X30.1006 Y24.9374 
G01 X29.9860 Y24.7796 
G01 X29.8974 Y24.6058 
G01 X29.8371 Y24.4202 
G01 X29.8066 Y24.2275 
G01 X29.8066 Y24.2180 
G01 X27.8336 Y26.1910 
G01 X27.7043 Y26.2774 
G01 X27.5607 Y26.3369 
G01 X27.4081 Y26.3672 
G01 X19.0484 Y26.3672 
G01 X18.8959 Y26.3369 
G01 X18.7523 Y26.2774 
G01 X18.6230 Y26.1910 
G01 X18.5130 Y26.0810 
G01 X17.6974 Y25.2654 
G01 X17.6795 Y25.2654 
G01 X17.5433 Y25.2289 
G01 X17.4213 Y25.1584 
G01 X17.3216 Y25.0587 
G01 X17.2511 Y24.9367 
G01 X17.2465 Y24.9194 
G01 X13.7398 Y24.9194 
G01 X13.5873 Y24.8891 
G01 X13.4437 Y24.8296 
G01 X13.3144 Y24.7432 
G01 X10.7073 Y22.1361 
G01 X10.6358 Y22.1726 
G01 X10.4502 Y22.2329 
G01 X10.2575 Y22.2634 
G01 X10.0625 Y22.2634 
G01 X9.8698 Y22.2329 
G01 X9.6842 Y22.1726 
G01 X9.5104 Y22.0840 
G01 X9.3526 Y21.9694 
G01 X9.2146 Y21.8314 
G01 X9.1000 Y21.6736 
G01 X9.0114 Y21.4998 
G01 X8.9511 Y21.3142 
G01 X8.9206 Y21.1215 
G01 X8.9206 Y19.5185 
G01 X8.9511 Y19.3258 
G01 X9.0114 Y19.1402 
G01 X9.1000 Y18.9664 
G01 X9.2146 Y18.8086 
G01 X9.3526 Y18.6706 
G01 X9.3871 Y18.6456 
G01 X8.3929 Y18.6456 
G01 X8.4274 Y18.6706 
G01 X8.5654 Y18.8086 
G01 X8.6800 Y18.9664 
G01 X8.7686 Y19.1402 
G01 X8.8289 Y19.3258 
G01 X8.8594 Y19.5185 
G01 X8.8594 Y21.1215 
G01 X8.8289 Y21.3142 
G01 X8.7686 Y21.4998 
G01 X8.6800 Y21.6736 
G01 X8.5654 Y21.8314 
G01 X8.4274 Y21.9694 
G01 X8.2696 Y22.0840 
G01 X8.0958 Y22.1726 
G01 X7.9102 Y22.2329 
G01 X7.7175 Y22.2634 
G01 X7.5225 Y22.2634 
G01 X7.3298 Y22.2329 
G01 X7.2161 Y22.1959 
G01 X6.2266 Y23.1854 
G01 X6.1166 Y23.2954 
G01 X5.9873 Y23.3818 
G01 X5.8437 Y23.4413 
G01 X5.6912 Y23.4716 
G01 X4.5704 Y23.4716 
G01 X4.4179 Y23.4413 
G01 X4.2743 Y23.3818 
G01 X4.1450 Y23.2954 
G01 X2.6972 Y21.8476 
G01 X2.5872 Y21.7376 
G01 X2.5008 Y21.6083 
G01 X2.4413 Y21.4647 
G01 X2.4110 Y21.3121 
G01 X2.4110 Y19.2262 
G01 X2.4413 Y19.0737 
G01 X2.5008 Y18.9301 
G01 X2.5872 Y18.8008 
G01 X4.4035 Y16.9845 
G01 X4.2726 Y16.8894 
G01 X4.1346 Y16.7514 
G01 X4.0200 Y16.5936 
G01 X3.9314 Y16.4198 
G01 X3.8711 Y16.2342 
G01 X3.8406 Y16.0415 
G01 X3.8406 Y14.4385 
G01 X3.8588 Y14.3235 
G01 X1.7320 Y12.1956 
G01 X1.6220 Y12.0856 
G01 X1.5356 Y11.9563 
G01 X1.4761 Y11.8127 
G01 X1.4458 Y11.6601 
G01 X1.4458 Y5.2308 
G01 X1.4761 Y5.0783 
G01 X1.5356 Y4.9347 
G01 X1.6220 Y4.8054 
G00 Z2.5400 
G00 X3.8406 Y4.8196 
G01 Z-0.1200 F100.00 
G01 X3.0246 Y5.6356 F230.00 
G01 X3.0246 Y8.2288 
G01 X4.1450 Y7.1084 
G01 X4.2743 Y7.0220 
G01 X4.4179 Y6.9625 
G01 X4.5704 Y6.9322 
G01 X4.6035 Y6.9322 
G01 X4.4304 Y6.8440 
G01 X4.2726 Y6.7294 
G01 X4.1346 Y6.5914 
G01 X4.0200 Y6.4336 
G01 X3.9314 Y6.2598 
G01 X3.8711 Y6.0742 
G01 X3.8406 Y5.8815 
G01 X3.8406 Y4.8196 
G00 Z2.5400 
G00 X6.3194 Y4.7538 
G01 Z-0.1200 F100.00 
G01 X6.3194 Y5.4166 F230.00 
G01 X6.3806 Y5.3554 
G01 X6.3806 Y4.6926 
G01 X6.3194 Y4.7538 
G00 Z2.5400 
G00 X5.5937 Y3.2467 
G01 Z-0.1200 F100.00 
G01 X6.4480 Y2.3924 F230.00 
G01 X6.5580 Y2.2824 
G01 X6.6257 Y2.2372 
G01 X6.4230 Y2.2372 
G01 X5.4629 Y3.1972 
G01 X5.5558 Y3.2274 
G01 X5.5937 Y3.2467 
G00 Z2.5400 
G00 X8.6499 Y3.6850 
G01 Z-0.1200 F100.00 
G01 X8.6800 Y3.7264 F230.00 
G01 X8.7686 Y3.9002 
G01 X8.8289 Y4.0858 
G01 X8.8594 Y4.2785 
G01 X8.8594 Y5.8815 
G01 X8.8289 Y6.0742 
G01 X8.7686 Y6.2598 
G01 X8.6800 Y6.4336 
G01 X8.5654 Y6.5914 
G01 X8.4274 Y6.7294 
G01 X8.2696 Y6.8440 
G01 X8.0965 Y6.9322 
G01 X9.6835 Y6.9322 
G01 X9.5104 Y6.8440 
G01 X9.3526 Y6.7294 
G01 X9.2146 Y6.5914 
G01 X9.1000 Y6.4336 
G01 X9.0114 Y6.2598 
G01 X8.9511 Y6.0742 
G01 X8.9206 Y5.8815 
G01 X8.9206 Y4.2785 
G01 X8.9511 Y4.0858 
G01 X9.0114 Y3.9002 
G01 X9.1000 Y3.7264 
G01 X9.1301 Y3.6850 
G01 X8.6499 Y3.6850 
G00 Z2.5400 
G00 X11.1899 Y3.6850 
G01 Z-0.1200 F100.00 
G01 X11.2200 Y3.7264 F230.00 
G01 X11.3086 Y3.9002 
G01 X11.3689 Y4.0858 
G01 X11.3994 Y4.2785 
G01 X11.3994 Y5.8815 
G01 X11.3689 Y6.0742 
G01 X11.3086 Y6.2598 
G01 X11.2200 Y6.4336 
G01 X11.1054 Y6.5914 
G01 X10.9674 Y6.7294 
G01 X10.8096 Y6.8440 
G01 X10.6365 Y6.9322 
G01 X14.7598 Y6.9322 
G01 X14.8145 Y6.9290 
G01 X14.8374 Y6.9322 
G01 X14.8605 Y6.9322 
G01 X14.9143 Y6.9429 
G01 X14.9685 Y6.9504 
G01 X14.9904 Y6.9580 
G01 X15.0131 Y6.9625 
G01 X15.0636 Y6.9835 
G01 X15.1154 Y7.0015 
G01 X15.1354 Y7.0132 
G01 X15.1567 Y7.0220 
G01 X15.2022 Y7.0525 
G01 X15.2059 Y7.0546 
G01 X15.8950 Y7.0546 
G01 X15.6174 Y6.7770 
G01 X15.5310 Y6.6477 
G01 X15.4715 Y6.5041 
G01 X15.4412 Y6.3515 
G01 X15.4412 Y4.8557 
G01 X15.4113 Y4.8384 
G01 X15.3116 Y4.7387 
G01 X15.2411 Y4.6167 
G01 X15.2400 Y4.6126 
G01 X15.2389 Y4.6167 
G01 X15.1684 Y4.7387 
G01 X15.0687 Y4.8384 
G01 X14.9467 Y4.9089 
G01 X14.8105 Y4.9454 
G01 X13.8695 Y4.9454 
G01 X13.7333 Y4.9089 
G01 X13.6113 Y4.8384 
G01 X13.5116 Y4.7387 
G01 X13.4411 Y4.6167 
G01 X13.4046 Y4.4805 
G01 X13.4046 Y3.6850 
G01 X11.1899 Y3.6850 
G00 Z2.5400 
G00 X11.1054 Y8.6486 
G01 Z-0.1200 F100.00 
G01 X11.2200 Y8.8064 F230.00 
G01 X11.3086 Y8.9802 
G01 X11.3689 Y9.1658 
G01 X11.3994 Y9.3585 
G01 X11.3994 Y10.9615 
G01 X11.3689 Y11.1542 
G01 X11.3086 Y11.3398 
G01 X11.2200 Y11.5136 
G01 X11.1054 Y11.6714 
G01 X10.9674 Y11.8094 
G01 X10.8096 Y11.9240 
G01 X10.6358 Y12.0126 
G01 X10.4502 Y12.0729 
G01 X10.2575 Y12.1034 
G01 X10.1464 Y12.1034 
G01 X10.2838 Y12.2408 
G01 X11.4824 Y12.2408 
G01 X11.6349 Y12.2711 
G01 X11.7785 Y12.3306 
G01 X11.9078 Y12.4170 
G01 X12.8565 Y13.3657 
G01 X12.9611 Y13.2958 
G01 X13.1047 Y13.2363 
G01 X13.2572 Y13.2060 
G01 X15.4412 Y13.2060 
G01 X15.4412 Y10.7254 
G01 X14.5695 Y10.7254 
G01 X14.4333 Y10.6889 
G01 X14.3113 Y10.6184 
G01 X14.2116 Y10.5187 
G01 X14.1411 Y10.3967 
G01 X14.1046 Y10.2605 
G01 X14.1046 Y9.3195 
G01 X14.1411 Y9.1833 
G01 X14.2116 Y9.0613 
G01 X14.3113 Y8.9616 
G01 X14.4333 Y8.8911 
G01 X14.4374 Y8.8900 
G01 X14.4333 Y8.8889 
G01 X14.3113 Y8.8184 
G01 X14.2116 Y8.7187 
G01 X14.1411 Y8.5967 
G01 X14.1181 Y8.5110 
G01 X10.9678 Y8.5110 
G01 X11.1054 Y8.6486 
G00 Z2.5400 
G00 X9.3522 Y8.5110 
G01 Z-0.1200 F100.00 
G01 X8.4278 Y8.5110 F230.00 
G01 X8.5654 Y8.6486 
G01 X8.6800 Y8.8064 
G01 X8.7686 Y8.9802 
G01 X8.8289 Y9.1658 
G01 X8.8594 Y9.3585 
G01 X8.8594 Y10.8164 
G01 X8.9206 Y10.8776 
G01 X8.9206 Y9.3585 
G01 X8.9511 Y9.1658 
G01 X9.0114 Y8.9802 
G01 X9.1000 Y8.8064 
G01 X9.2146 Y8.6486 
G01 X9.3522 Y8.5110 
G00 Z2.5400 
G00 X7.1435 Y6.9322 
G01 Z-0.1200 F100.00 
G01 X7.0727 Y6.8961 F230.00 
G01 X7.0366 Y6.9322 
G01 X7.1435 Y6.9322 
G00 Z2.5400 
G00 X6.3806 Y9.5186 
G01 Z-0.1200 F100.00 
G01 X6.3194 Y9.5798 F230.00 
G01 X6.3194 Y10.7252 
G01 X6.3806 Y10.6640 
G01 X6.3806 Y9.5186 
G00 Z2.5400 
G00 X6.4885 Y12.7889 
G01 Z-0.1200 F100.00 
G01 X7.1063 Y13.4067 F230.00 
G01 X7.1442 Y13.3874 
G01 X7.3298 Y13.3271 
G01 X7.5225 Y13.2966 
G01 X7.7175 Y13.2966 
G01 X7.9102 Y13.3271 
G01 X8.0958 Y13.3874 
G01 X8.2696 Y13.4760 
G01 X8.4274 Y13.5906 
G01 X8.5654 Y13.7286 
G01 X8.6800 Y13.8864 
G01 X8.7686 Y14.0602 
G01 X8.8289 Y14.2458 
G01 X8.8594 Y14.4385 
G01 X8.8594 Y16.0415 
G01 X8.8289 Y16.2342 
G01 X8.7686 Y16.4198 
G01 X8.6800 Y16.5936 
G01 X8.5654 Y16.7514 
G01 X8.4274 Y16.8894 
G01 X8.2696 Y17.0040 
G01 X8.1464 Y17.0668 
G01 X9.6336 Y17.0668 
G01 X9.5104 Y17.0040 
G01 X9.3526 Y16.8894 
G01 X9.2146 Y16.7514 
G01 X9.1000 Y16.5936 
G01 X9.0114 Y16.4198 
G01 X8.9511 Y16.2342 
G01 X8.9206 Y16.0415 
G01 X8.9206 Y14.4385 
G01 X8.9511 Y14.2458 
G01 X9.0114 Y14.0602 
G01 X9.1000 Y13.8864 
G01 X9.2146 Y13.7286 
G01 X9.3526 Y13.5906 
G01 X9.3805 Y13.5703 
G01 X9.3436 Y13.5334 
G01 X7.8868 Y12.0766 
G01 X7.7175 Y12.1034 
G01 X7.5225 Y12.1034 
G01 X7.3298 Y12.0729 
G01 X7.2352 Y12.0422 
G01 X6.4885 Y12.7889 
G00 Z2.5400 
G00 X6.3194 Y14.8526 
G01 Z-0.1200 F100.00 
G01 X6.3194 Y15.5512 F230.00 
G01 X6.3806 Y15.4900 
G01 X6.3806 Y14.9138 
G01 X6.3194 Y14.8526 
G00 Z2.5400 
G00 X7.0558 Y17.0475 
G01 Z-0.1200 F100.00 
G01 X7.0366 Y17.0668 F230.00 
G01 X7.0936 Y17.0668 
G01 X7.0558 Y17.0475 
G00 Z2.5400 
G00 X5.6380 Y18.1630 
G01 Z-0.1200 F100.00 
G01 X5.4578 Y18.1630 F230.00 
G01 X5.2351 Y18.3857 
G01 X5.3702 Y18.4071 
G01 X5.3881 Y18.4129 
G01 X5.6380 Y18.1630 
G00 Z2.5400 
G00 X6.3806 Y19.6532 
G01 Z-0.1200 F100.00 
G01 X6.3194 Y19.7144 F230.00 
G01 X6.3194 Y20.8598 
G01 X6.3806 Y20.7986 
G01 X6.3806 Y19.6532 
G00 Z2.5400 
G00 X11.3994 Y19.9326 
G01 Z-0.1200 F100.00 
G01 X11.3994 Y20.5954 F230.00 
G01 X14.1446 Y23.3406 
G01 X17.2465 Y23.3406 
G01 X17.2511 Y23.3233 
G01 X17.3216 Y23.2013 
G01 X17.4213 Y23.1016 
G01 X17.5433 Y23.0311 
G01 X17.6795 Y22.9946 
G01 X18.6205 Y22.9946 
G01 X18.7567 Y23.0311 
G01 X18.8787 Y23.1016 
G01 X18.9784 Y23.2013 
G01 X19.0489 Y23.3233 
G01 X19.0500 Y23.3274 
G01 X19.0511 Y23.3233 
G01 X19.1216 Y23.2013 
G01 X19.2213 Y23.1016 
G01 X19.3433 Y23.0311 
G01 X19.4795 Y22.9946 
G01 X20.4205 Y22.9946 
G01 X20.5567 Y23.0311 
G01 X20.6787 Y23.1016 
G01 X20.7784 Y23.2013 
G01 X20.8489 Y23.3233 
G01 X20.8535 Y23.3406 
G01 X22.3178 Y23.3406 
G01 X22.3347 Y23.2999 
G01 X22.4054 Y23.1940 
G01 X22.4955 Y23.1039 
G01 X22.6014 Y23.0332 
G01 X22.7190 Y22.9844 
G01 X22.8439 Y22.9596 
G01 X23.1132 Y22.9596 
G01 X21.6948 Y21.5412 
G01 X16.2348 Y21.5412 
G01 X16.1611 Y21.5420 
G01 X16.1570 Y21.5412 
G01 X16.1528 Y21.5412 
G01 X16.0808 Y21.5269 
G01 X16.0083 Y21.5132 
G01 X16.0044 Y21.5117 
G01 X16.0003 Y21.5109 
G01 X15.9325 Y21.4828 
G01 X15.8644 Y21.4554 
G01 X15.6695 Y21.4554 
G01 X15.5333 Y21.4189 
G01 X15.4113 Y21.3484 
G01 X15.3116 Y21.2487 
G01 X15.2411 Y21.1267 
G01 X15.2400 Y21.1226 
G01 X15.2389 Y21.1267 
G01 X15.1684 Y21.2487 
G01 X15.0687 Y21.3484 
G01 X14.9467 Y21.4189 
G01 X14.8105 Y21.4554 
G01 X13.8695 Y21.4554 
G01 X13.7333 Y21.4189 
G01 X13.6113 Y21.3484 
G01 X13.5116 Y21.2487 
G01 X13.4411 Y21.1267 
G01 X13.4229 Y21.0586 
G01 X12.7746 Y21.0586 
G01 X12.6221 Y21.0283 
G01 X12.4785 Y20.9688 
G01 X12.3492 Y20.8824 
G01 X11.3994 Y19.9326 
G00 Z2.5400 
G00 X13.1794 Y19.4798 
G01 Z-0.1200 F100.00 
G01 X13.4605 Y19.4798 F230.00 
G01 X13.5116 Y19.3913 
G01 X13.6113 Y19.2916 
G01 X13.7333 Y19.2211 
G01 X13.8695 Y19.1846 
G01 X14.8105 Y19.1846 
G01 X14.9467 Y19.2211 
G01 X14.9586 Y19.2280 
G01 X14.9586 Y19.1484 
G01 X12.3492 Y16.5390 
G01 X12.2392 Y16.4290 
G01 X12.1528 Y16.2997 
G01 X12.0933 Y16.1561 
G01 X12.0630 Y16.0036 
G01 X12.0630 Y14.8050 
G01 X11.2986 Y14.0405 
G01 X11.3086 Y14.0602 
G01 X11.3689 Y14.2458 
G01 X11.3994 Y14.4385 
G01 X11.3994 Y16.0415 
G01 X11.3689 Y16.2342 
G01 X11.3086 Y16.4198 
G01 X11.2200 Y16.5936 
G01 X11.1054 Y16.7514 
G01 X10.9674 Y16.8894 
G01 X10.8096 Y17.0040 
G01 X10.6389 Y17.0910 
G01 X10.6697 Y17.0971 
G01 X10.8133 Y17.1566 
G01 X10.9426 Y17.2430 
G01 X11.0526 Y17.3530 
G01 X13.1794 Y19.4798 
G00 Z2.5400 
G00 X17.0072 Y16.1016 
G01 Z-0.1200 F100.00 
G01 X18.3166 Y16.1016 F230.00 
G01 X24.1038 Y10.3144 
G01 X23.5400 Y10.3144 
G01 X22.8600 Y9.6344 
G01 X22.1800 Y10.3144 
G01 X21.0000 Y10.3144 
G01 X20.3200 Y9.6344 
G01 X19.6400 Y10.3144 
G01 X18.5905 Y10.3144 
G01 X18.5349 Y10.3516 
G01 X18.3913 Y10.4111 
G01 X18.2387 Y10.4414 
G01 X17.0200 Y10.4414 
G01 X17.0200 Y14.4006 
G01 X17.0389 Y14.4333 
G01 X17.0754 Y14.5695 
G01 X17.0754 Y15.9105 
G01 X17.0389 Y16.0467 
G01 X17.0072 Y16.1016 
G00 Z2.5400 
G00 X17.6256 Y8.8626 
G01 Z-0.1200 F100.00 
G01 X17.6256 Y8.7852 F230.00 
G01 X16.3754 Y7.5350 
G01 X16.3754 Y8.4605 
G01 X16.3389 Y8.5967 
G01 X16.2684 Y8.7187 
G01 X16.1687 Y8.8184 
G01 X16.0922 Y8.8626 
G01 X17.6256 Y8.8626 
G00 Z2.5400 
G00 X17.6256 Y6.5524 
G01 Z-0.1200 F100.00 
G01 X17.6256 Y5.7600 F230.00 
G01 X18.4600 Y4.9256 
G01 X19.0746 Y4.9256 
G01 X17.3514 Y3.2024 
G01 X17.0754 Y3.2024 
G01 X17.0754 Y4.4805 
G01 X17.0389 Y4.6167 
G01 X17.0200 Y4.6494 
G01 X17.0200 Y5.9468 
G01 X17.6256 Y6.5524 
G00 Z2.5400 
G00 X19.7944 Y7.6200 
G01 Z-0.1200 F100.00 
G01 X20.3200 Y8.1456 F230.00 
G01 X20.8456 Y7.6200 
G01 X20.3200 Y7.0944 
G01 X19.7944 Y7.6200 
G00 Z2.5400 
G00 X22.3344 Y7.6200 
G01 Z-0.1200 F100.00 
G01 X22.8600 Y8.1456 F230.00 
G01 X23.3856 Y7.6200 
G01 X22.8600 Y7.0944 
G01 X22.3344 Y7.6200 
G00 Z2.5400 
G00 X22.8600 Y5.6056 
G01 Z-0.1200 F100.00 
G01 X23.5400 Y4.9256 F230.00 
G01 X24.7200 Y4.9256 
G01 X25.2456 Y5.4512 
G01 X25.2456 Y5.3905 
G01 X25.2821 Y5.2543 
G01 X25.3526 Y5.1323 
G01 X25.4523 Y5.0326 
G01 X25.5743 Y4.9621 
G01 X25.7105 Y4.9256 
G01 X27.2788 Y4.9256 
G01 X24.5904 Y2.2372 
G01 X18.6190 Y2.2372 
G01 X21.3074 Y4.9256 
G01 X22.1800 Y4.9256 
G01 X22.8600 Y5.6056 
G00 Z2.5400 
G00 X25.2456 Y7.2488 
G01 Z-0.1200 F100.00 
G01 X24.8744 Y7.6200 F230.00 
G01 X25.4000 Y8.1456 
G01 X25.7712 Y7.7744 
G01 X25.7105 Y7.7744 
G01 X25.5743 Y7.7379 
G01 X25.4523 Y7.6674 
G01 X25.3526 Y7.5677 
G01 X25.2821 Y7.4457 
G01 X25.2456 Y7.3095 
G01 X25.2456 Y7.2488 
G00 Z2.5400 
G00 Z10.0000 
M05
M02
